;FLAVOR:Marlin
;TIME:6527
;Filament used: 7.35787m
;Layer height: 0.15
;MINX:25.53
;MINY:25.527
;MINZ:0.3
;MAXX:182.202
;MAXY:182.202
;MAXZ:24
;Generated with Cura_SteamEngine 4.13.0
M140 S90
M105
M190 S90
M104 S235
M105
M109 S235
M82 ;absolute extrusion mode
G21 ;metric values
G90 ;absolute positioning
M82 ;set extruder to absolute mode
M107 ;start with the fan off
G28 X0 Y0 ;move X/Y to min endstops
G28 Z0 ;move Z to min endstops
G1 Z15.0 F9000 ;move the platform down 15mm
G92 E0 ;zero the extruded length
G1 F200 E6 ;extrude 6 mm of feed stock
G92 E0 ;zero the extruded length again
G1 F9000
;Put printing message on LCD screen
M117 Printing...
G92 E0
G92 E0
G1 F3000 E-5
;LAYER_COUNT:159
;LAYER:0
M107
G0 F3600 X31.135 Y31.946 Z0.3
;TYPE:SKIRT
G1 F3000 E0
G1 F1800 X31.911 Y31.174 E0.05461
G1 X32.22 Y30.861 E0.07655
G1 X33.845 Y29.236 E0.19121
G1 X34.345 Y28.75 E0.22599
G1 X35.057 Y28.114 E0.27362
G1 X35.82 Y27.54 E0.32126
G1 X36.628 Y27.031 E0.3689
G1 X37.476 Y26.592 E0.41654
G1 X38.357 Y26.225 E0.46416
G1 X39.266 Y25.934 E0.51177
G1 X40.197 Y25.719 E0.55944
G1 X41.142 Y25.583 E0.60708
G1 X42.095 Y25.527 E0.6547
G1 X43.049 Y25.55 E0.70231
G1 X43.998 Y25.654 E0.74994
G1 X44.936 Y25.836 E0.79761
G1 X45.695 Y26.045 E0.83689
G1 X47.004 Y26.455 E0.90532
G1 X49.462 Y27.185 E1.03325
G1 X51.876 Y27.829 E1.15789
G1 X54.319 Y28.407 E1.28314
G1 X56.818 Y28.926 E1.41048
G1 X59.237 Y29.353 E1.53303
G1 X60.425 Y29.53 E1.59295
G1 X60.652 Y29.566 E1.60442
G1 X61.284 Y29.673 E1.63639
G1 X61.799 Y29.772 E1.66256
G1 X62.163 Y29.851 E1.68114
G1 X63.102 Y30.098 E1.72958
G1 X63.698 Y30.291 E1.76084
G1 X64.021 Y30.405 E1.77793
G1 X64.965 Y30.786 E1.82871
G1 X65.116 Y30.855 E1.837
G1 X65.587 Y31.084 E1.86312
G1 X65.916 Y31.253 E1.88158
G1 X66.749 Y31.726 E1.92937
G1 X66.893 Y31.816 E1.93784
G1 X67.326 Y32.1 E1.96367
G1 X67.597 Y32.287 E1.9801
G1 X68.535 Y33.01 E2.03919
G1 X68.785 Y33.224 E2.0556
G1 X69.288 Y33.68 E2.08948
G1 X70.086 Y34.45 E2.1448
G1 X176.608 Y140.971 E9.66047
G1 X177.267 Y141.649 E9.70764
G1 X177.615 Y142.019 E9.73298
G1 X178.068 Y142.531 E9.76709
G1 X178.467 Y143.015 E9.79838
G1 X178.586 Y143.168 E9.80805
G1 X178.924 Y143.626 E9.83645
G1 X179.186 Y144 E9.85923
G1 X179.506 Y144.482 E9.8881
G1 X179.602 Y144.635 E9.89711
G1 X179.898 Y145.135 E9.9261
G1 X180.103 Y145.502 E9.94707
G1 X180.413 Y146.099 E9.98063
G1 X180.501 Y146.281 E9.99071
G1 X180.72 Y146.762 E10.01708
G1 X180.891 Y147.162 E10.03878
G1 X181.153 Y147.831 E10.07463
G1 X181.374 Y148.487 E10.10916
G1 X181.504 Y148.911 E10.13129
G1 X181.677 Y149.536 E10.16364
G1 X181.717 Y149.699 E10.17202
G1 X181.827 Y150.195 E10.19736
G1 X181.914 Y150.633 E10.21964
G1 X182.019 Y151.25 E10.25087
G1 X182.045 Y151.433 E10.26009
G1 X182.114 Y152.033 E10.29022
G1 X182.153 Y152.474 E10.31231
G1 X182.191 Y153.11 E10.3441
G1 X182.197 Y153.296 E10.35338
G1 X182.202 Y153.845 E10.38077
G1 X182.195 Y154.287 E10.40282
G1 X182.165 Y154.951 E10.43599
G1 X182.152 Y155.126 E10.44474
G1 X182.102 Y155.634 E10.47021
G1 X182.047 Y156.094 E10.49332
G1 X181.953 Y156.734 E10.52559
G1 X181.923 Y156.903 E10.53416
G1 X181.817 Y157.426 E10.56078
G1 X181.719 Y157.859 E10.58293
G1 X181.548 Y158.521 E10.61704
G1 X181.503 Y158.676 E10.62509
G1 X181.338 Y159.198 E10.6524
G1 X181.186 Y159.641 E10.67577
G1 X180.956 Y160.252 E10.70834
G1 X180.889 Y160.416 E10.71718
G1 X180.674 Y160.909 E10.74401
G1 X180.483 Y161.32 E10.76662
G1 X180.209 Y161.871 E10.79732
G1 X180.126 Y162.027 E10.80614
G1 X179.844 Y162.526 E10.83474
G1 X179.619 Y162.902 E10.8566
G1 X179.27 Y163.449 E10.88897
G1 X179.156 Y163.617 E10.8991
G1 X178.822 Y164.084 E10.92774
G1 X178.545 Y164.451 E10.95068
G1 X178.159 Y164.935 E10.98157
G1 X178.078 Y165.031 E10.98783
G1 X177.732 Y165.421 E11.01384
G1 X177.348 Y165.836 E11.04205
G1 X177.144 Y166.052 E11.05687
G1 X176.653 Y166.554 E11.09191
G1 X166.492 Y176.713 E11.80875
G1 X165.92 Y177.269 E11.84855
G1 X165.275 Y177.863 E11.89229
G1 X165.019 Y178.085 E11.9092
G1 X164.545 Y178.474 E11.93979
G1 X164.397 Y178.589 E11.94914
G1 X163.943 Y178.924 E11.97729
G1 X163.569 Y179.186 E12.00007
G1 X163.087 Y179.506 E12.02894
G1 X162.934 Y179.602 E12.03795
G1 X162.434 Y179.898 E12.06694
G1 X162.067 Y180.103 E12.08791
G1 X161.47 Y180.413 E12.12147
G1 X161.288 Y180.501 E12.13156
G1 X160.807 Y180.72 E12.15792
G1 X160.407 Y180.891 E12.17963
G1 X159.738 Y181.153 E12.21547
G1 X159.096 Y181.37 E12.24928
G1 X158.687 Y181.496 E12.27063
G1 X158.052 Y181.671 E12.30349
G1 X157.873 Y181.715 E12.31269
G1 X157.364 Y181.828 E12.3387
G1 X156.914 Y181.917 E12.36159
G1 X156.269 Y182.026 E12.39422
G1 X156.096 Y182.05 E12.40294
G1 X155.524 Y182.114 E12.43165
G1 X155.079 Y182.153 E12.45394
G1 X154.442 Y182.191 E12.48577
G1 X154.251 Y182.197 E12.49531
G1 X153.709 Y182.202 E12.52235
G1 X153.276 Y182.195 E12.54396
G1 X152.62 Y182.165 E12.57672
G1 X152.417 Y182.15 E12.58687
G1 X151.863 Y182.095 E12.61465
G1 X151.441 Y182.043 E12.63586
G1 X150.9 Y181.964 E12.66314
G1 X150.72 Y181.933 E12.67225
G1 X150.103 Y181.809 E12.70365
G1 X149.672 Y181.71 E12.72571
G1 X149.073 Y181.555 E12.75658
G1 X148.92 Y181.511 E12.76452
G1 X148.357 Y181.333 E12.79398
G1 X147.913 Y181.18 E12.81741
G1 X147.328 Y180.96 E12.84859
G1 X147.161 Y180.892 E12.85759
G1 X146.664 Y180.676 E12.88462
G1 X146.25 Y180.484 E12.90739
G1 X145.681 Y180.201 E12.9391
G1 X145.531 Y180.121 E12.94758
G1 X145.031 Y179.837 E12.97626
G1 X144.656 Y179.612 E12.99808
G1 X144.12 Y179.27 E13.0298
G1 X143.952 Y179.156 E13.03993
G1 X143.518 Y178.846 E13.06654
G1 X143.195 Y178.604 E13.08668
G1 X142.757 Y178.259 E13.11449
G1 X142.617 Y178.143 E13.12356
G1 X142.153 Y177.737 E13.15432
G1 X141.718 Y177.335 E13.18387
G1 X141.152 Y176.789 E13.22311
G1 X34.462 Y70.099 E20.75067
G1 X33.974 Y69.598 E20.78556
G1 X33.728 Y69.337 E20.80345
G1 X33.304 Y68.872 E20.83485
G1 X32.668 Y68.11 E20.88437
G1 X32.529 Y67.928 E20.89579
G1 X32.001 Y67.177 E20.94159
G1 X31.79 Y66.849 E20.96105
G1 X31.31 Y66.028 E21.0085
G1 X31.233 Y65.883 E21.01669
G1 X30.978 Y65.372 E21.04518
G1 X30.837 Y65.071 E21.06176
G1 X30.535 Y64.367 E21.09998
G1 X30.472 Y64.205 E21.10865
G1 X30.235 Y63.533 E21.1442
G1 X30.12 Y63.172 E21.1631
G1 X29.864 Y62.231 E21.21176
G1 X29.74 Y61.642 E21.24179
G1 X29.62 Y60.961 E21.27628
G1 X29.47 Y59.988 E21.3254
G1 X29.038 Y57.432 E21.45473
G1 X28.545 Y54.945 E21.58122
G1 X27.989 Y52.506 E21.70602
G1 X27.368 Y50.1 E21.82999
G1 X26.676 Y47.695 E21.95485
G1 X26.105 Y45.893 E22.04916
G1 X25.963 Y45.406 E22.07446
G1 X25.92 Y45.246 E22.08273
G1 X25.711 Y44.314 E22.13038
G1 X25.58 Y43.368 E22.17803
G1 X25.53 Y42.415 E22.22564
G1 X25.559 Y41.461 E22.27326
G1 X25.668 Y40.512 E22.32091
G1 X25.856 Y39.576 E22.36854
G1 X26.122 Y38.659 E22.41618
G1 X26.463 Y37.767 E22.46382
G1 X26.878 Y36.907 E22.51146
G1 X27.364 Y36.085 E22.5591
G1 X27.916 Y35.306 E22.60674
G1 X28.659 Y34.44 E22.66366
G1 X29.13 Y33.95 E22.69757
G1 X31.135 Y31.946 E22.839
G0 F3600 X31.418 Y32.229
G1 F1800 X32.196 Y31.455 E22.89375
G1 X32.503 Y31.143 E22.91559
G1 X34.124 Y29.523 E23.02992
G1 X34.624 Y29.037 E23.06471
G1 X35.324 Y28.413 E23.1115
G1 X36.074 Y27.85 E23.15828
G1 X36.87 Y27.354 E23.20507
G1 X37.705 Y26.927 E23.25186
G1 X38.573 Y26.572 E23.29865
G1 X39.469 Y26.293 E23.34547
G1 X40.385 Y26.091 E23.39227
G1 X41.314 Y25.968 E23.43902
G1 X42.251 Y25.925 E23.48581
G1 X43.188 Y25.962 E23.5326
G1 X44.119 Y26.078 E23.5794
G1 X45.036 Y26.273 E23.62618
G1 X45.576 Y26.427 E23.65419
G1 X46.854 Y26.827 E23.721
G1 X49.35 Y27.569 E23.85091
G1 X51.786 Y28.219 E23.9767
G1 X54.259 Y28.803 E24.10347
G1 X56.726 Y29.316 E24.22918
G1 X59.186 Y29.751 E24.35382
G1 X60.585 Y29.96 E24.42439
G1 X61.217 Y30.067 E24.45637
G1 X61.714 Y30.163 E24.48162
G1 X62.078 Y30.242 E24.5002
G1 X62.985 Y30.48 E24.54699
G1 X63.565 Y30.668 E24.5774
G1 X63.888 Y30.782 E24.59449
G1 X64.799 Y31.15 E24.64351
G1 X64.95 Y31.219 E24.65179
G1 X65.404 Y31.439 E24.67696
G1 X65.733 Y31.608 E24.69542
G1 X66.537 Y32.065 E24.74155
G1 X67.098 Y32.429 E24.77492
G1 X67.369 Y32.616 E24.79134
G1 X68.275 Y33.313 E24.84837
G1 X68.525 Y33.527 E24.86479
G1 X69.01 Y33.968 E24.8975
G1 X69.808 Y34.738 E24.95282
G1 X176.325 Y141.254 E32.46813
G1 X176.98 Y141.928 E32.51502
G1 X177.565 Y142.562 E32.55806
G1 X177.766 Y142.793 E32.57334
G1 X178.151 Y143.261 E32.60357
G1 X178.27 Y143.414 E32.61324
G1 X178.596 Y143.856 E32.64064
G1 X178.858 Y144.23 E32.66342
G1 X179.167 Y144.695 E32.69128
G1 X179.263 Y144.848 E32.70029
G1 X179.548 Y145.33 E32.72823
G1 X179.753 Y145.697 E32.7492
G1 X180.053 Y146.273 E32.7816
G1 X180.141 Y146.455 E32.79169
G1 X180.353 Y146.919 E32.81714
G1 X180.524 Y147.319 E32.83884
G1 X180.776 Y147.964 E32.87339
G1 X180.992 Y148.605 E32.90713
G1 X181.122 Y149.029 E32.92926
G1 X181.288 Y149.631 E32.96041
G1 X181.434 Y150.273 E32.99326
G1 X181.521 Y150.711 E33.01554
G1 X181.623 Y151.307 E33.04571
G1 X181.649 Y151.49 E33.05493
G1 X181.715 Y152.068 E33.08395
G1 X181.754 Y152.509 E33.10604
G1 X181.791 Y153.123 E33.13673
G1 X181.797 Y153.309 E33.14601
G1 X181.802 Y153.838 E33.17241
G1 X181.795 Y154.28 E33.19446
G1 X181.766 Y154.921 E33.22647
G1 X181.705 Y155.587 E33.25984
G1 X181.65 Y156.047 E33.28295
G1 X181.559 Y156.664 E33.31407
G1 X181.529 Y156.833 E33.32263
G1 X181.427 Y157.338 E33.34833
G1 X181.329 Y157.771 E33.37048
G1 X181.164 Y158.41 E33.40341
G1 X181.119 Y158.565 E33.41146
G1 X180.96 Y159.068 E33.43778
G1 X180.808 Y159.511 E33.46114
G1 X180.586 Y160.101 E33.49259
G1 X180.519 Y160.265 E33.50143
G1 X180.311 Y160.741 E33.52735
G1 X180.12 Y161.152 E33.54996
G1 X179.856 Y161.683 E33.57954
G1 X179.773 Y161.839 E33.58836
G1 X179.501 Y162.32 E33.61593
G1 X179.276 Y162.696 E33.63779
G1 X178.939 Y163.225 E33.66908
G1 X178.825 Y163.393 E33.67921
G1 X178.503 Y163.843 E33.70682
G1 X178.226 Y164.21 E33.72976
G1 X177.853 Y164.677 E33.75958
G1 X177.772 Y164.773 E33.76584
G1 X177.439 Y165.15 E33.79094
G1 X177.055 Y165.565 E33.81915
G1 X176.857 Y165.773 E33.83347
G1 X176.37 Y166.272 E33.86826
G1 X166.213 Y176.426 E34.58478
G1 X165.641 Y176.982 E34.62458
G1 X165.013 Y177.56 E34.66716
G1 X164.757 Y177.782 E34.68407
G1 X164.299 Y178.158 E34.71363
G1 X164.151 Y178.273 E34.72298
G1 X163.713 Y178.596 E34.75013
G1 X163.339 Y178.858 E34.77292
G1 X162.874 Y179.167 E34.80077
G1 X162.721 Y179.263 E34.80978
G1 X162.239 Y179.548 E34.83772
G1 X161.872 Y179.753 E34.85869
G1 X161.296 Y180.053 E34.89109
G1 X161.114 Y180.141 E34.90118
G1 X160.65 Y180.353 E34.92663
G1 X160.25 Y180.524 E34.94833
G1 X159.605 Y180.776 E34.98288
G1 X158.979 Y180.987 E35.01584
G1 X158.57 Y181.113 E35.03719
G1 X157.957 Y181.283 E35.06892
G1 X157.778 Y181.327 E35.07812
G1 X157.286 Y181.436 E35.10326
G1 X156.836 Y181.525 E35.12615
G1 X156.214 Y181.63 E35.15762
G1 X156.041 Y181.654 E35.16633
G1 X155.489 Y181.716 E35.19404
G1 X155.044 Y181.755 E35.21633
G1 X154.429 Y181.792 E35.24707
G1 X154.238 Y181.798 E35.2566
G1 X153.715 Y181.802 E35.28269
G1 X153.282 Y181.795 E35.3043
G1 X152.649 Y181.766 E35.33591
G1 X152.446 Y181.751 E35.34607
G1 X151.912 Y181.698 E35.37284
G1 X151.49 Y181.646 E35.39405
G1 X150.968 Y181.569 E35.42038
G1 X150.788 Y181.538 E35.42949
G1 X150.192 Y181.419 E35.45981
G1 X149.761 Y181.32 E35.48188
G1 X149.184 Y181.171 E35.51161
G1 X149.031 Y181.127 E35.51955
G1 X148.487 Y180.955 E35.54801
G1 X148.043 Y180.802 E35.57144
G1 X147.479 Y180.59 E35.6015
G1 X147.312 Y180.522 E35.6105
G1 X146.832 Y180.313 E35.63662
G1 X146.418 Y180.121 E35.65939
G1 X145.87 Y179.848 E35.68993
G1 X145.72 Y179.768 E35.69841
G1 X145.237 Y179.494 E35.72612
G1 X144.862 Y179.269 E35.74793
G1 X144.344 Y178.939 E35.77858
G1 X144.176 Y178.825 E35.7887
G1 X143.757 Y178.526 E35.81439
G1 X143.434 Y178.284 E35.83452
G1 X143.012 Y177.951 E35.86134
G1 X142.872 Y177.835 E35.87041
G1 X142.424 Y177.444 E35.90008
G1 X141.989 Y177.042 E35.92963
G1 X141.431 Y176.502 E35.96837
G1 X34.632 Y69.702 E43.50365
G1 X34.261 Y69.32 E43.53022
G1 X34.024 Y69.068 E43.54748
G1 X33.6 Y68.603 E43.57887
G1 X32.986 Y67.868 E43.62665
G1 X32.847 Y67.686 E43.63808
G1 X32.338 Y66.96 E43.68231
G1 X32.127 Y66.632 E43.70177
G1 X31.663 Y65.84 E43.74756
G1 X31.586 Y65.695 E43.75575
G1 X31.34 Y65.202 E43.78324
G1 X31.199 Y64.901 E43.79983
G1 X30.908 Y64.222 E43.83668
G1 X30.845 Y64.06 E43.84535
G1 X30.616 Y63.412 E43.87964
G1 X30.501 Y63.051 E43.89854
G1 X30.254 Y62.143 E43.94549
G1 X30.134 Y61.57 E43.9747
G1 X30.015 Y60.9 E44.00865
G1 X29.855 Y59.868 E44.06075
G1 X29.431 Y57.353 E44.18799
G1 X28.941 Y54.884 E44.31357
G1 X28.381 Y52.422 E44.43954
G1 X27.754 Y49.994 E44.56465
G1 X27.059 Y47.578 E44.69007
G1 X26.486 Y45.772 E44.7846
G1 X26.306 Y45.142 E44.81729
G1 X26.101 Y44.227 E44.86407
G1 X25.975 Y43.297 E44.91089
G1 X25.929 Y42.361 E44.95764
G1 X25.963 Y41.423 E45.00447
G1 X26.076 Y40.492 E45.05126
G1 X26.269 Y39.574 E45.09806
G1 X26.539 Y38.676 E45.14484
G1 X26.884 Y37.804 E45.19163
G1 X27.302 Y36.965 E45.23839
G1 X27.791 Y36.164 E45.28521
G1 X28.345 Y35.408 E45.33197
G1 X28.95 Y34.715 E45.37787
G1 X29.413 Y34.233 E45.41121
G1 X31.418 Y32.229 E45.55264
G0 F3600 X31.7 Y32.513
G1 F1800 X32.48 Y31.737 E45.60753
G1 X32.786 Y31.426 E45.6293
G1 X34.403 Y29.81 E45.74335
G1 X34.903 Y29.324 E45.77814
G1 X35.59 Y28.712 E45.82404
G1 X36.328 Y28.161 E45.86999
G1 X37.111 Y27.677 E45.91592
G1 X37.933 Y27.262 E45.96186
G1 X38.788 Y26.921 E46.00778
G1 X39.669 Y26.654 E46.05371
G1 X40.571 Y26.466 E46.09968
G1 X41.485 Y26.356 E46.14561
G1 X42.405 Y26.326 E46.19153
G1 X43.324 Y26.375 E46.23744
G1 X44.236 Y26.505 E46.2834
G1 X45.456 Y26.809 E46.34613
G1 X46.748 Y27.213 E46.41367
G1 X49.239 Y27.954 E46.54332
G1 X51.697 Y28.609 E46.67023
G1 X54.157 Y29.191 E46.79635
G1 X56.647 Y29.708 E46.92323
G1 X59.094 Y30.141 E47.04721
G1 X60.307 Y30.321 E47.10839
G1 X61.15 Y30.462 E47.15103
G1 X61.993 Y30.633 E47.19394
G1 X62.867 Y30.862 E47.23902
G1 X63.432 Y31.045 E47.26865
G1 X63.755 Y31.159 E47.28574
G1 X64.633 Y31.514 E47.33298
G1 X65.221 Y31.795 E47.3655
G1 X65.55 Y31.964 E47.38395
G1 X66.325 Y32.404 E47.42841
G1 X66.871 Y32.759 E47.4609
G1 X67.142 Y32.946 E47.47733
G1 X68.015 Y33.617 E47.53226
G1 X68.265 Y33.831 E47.54868
G1 X68.732 Y34.256 E47.58018
G1 X69.53 Y35.026 E47.63551
G1 X176.042 Y141.537 E55.15047
G1 X176.159 Y141.655 E55.15876
G1 X176.693 Y142.206 E55.19704
G1 X177.264 Y142.825 E55.23906
G1 X177.465 Y143.056 E55.25433
G1 X177.835 Y143.506 E55.2834
G1 X177.954 Y143.659 E55.29307
G1 X178.269 Y144.085 E55.3195
G1 X178.531 Y144.459 E55.34228
G1 X178.828 Y144.907 E55.3691
G1 X178.924 Y145.06 E55.37811
G1 X179.199 Y145.525 E55.40506
G1 X179.404 Y145.892 E55.42603
G1 X179.693 Y146.447 E55.45725
G1 X179.985 Y147.076 E55.49185
G1 X180.156 Y147.476 E55.51355
G1 X180.399 Y148.098 E55.54687
G1 X180.609 Y148.722 E55.57972
G1 X180.739 Y149.146 E55.60184
G1 X180.9 Y149.727 E55.63192
G1 X181.042 Y150.351 E55.66385
G1 X181.129 Y150.789 E55.68613
G1 X181.227 Y151.363 E55.71518
G1 X181.253 Y151.546 E55.7244
G1 X181.317 Y152.103 E55.75237
G1 X181.356 Y152.544 E55.77446
G1 X181.391 Y153.136 E55.80404
G1 X181.397 Y153.322 E55.81333
G1 X181.402 Y153.832 E55.83877
G1 X181.395 Y154.274 E55.86083
G1 X181.367 Y154.891 E55.89164
G1 X181.308 Y155.539 E55.9241
G1 X181.253 Y155.999 E55.94722
G1 X181.165 Y156.594 E55.97723
G1 X181.037 Y157.25 E56.01057
G1 X180.939 Y157.683 E56.03272
G1 X180.78 Y158.298 E56.06441
G1 X180.735 Y158.453 E56.07246
G1 X180.581 Y158.938 E56.09785
G1 X180.429 Y159.381 E56.12122
G1 X180.216 Y159.95 E56.15153
G1 X179.949 Y160.572 E56.1853
G1 X179.758 Y160.983 E56.20791
G1 X179.503 Y161.495 E56.23644
G1 X179.42 Y161.651 E56.24526
G1 X179.158 Y162.115 E56.27185
G1 X178.933 Y162.491 E56.29371
G1 X178.608 Y163 E56.32384
G1 X178.494 Y163.168 E56.33396
G1 X178.184 Y163.602 E56.36057
G1 X177.907 Y163.969 E56.38351
G1 X177.547 Y164.419 E56.41226
G1 X177.145 Y164.878 E56.4427
G1 X176.761 Y165.293 E56.47091
G1 X176.571 Y165.494 E56.48471
G1 X176.087 Y165.989 E56.51925
G1 X165.934 Y176.139 E57.23549
G1 X165.362 Y176.695 E57.27529
G1 X164.751 Y177.258 E57.31674
G1 X164.495 Y177.48 E57.33365
G1 X164.054 Y177.842 E57.36211
G1 X163.906 Y177.957 E57.37146
G1 X163.484 Y178.269 E57.39765
G1 X163.11 Y178.531 E57.42043
