;FLAVOR:Marlin
;TIME:8365
;Filament used: 7.587m
;Layer height: 0.15
;MINX:77.7
;MINY:76.6
;MINZ:0.3
;MAXX:122.3
;MAXY:123.4
;MAXZ:179.55
;Generated with Cura_SteamEngine 4.13.0
M140 S90
M105
M190 S90
M104 S235
M105
M109 S235
M82 ;absolute extrusion mode
G21 ;metric values
G90 ;absolute positioning
M82 ;set extruder to absolute mode
M107 ;start with the fan off
G28 X0 Y0 ;move X/Y to min endstops
G28 Z0 ;move Z to min endstops
G1 Z15.0 F9000 ;move the platform down 15mm
G92 E0 ;zero the extruded length
G1 F200 E6 ;extrude 6 mm of feed stock
G92 E0 ;zero the extruded length again
G1 F9000
;Put printing message on LCD screen
M117 Printing...
G92 E0
G92 E0
G1 F3000 E-5
;LAYER_COUNT:1196
;LAYER:0
M107
G0 F3600 X80.899 Y80.1 Z0.3
;TYPE:SKIRT
G1 F3000 E0
G1 F1800 X81.59 Y79.44 E0.04767
G1 X82.333 Y78.841 E0.09529
G1 X83.124 Y78.307 E0.1429
G1 X83.957 Y77.84 E0.19055
G1 X84.826 Y77.445 E0.23817
G1 X85.725 Y77.123 E0.28581
G1 X86.648 Y76.879 E0.33344
G1 X87.588 Y76.712 E0.38107
G1 X88.824 Y76.614 E0.44293
G1 X89.509 Y76.6 E0.47711
G1 X110.193 Y76.6 E1.50904
G1 X111.054 Y76.611 E1.552
G1 X112.008 Y76.665 E1.59967
G1 X112.953 Y76.798 E1.64728
G1 X113.884 Y77.01 E1.69492
G1 X114.794 Y77.299 E1.74255
G1 X115.677 Y77.663 E1.7902
G1 X116.526 Y78.1 E1.83784
G1 X117.335 Y78.606 E1.88545
G1 X118.099 Y79.178 E1.93306
G1 X118.813 Y79.812 E1.9807
G1 X119.471 Y80.504 E2.02834
G1 X120.069 Y81.248 E2.07596
G1 X120.603 Y82.04 E2.12362
G1 X121.068 Y82.874 E2.17126
G1 X121.463 Y83.743 E2.21888
G1 X121.782 Y84.643 E2.26652
G1 X122.026 Y85.566 E2.31415
G1 X122.191 Y86.507 E2.36181
G1 X122.287 Y87.69 E2.42102
G1 X122.3 Y88.331 E2.45301
G1 X122.3 Y111.42 E3.60493
G1 X122.291 Y112.134 E3.64055
G1 X122.239 Y113.087 E3.68817
G1 X122.107 Y114.033 E3.73582
G1 X121.897 Y114.964 E3.78343
G1 X121.61 Y115.875 E3.83109
G1 X121.247 Y116.758 E3.87872
G1 X120.812 Y117.608 E3.92635
G1 X120.307 Y118.418 E3.97398
G1 X119.736 Y119.183 E4.0216
G1 X119.103 Y119.898 E4.06924
G1 X118.413 Y120.557 E4.11685
G1 X117.669 Y121.157 E4.16453
G1 X116.878 Y121.692 E4.21217
G1 X116.046 Y122.159 E4.25977
G1 X115.177 Y122.554 E4.3074
G1 X114.278 Y122.876 E4.35504
G1 X113.355 Y123.121 E4.40268
G1 X112.415 Y123.288 E4.45031
G1 X111.176 Y123.386 E4.51232
G1 X110.491 Y123.4 E4.5465
G1 X89.66 Y123.399 E5.58576
G1 X88.962 Y123.39 E5.62059
G1 X88.009 Y123.338 E5.66821
G1 X87.063 Y123.206 E5.71586
G1 X86.132 Y122.995 E5.76349
G1 X85.221 Y122.708 E5.81114
G1 X84.338 Y122.345 E5.85877
G1 X83.489 Y121.909 E5.90638
G1 X82.678 Y121.404 E5.95405
G1 X81.913 Y120.833 E6.00167
G1 X81.199 Y120.2 E6.04928
G1 X80.539 Y119.509 E6.09695
G1 X79.94 Y118.766 E6.14456
G1 X79.406 Y117.975 E6.19218
G1 X78.939 Y117.142 E6.23982
G1 X78.544 Y116.273 E6.28745
G1 X78.222 Y115.374 E6.33509
G1 X77.978 Y114.451 E6.38272
G1 X77.811 Y113.511 E6.43035
G1 X77.713 Y112.278 E6.49206
G1 X77.7 Y111.633 E6.52424
G1 X77.7 Y88.561 E7.67531
G1 X77.709 Y87.863 E7.71014
G1 X77.761 Y86.91 E7.75775
G1 X77.893 Y85.964 E7.80541
G1 X78.104 Y85.033 E7.85303
G1 X78.391 Y84.122 E7.90068
G1 X78.754 Y83.239 E7.94831
G1 X79.19 Y82.39 E7.99593
G1 X79.695 Y81.579 E8.04359
G1 X80.266 Y80.814 E8.09122
G1 X80.899 Y80.1 E8.13882
G0 F3600 X81.292 Y80.27
G1 F1800 X81.979 Y79.633 E8.18556
G1 X82.719 Y79.056 E8.23238
G1 X83.505 Y78.544 E8.27918
G1 X84.332 Y78.101 E8.32599
G1 X85.193 Y77.73 E8.37276
G1 X86.083 Y77.434 E8.41955
G1 X86.995 Y77.215 E8.46635
G1 X87.922 Y77.074 E8.51313
G1 X88.834 Y77.013 E8.55873
G1 X89.509 Y77 E8.59241
G1 X110.193 Y77 E9.62434
G1 X111.049 Y77.011 E9.66705
G1 X111.985 Y77.065 E9.71382
G1 X112.913 Y77.197 E9.76059
G1 X113.827 Y77.409 E9.8074
G1 X114.719 Y77.698 E9.85418
G1 X115.584 Y78.061 E9.90098
G1 X116.414 Y78.497 E9.94775
G1 X117.205 Y79.002 E9.99457
G1 X117.949 Y79.573 E10.04136
G1 X118.642 Y80.205 E10.08815
G1 X119.279 Y80.893 E10.13493
G1 X119.854 Y81.634 E10.18173
G1 X120.365 Y82.42 E10.2285
G1 X120.807 Y83.248 E10.27532
G1 X121.176 Y84.11 E10.3221
G1 X121.471 Y85 E10.36888
G1 X121.689 Y85.912 E10.41566
G1 X121.829 Y86.84 E10.46249
G1 X121.887 Y87.702 E10.50559
G1 X121.9 Y88.331 E10.53698
G1 X121.9 Y111.415 E11.68864
G1 X121.891 Y112.129 E11.72427
G1 X121.839 Y113.065 E11.77104
G1 X121.708 Y113.994 E11.81784
G1 X121.498 Y114.908 E11.86463
G1 X121.211 Y115.801 E11.91143
G1 X120.849 Y116.666 E11.95821
G1 X120.414 Y117.497 E12.005
G1 X119.911 Y118.288 E12.05177
G1 X119.341 Y119.033 E12.09857
G1 X118.711 Y119.728 E12.14537
G1 X118.023 Y120.365 E12.19215
G1 X117.284 Y120.942 E12.23892
G1 X116.498 Y121.454 E12.28572
G1 X115.671 Y121.897 E12.33253
G1 X114.81 Y122.269 E12.37932
G1 X113.92 Y122.565 E12.42611
G1 X113.008 Y122.784 E12.47291
G1 X112.081 Y122.926 E12.51969
G1 X111.166 Y122.987 E12.56545
G1 X110.491 Y123 E12.59913
G1 X89.665 Y122.999 E13.63814
G1 X88.967 Y122.99 E13.67297
G1 X88.031 Y122.938 E13.71974
G1 X87.102 Y122.806 E13.76655
G1 X86.188 Y122.596 E13.81334
G1 X85.295 Y122.309 E13.86013
G1 X84.43 Y121.946 E13.90693
G1 X83.599 Y121.512 E13.95371
G1 X82.808 Y121.008 E14.0005
G1 X82.063 Y120.438 E14.0473
G1 X81.369 Y119.807 E14.0941
G1 X80.732 Y119.12 E14.14084
G1 X80.155 Y118.38 E14.18765
G1 X79.643 Y117.594 E14.23445
G1 X79.2 Y116.767 E14.28126
G1 X78.829 Y115.906 E14.32803
G1 X78.533 Y115.016 E14.37482
G1 X78.314 Y114.104 E14.42162
G1 X78.173 Y113.177 E14.4684
G1 X78.112 Y112.267 E14.5139
G1 X78.1 Y111.633 E14.54554
G1 X78.1 Y88.566 E15.69635
G1 X78.109 Y87.868 E15.73118
G1 X78.161 Y86.932 E15.77795
G1 X78.293 Y86.003 E15.82476
G1 X78.503 Y85.089 E15.87155
G1 X78.79 Y84.196 E15.91835
G1 X79.153 Y83.331 E15.96515
G1 X79.587 Y82.5 E16.01192
G1 X80.091 Y81.709 E16.05871
G1 X80.661 Y80.964 E16.10551
G1 X81.292 Y80.27 E16.15231
G0 F3600 X81.684 Y80.444
G1 F1800 X82.368 Y79.829 E16.1982
G1 X83.103 Y79.275 E16.24412
G1 X83.884 Y78.787 E16.29006
G1 X84.704 Y78.368 E16.336
G1 X85.557 Y78.022 E16.38193
G1 X86.437 Y77.752 E16.42785
G1 X87.338 Y77.559 E16.47382
G1 X88.251 Y77.445 E16.51972
G1 X88.844 Y77.413 E16.54935
G1 X89.509 Y77.4 E16.58254
G1 X110.193 Y77.4 E17.61447
G1 X111.043 Y77.411 E17.65688
G1 X111.962 Y77.464 E17.7028
G1 X112.873 Y77.597 E17.74873
G1 X113.769 Y77.808 E17.79466
G1 X114.643 Y78.096 E17.84057
G1 X115.49 Y78.459 E17.88654
G1 X116.301 Y78.894 E17.93246
G1 X117.071 Y79.398 E17.97837
G1 X117.795 Y79.967 E18.02431
G1 X118.467 Y80.597 E18.07026
G1 X119.082 Y81.282 E18.11619
G1 X119.635 Y82.018 E18.16212
G1 X120.122 Y82.799 E18.20804
G1 X120.539 Y83.62 E18.25398
G1 X120.884 Y84.474 E18.29993
G1 X121.153 Y85.354 E18.34584
G1 X121.345 Y86.255 E18.3918
G1 X121.458 Y87.168 E18.4377
G1 X121.487 Y87.713 E18.46493
G1 X121.5 Y88.331 E18.49577
G1 X121.5 Y111.41 E19.64718
G1 X121.491 Y112.124 E19.68281
G1 X121.44 Y113.043 E19.72873
G1 X121.308 Y113.954 E19.77465
G1 X121.099 Y114.851 E19.8206
G1 X120.812 Y115.725 E19.8665
G1 X120.45 Y116.572 E19.91245
G1 X120.017 Y117.384 E19.95836
G1 X119.514 Y118.156 E20.00433
G1 X118.947 Y118.881 E20.05025
G1 X118.319 Y119.554 E20.09617
G1 X117.634 Y120.169 E20.1421
G1 X116.899 Y120.724 E20.18805
G1 X116.119 Y121.212 E20.23395
G1 X115.299 Y121.631 E20.27989
G1 X114.445 Y121.977 E20.32586
G1 X113.566 Y122.247 E20.37174
G1 X112.665 Y122.441 E20.41772
G1 X111.752 Y122.555 E20.46362
G1 X111.156 Y122.587 E20.4934
G1 X110.491 Y122.6 E20.52658
G1 X89.67 Y122.599 E21.56535
G1 X88.972 Y122.59 E21.60017
G1 X88.053 Y122.538 E21.6461
G1 X87.142 Y122.407 E21.69201
G1 X86.246 Y122.197 E21.73793
G1 X85.371 Y121.91 E21.78387
G1 X84.524 Y121.548 E21.82982
G1 X83.712 Y121.114 E21.87576
G1 X82.941 Y120.612 E21.92166
G1 X82.216 Y120.044 E21.96761
G1 X81.543 Y119.415 E22.01357
G1 X80.928 Y118.731 E22.05946
G1 X80.374 Y117.996 E22.10537
G1 X79.886 Y117.215 E22.15132
G1 X79.467 Y116.395 E22.19726
G1 X79.121 Y115.542 E22.24318
G1 X78.851 Y114.662 E22.28911
G1 X78.658 Y113.761 E22.33508
G1 X78.544 Y112.848 E22.38098
G1 X78.512 Y112.257 E22.41051
G1 X78.5 Y111.633 E22.44165
G1 X78.5 Y88.571 E23.59222
G1 X78.509 Y87.873 E23.62704
G1 X78.561 Y86.954 E23.67296
G1 X78.692 Y86.043 E23.71888
G1 X78.902 Y85.147 E23.7648
G1 X79.189 Y84.272 E23.81074
G1 X79.551 Y83.425 E23.85669
G1 X79.985 Y82.613 E23.90263
G1 X80.487 Y81.842 E23.94853
G1 X81.055 Y81.117 E23.99448
G1 X81.684 Y80.444 E24.04043
G0 F3600 X82.075 Y80.622
G1 F1800 X82.756 Y80.029 E24.08548
G1 X83.487 Y79.499 E24.13053
G1 X84.262 Y79.035 E24.1756
G1 X85.075 Y78.641 E24.22067
G1 X85.919 Y78.321 E24.2657
G1 X86.789 Y78.077 E24.31078
G1 X87.677 Y77.911 E24.35585
G1 X88.854 Y77.813 E24.41477
G1 X89.509 Y77.8 E24.44746
G1 X110.193 Y77.8 E25.47939
G1 X111.037 Y77.811 E25.5215
G1 X111.939 Y77.864 E25.56658
G1 X112.832 Y77.996 E25.61161
G1 X113.71 Y78.207 E25.65666
G1 X114.566 Y78.495 E25.70172
G1 X115.393 Y78.857 E25.74676
G1 X116.185 Y79.292 E25.79184
G1 X116.936 Y79.794 E25.83691
G1 X117.639 Y80.361 E25.88197
G1 X118.289 Y80.988 E25.92702
G1 X118.881 Y81.67 E25.97208
G1 X119.411 Y82.401 E26.01713
G1 X119.873 Y83.177 E26.06218
G1 X120.266 Y83.99 E26.10724
G1 X120.584 Y84.835 E26.15228
G1 X120.827 Y85.705 E26.19734
G1 X120.992 Y86.593 E26.24241
G1 X121.087 Y87.724 E26.29903
G1 X121.1 Y88.331 E26.32932
G1 X121.1 Y111.405 E27.48049
G1 X121.091 Y112.119 E27.51611
G1 X121.04 Y113.02 E27.56113
G1 X120.909 Y113.914 E27.60621
G1 X120.7 Y114.792 E27.65124
G1 X120.413 Y115.649 E27.69633
G1 X120.052 Y116.477 E27.74139
G1 X119.619 Y117.269 E27.78643
G1 X119.118 Y118.021 E27.83151
G1 X118.553 Y118.725 E27.87654
G1 X117.927 Y119.376 E27.9216
G1 X117.246 Y119.969 E27.96665
G1 X116.515 Y120.5 E28.01173
G1 X115.741 Y120.964 E28.05675
G1 X114.928 Y121.358 E28.10182
G1 X114.083 Y121.678 E28.1469
G1 X113.214 Y121.922 E28.19193
G1 X112.326 Y122.089 E28.23701
G1 X111.146 Y122.187 E28.29609
G1 X110.491 Y122.2 E28.32877
G1 X89.675 Y122.199 E29.36728
G1 X88.977 Y122.19 E29.40211
G1 X88.076 Y122.139 E29.44713
G1 X87.182 Y122.007 E29.49222
G1 X86.304 Y121.798 E29.53725
G1 X85.447 Y121.511 E29.58234
G1 X84.62 Y121.15 E29.62736
G1 X83.827 Y120.717 E29.67243
G1 X83.076 Y120.216 E29.71747
G1 X82.372 Y119.65 E29.76254
G1 X81.721 Y119.024 E29.8076
G1 X81.128 Y118.343 E29.85265
G1 X80.598 Y117.612 E29.89769
G1 X80.134 Y116.837 E29.94276
G1 X79.74 Y116.024 E29.98783
G1 X79.42 Y115.18 E30.03286
G1 X79.176 Y114.31 E30.07794
G1 X79.01 Y113.422 E30.12301
G1 X78.912 Y112.247 E30.18184
G1 X78.9 Y111.633 E30.21248
G1 X78.9 Y88.576 E31.36279
G1 X78.909 Y87.878 E31.39762
G1 X78.96 Y86.977 E31.44264
G1 X79.092 Y86.083 E31.48773
G1 X79.301 Y85.205 E31.53276
G1 X79.588 Y84.348 E31.57785
G1 X79.949 Y83.521 E31.62287
G1 X80.382 Y82.728 E31.66794
G1 X80.883 Y81.977 E31.71298
G1 X81.449 Y81.273 E31.75805
G1 X82.075 Y80.622 E31.80311
G1 F3000 E26.80311
;MESH:holster.stl
G0 F3600 X89.713 Y87.335
G0 X89.713 Y88.614
G0 X110.231 Y111.33
G1 F3000 E31.80311
G0 F3600 X110.301 Y111.4
;TYPE:WALL-INNER
G1 F1800 X89.7 Y111.4 E32.83089
G1 X89.699 Y88.6 E33.96839
G1 X110.3 Y88.6 E34.99618
G1 X110.301 Y111.4 E36.13368
G0 F3600 X110.701 Y111.8
;TYPE:WALL-OUTER
G1 F1800 X89.3 Y111.8 E37.20138
G1 X89.299 Y88.2 E38.37878
G1 X110.7 Y88.2 E39.44648
G1 X110.701 Y111.8 E40.62389
G0 F3600 X110.501 Y111.8
G0 X109.911 Y111.01
;TYPE:SKIN
G1 F1800 X90.09 Y111.01 E41.61277
G1 X90.089 Y88.99 E42.71135
G1 X109.91 Y88.99 E43.70022
G1 X109.911 Y111.01 E44.79881
G0 F3600 X90.465 Y110.829
G1 F1800 X90.269 Y110.633 E44.81263
G0 F3600 X90.269 Y110.068
G1 F1800 X91.03 Y110.829 E44.86633
G0 F3600 X91.596 Y110.829
G1 F1800 X90.269 Y109.502 E44.95995
G0 F3600 X90.269 Y108.936
G1 F1800 X92.162 Y110.829 E45.09352
G0 F3600 X92.727 Y110.829
G1 F1800 X90.269 Y108.371 E45.26694
G0 F3600 X90.269 Y107.805
G1 F1800 X93.293 Y110.829 E45.4803
G0 F3600 X93.859 Y110.829
G1 F1800 X90.269 Y107.239 E45.73359
G0 F3600 X90.269 Y106.674
G1 F1800 X94.424 Y110.829 E46.02675
G0 F3600 X94.99 Y110.829
G1 F1800 X90.269 Y106.108 E46.35984
G0 F3600 X90.269 Y105.542
G1 F1800 X95.556 Y110.829 E46.73287
G0 F3600 X96.121 Y110.829
G1 F1800 X90.269 Y104.977 E47.14576
G0 F3600 X90.269 Y104.411
G1 F1800 X96.687 Y110.829 E47.59858
G0 F3600 X97.253 Y110.829
G1 F1800 X90.269 Y103.845 E48.09134
G0 F3600 X90.269 Y103.28
G1 F1800 X97.819 Y110.829 E48.624
G0 F3600 X98.384 Y110.829
G1 F1800 X90.269 Y102.714 E49.19656
G0 F3600 X90.269 Y102.148
G1 F1800 X98.95 Y110.829 E49.80905
G0 F3600 X99.516 Y110.829
G1 F1800 X90.269 Y101.582 E50.46148
G0 F3600 X90.269 Y101.017
G1 F1800 X100.081 Y110.829 E51.15377
G0 F3600 X100.647 Y110.829
G1 F1800 X90.269 Y100.451 E51.88599
G0 F3600 X90.268 Y99.885
G1 F1800 X101.213 Y110.829 E52.65818
G0 F3600 X101.778 Y110.829
G1 F1800 X90.268 Y99.319 E53.47028
G0 F3600 X90.268 Y98.753
G1 F1800 X102.344 Y110.829 E54.3223
G0 F3600 X102.91 Y110.829
G1 F1800 X90.268 Y98.188 E55.21423
G0 F3600 X90.268 Y97.622
G1 F1800 X103.475 Y110.829 E56.14605
G0 F3600 X104.041 Y110.829
G1 F1800 X90.268 Y97.056 E57.11781
G0 F3600 X90.268 Y96.491
G1 F1800 X104.607 Y110.829 E58.12947
G0 F3600 X105.172 Y110.829
G1 F1800 X90.268 Y95.925 E59.18103
G0 F3600 X90.268 Y95.359
G1 F1800 X105.738 Y110.829 E60.27252
G0 F3600 X106.304 Y110.829
G1 F1800 X90.268 Y94.794 E61.40391
G0 F3600 X90.268 Y94.228
G1 F1800 X106.869 Y110.829 E62.5752
G0 F3600 X107.435 Y110.829
G1 F1800 X90.268 Y93.662 E63.78643
G0 F3600 X90.268 Y93.096
G1 F1800 X108.001 Y110.829 E65.03759
G0 F3600 X108.567 Y110.829
G1 F1800 X90.268 Y92.531 E66.32864
G0 F3600 X90.268 Y91.965
G1 F1800 X109.132 Y110.829 E67.6596
G0 F3600 X109.698 Y110.829
G1 F1800 X90.268 Y91.399 E69.03049
G0 F3600 X90.268 Y90.834
G1 F1800 X109.73 Y110.296 E70.40364
G0 F3600 X109.73 Y109.73
G1 F1800 X90.268 Y90.268 E71.77679
G0 F3600 X90.268 Y89.702
G1 F1800 X109.73 Y109.165 E73.14998
G0 F3600 X109.73 Y108.599
G1 F1800 X90.301 Y89.169 E74.52083
G0 F3600 X90.866 Y89.169
G1 F1800 X109.73 Y108.033 E75.85179
G0 F3600 X109.73 Y107.468
G1 F1800 X91.432 Y89.169 E77.14285
G0 F3600 X91.998 Y89.169
G1 F1800 X109.73 Y106.902 E78.39397
G0 F3600 X109.73 Y106.336
G1 F1800 X92.563 Y89.169 E79.6052
G0 F3600 X93.129 Y89.169
G1 F1800 X109.73 Y105.771 E80.77652
G0 F3600 X109.73 Y105.205
G1 F1800 X93.695 Y89.169 E81.90791
G0 F3600 X94.26 Y89.169
G1 F1800 X109.73 Y104.639 E82.9994
G0 F3600 X109.73 Y104.074
G1 F1800 X94.826 Y89.169 E84.051
G0 F3600 X95.392 Y89.169
G1 F1800 X109.73 Y103.508 E85.06266
G0 F3600 X109.73 Y102.942
G1 F1800 X95.957 Y89.169 E86.03442
G0 F3600 X96.523 Y89.169
G1 F1800 X109.73 Y102.377 E86.96628
G0 F3600 X109.73 Y101.811
G1 F1800 X97.089 Y89.169 E87.8582
G0 F3600 X97.654 Y89.169
G1 F1800 X109.73 Y101.245 E88.71023
G0 F3600 X109.73 Y100.679
G1 F1800 X98.22 Y89.169 E89.52232
G0 F3600 X98.786 Y89.169
G1 F1800 X109.73 Y100.114 E90.29452
G0 F3600 X109.73 Y99.547
G1 F1800 X99.352 Y89.169 E91.02674
G0 F3600 X99.917 Y89.169
G1 F1800 X109.73 Y98.982 E91.7191
G0 F3600 X109.73 Y98.416
G1 F1800 X100.483 Y89.169 E92.37153
G0 F3600 X101.049 Y89.169
G1 F1800 X109.73 Y97.85 E92.98402
G0 F3600 X109.73 Y97.285
G1 F1800 X101.614 Y89.169 E93.55664
G0 F3600 X102.18 Y89.169
G1 F1800 X109.73 Y96.719 E94.08934
G0 F3600 X109.73 Y96.153
G1 F1800 X102.746 Y89.169 E94.5821
G0 F3600 X103.311 Y89.169
G1 F1800 X109.73 Y95.588 E95.03499
G0 F3600 X109.73 Y95.022
G1 F1800 X103.877 Y89.169 E95.44795
G0 F3600 X104.443 Y89.169
G1 F1800 X109.73 Y94.456 E95.82098
G0 F3600 X109.73 Y93.891
G1 F1800 X105.008 Y89.169 E96.15414
G0 F3600 X105.574 Y89.169
G1 F1800 X109.73 Y93.325 E96.44737
G0 F3600 X109.73 Y92.759
G1 F1800 X106.14 Y89.169 E96.70066
G0 F3600 X106.705 Y89.169
G1 F1800 X109.73 Y92.193 E96.91406
G0 F3600 X109.73 Y91.628
G1 F1800 X107.271 Y89.169 E97.08755
G0 F3600 X107.837 Y89.169
G1 F1800 X109.73 Y91.062 E97.22112
G0 F3600 X109.73 Y90.496
G1 F1800 X108.403 Y89.169 E97.31474
G0 F3600 X108.968 Y89.169
G1 F1800 X109.73 Y89.931 E97.36851
G0 F3600 X109.73 Y89.365
G1 F1800 X109.534 Y89.169 E97.38233
;MESH:NONMESH
G0 F600 X109.534 Y89.169 Z0.45
G0 F3600 X110.231 Y111.33
G0 X110.526 Y111.4
;TIME_ELAPSED:71.851582
;LAYER:1
M106 S255
;TYPE:WALL-INNER
;MESH:holster.stl
G1 F3300 X89.475 Y111.4 E97.90745
G1 X89.474 Y88.6 E98.4762
G1 X110.525 Y88.6 E99.00132
G1 X110.526 Y111.4 E99.57007
G0 F5400 X110.926 Y111.8
;TYPE:WALL-OUTER
G1 F2100 X89.075 Y111.8 E100.11515
