;FLAVOR:Marlin
;TIME:6670
;Filament used: 7.60328m
;Layer height: 0.15
;MINX:26.069
;MINY:26.067
;MINZ:0.3
;MAXX:181.663
;MAXY:181.663
;MAXZ:24
;Generated with Cura_SteamEngine 4.13.0
M140 S90
M105
M190 S90
M104 S235
M105
M109 S235
M82 ;absolute extrusion mode
G21 ;metric values
G90 ;absolute positioning
M82 ;set extruder to absolute mode
M107 ;start with the fan off
G28 X0 Y0 ;move X/Y to min endstops
G28 Z0 ;move Z to min endstops
G1 Z15.0 F9000 ;move the platform down 15mm
G92 E0 ;zero the extruded length
G1 F200 E6 ;extrude 6 mm of feed stock
G92 E0 ;zero the extruded length again
G1 F9000
;Put printing message on LCD screen
M117 Printing...
G92 E0
G92 E0
G1 F3000 E-5
;LAYER_COUNT:159
;LAYER:0
M107
G0 F3600 X31.683 Y32.475 Z0.3
;TYPE:SKIRT
G1 F3000 E0
G1 F1800 X32.491 Y31.673 E0.0568
G1 X32.731 Y31.429 E0.07387
G1 X34.419 Y29.743 E0.1929
G1 X34.892 Y29.284 E0.22578
G1 X35.604 Y28.648 E0.27341
G1 X36.368 Y28.074 E0.32109
G1 X37.176 Y27.566 E0.3687
G1 X38.024 Y27.128 E0.41632
G1 X38.906 Y26.762 E0.46396
G1 X39.815 Y26.471 E0.51158
G1 X40.746 Y26.257 E0.55924
G1 X41.691 Y26.122 E0.60686
G1 X42.644 Y26.067 E0.65449
G1 X43.599 Y26.091 E0.70215
G1 X44.548 Y26.195 E0.74978
G1 X45.485 Y26.378 E0.79741
G1 X46.24 Y26.587 E0.83649
G1 X47.384 Y26.946 E0.89631
G1 X49.908 Y27.699 E1.02772
G1 X52.343 Y28.35 E1.15347
G1 X54.785 Y28.931 E1.2787
G1 X57.23 Y29.441 E1.40331
G1 X59.717 Y29.883 E1.52933
G1 X61.422 Y30.145 E1.61539
G1 X61.804 Y30.209 E1.63471
G1 X62.344 Y30.313 E1.66215
G1 X62.707 Y30.392 E1.68068
G1 X63.621 Y30.631 E1.72781
G1 X64.237 Y30.83 E1.76011
G1 X64.56 Y30.944 E1.7772
G1 X65.463 Y31.307 E1.82575
G1 X65.62 Y31.378 E1.83435
G1 X66.201 Y31.661 E1.86659
G1 X66.402 Y31.766 E1.87791
G1 X67.253 Y32.258 E1.92695
G1 X67.805 Y32.61 E1.95961
G1 X68.588 Y33.157 E2.00726
G1 X69.04 Y33.519 E2.03615
G1 X69.235 Y33.684 E2.0489
G1 X69.779 Y34.176 E2.08549
G1 X70.672 Y35.036 E2.14734
G1 X70.825 Y35.186 E2.15803
G1 X176.187 Y140.551 E9.592
G1 X176.722 Y141.102 E9.63031
G1 X177.077 Y141.48 E9.65618
G1 X177.545 Y142.009 E9.69142
G1 X177.928 Y142.475 E9.72152
G1 X178.047 Y142.628 E9.73119
G1 X178.385 Y143.086 E9.75958
G1 X178.647 Y143.46 E9.78237
G1 X178.967 Y143.942 E9.81123
G1 X179.063 Y144.095 E9.82024
G1 X179.359 Y144.595 E9.84923
G1 X179.564 Y144.962 E9.8702
G1 X179.887 Y145.584 E9.90517
G1 X179.973 Y145.763 E9.91508
G1 X180.182 Y146.225 E9.94037
G1 X180.354 Y146.628 E9.96224
G1 X180.584 Y147.212 E9.99355
G1 X180.653 Y147.402 E10.00363
G1 X180.839 Y147.957 E10.03284
G1 X180.97 Y148.385 E10.05517
G1 X181.154 Y149.058 E10.08998
G1 X181.299 Y149.706 E10.1231
G1 X181.379 Y150.114 E10.14385
G1 X181.486 Y150.758 E10.17642
G1 X181.514 Y150.962 E10.18669
G1 X181.575 Y151.501 E10.21375
G1 X181.613 Y151.928 E10.23514
G1 X181.652 Y152.569 E10.26718
G1 X181.658 Y152.754 E10.27641
G1 X181.663 Y153.304 E10.30385
G1 X181.656 Y153.747 E10.32596
G1 X181.626 Y154.412 E10.35917
G1 X181.613 Y154.587 E10.36792
G1 X181.563 Y155.095 E10.39339
G1 X181.508 Y155.555 E10.4165
G1 X181.414 Y156.195 E10.44878
G1 X181.384 Y156.364 E10.45734
G1 X181.278 Y156.887 E10.48396
G1 X181.18 Y157.32 E10.50611
G1 X180.979 Y158.085 E10.54557
G1 X180.784 Y158.701 E10.57781
G1 X180.641 Y159.116 E10.59971
G1 X180.417 Y159.711 E10.63143
G1 X180.348 Y159.88 E10.64053
G1 X180.135 Y160.369 E10.66714
G1 X179.948 Y160.772 E10.68931
G1 X179.667 Y161.336 E10.72074
G1 X179.578 Y161.503 E10.73019
G1 X179.303 Y161.991 E10.75813
G1 X179.083 Y162.359 E10.77952
G1 X178.731 Y162.91 E10.81214
G1 X178.617 Y163.078 E10.82227
G1 X178.283 Y163.545 E10.85092
G1 X178.006 Y163.912 E10.87385
G1 X177.62 Y164.396 E10.90474
G1 X177.539 Y164.492 E10.91101
G1 X177.193 Y164.882 E10.93702
G1 X176.809 Y165.297 E10.96523
G1 X176.605 Y165.513 E10.98005
G1 X176.114 Y166.015 E11.01508
G1 X165.953 Y176.174 E11.73192
G1 X165.381 Y176.73 E11.77172
G1 X164.736 Y177.324 E11.81547
G1 X164.48 Y177.546 E11.83237
G1 X164.006 Y177.935 E11.86297
G1 X163.858 Y178.05 E11.87232
G1 X163.404 Y178.385 E11.90046
G1 X163.03 Y178.647 E11.92325
G1 X162.548 Y178.967 E11.95211
G1 X162.395 Y179.063 E11.96112
G1 X161.893 Y179.36 E11.99022
G1 X161.533 Y179.561 E12.01079
G1 X160.941 Y179.869 E12.04409
G1 X160.755 Y179.959 E12.05439
G1 X160.259 Y180.185 E12.08159
G1 X159.853 Y180.358 E12.10361
G1 X159.28 Y180.584 E12.13434
G1 X159.093 Y180.652 E12.14426
G1 X158.533 Y180.839 E12.17372
G1 X158.105 Y180.97 E12.19605
G1 X157.478 Y181.143 E12.2285
G1 X157.339 Y181.177 E12.23564
G1 X156.833 Y181.288 E12.26148
G1 X156.366 Y181.38 E12.28523
G1 X155.73 Y181.487 E12.3174
G1 X155.557 Y181.511 E12.32612
G1 X154.985 Y181.575 E12.35483
G1 X154.54 Y181.614 E12.37712
G1 X153.903 Y181.652 E12.40896
G1 X153.712 Y181.658 E12.41849
G1 X153.17 Y181.663 E12.44553
G1 X152.737 Y181.656 E12.46714
G1 X152.081 Y181.626 E12.4999
G1 X151.878 Y181.611 E12.51005
G1 X151.324 Y181.556 E12.53783
G1 X150.902 Y181.504 E12.55904
G1 X150.274 Y181.409 E12.59073
G1 X150.102 Y181.378 E12.59945
G1 X149.573 Y181.27 E12.62639
G1 X149.12 Y181.166 E12.64957
G1 X148.458 Y180.993 E12.68371
G1 X148.281 Y180.941 E12.69291
G1 X147.758 Y180.773 E12.72032
G1 X147.34 Y180.628 E12.74239
G1 X146.749 Y180.405 E12.77391
G1 X146.593 Y180.341 E12.78232
G1 X146.12 Y180.134 E12.80808
G1 X145.715 Y179.946 E12.83036
G1 X145.176 Y179.678 E12.86039
G1 X145.01 Y179.59 E12.86976
G1 X144.499 Y179.303 E12.899
G1 X144.131 Y179.083 E12.92039
G1 X143.58 Y178.731 E12.95301
G1 X143.412 Y178.617 E12.96314
G1 X142.978 Y178.307 E12.98975
G1 X142.655 Y178.065 E13.00988
G1 X142.217 Y177.72 E13.0377
G1 X142.077 Y177.604 E13.04677
G1 X141.613 Y177.198 E13.07753
G1 X141.178 Y176.796 E13.10708
G1 X140.612 Y176.25 E13.14632
G1 X35.001 Y70.639 E20.59774
G1 X34.538 Y70.164 E20.63084
G1 X34.28 Y69.89 E20.64961
G1 X33.814 Y69.378 E20.68415
G1 X33.097 Y68.507 E20.74044
G1 X32.981 Y68.351 E20.75013
G1 X32.53 Y67.7 E20.78965
G1 X32.398 Y67.494 E20.80185
G1 X31.876 Y66.589 E20.85397
G1 X31.564 Y65.987 E20.8878
G1 X31.029 Y64.792 E20.95312
G1 X30.983 Y64.671 E20.95958
G1 X30.781 Y64.092 E20.99018
G1 X30.663 Y63.723 E21.0095
G1 X30.403 Y62.77 E21.05879
G1 X30.283 Y62.2 E21.08785
G1 X30.157 Y61.494 E21.12363
G1 X29.997 Y60.455 E21.17607
G1 X29.574 Y57.955 E21.30257
G1 X29.079 Y55.462 E21.42938
G1 X28.525 Y53.031 E21.55377
G1 X27.903 Y50.626 E21.6777
G1 X27.199 Y48.179 E21.80474
G1 X26.645 Y46.433 E21.89612
G1 X26.489 Y45.897 E21.92397
G1 X26.447 Y45.738 E21.93218
G1 X26.242 Y44.806 E21.97979
G1 X26.116 Y43.86 E22.0274
G1 X26.069 Y42.906 E22.07505
G1 X26.103 Y41.952 E22.12268
G1 X26.216 Y41.004 E22.17031
G1 X26.408 Y40.068 E22.21798
G1 X26.677 Y39.152 E22.26561
G1 X27.023 Y38.262 E22.31325
G1 X27.441 Y37.404 E22.36086
G1 X27.93 Y36.584 E22.4085
G1 X28.486 Y35.808 E22.45612
G1 X29.15 Y35.033 E22.50704
G1 X29.612 Y34.548 E22.54046
G1 X31.683 Y32.475 E22.68665
G0 F3600 X31.965 Y32.759
G1 F1800 X32.775 Y31.955 E22.74359
G1 X33.016 Y31.71 E22.76073
G1 X34.698 Y30.03 E22.87933
G1 X35.171 Y29.571 E22.91222
G1 X35.871 Y28.947 E22.959
G1 X36.622 Y28.385 E23.0058
G1 X37.418 Y27.889 E23.05259
G1 X38.253 Y27.463 E23.09936
G1 X39.122 Y27.109 E23.14617
G1 X40.017 Y26.831 E23.19293
G1 X40.933 Y26.63 E23.23971
G1 X41.863 Y26.508 E23.28651
G1 X42.8 Y26.465 E23.33331
G1 X43.737 Y26.502 E23.38009
G1 X44.668 Y26.619 E23.4269
G1 X45.585 Y26.815 E23.47368
G1 X46.12 Y26.968 E23.50145
G1 X47.346 Y27.352 E23.56554
G1 X49.804 Y28.086 E23.69352
G1 X52.218 Y28.732 E23.81819
G1 X54.682 Y29.318 E23.94455
G1 X57.177 Y29.838 E24.0717
G1 X59.632 Y30.274 E24.1961
G1 X61.356 Y30.539 E24.28312
G1 X61.738 Y30.603 E24.30245
G1 X62.259 Y30.704 E24.32892
G1 X62.622 Y30.783 E24.34746
G1 X63.504 Y31.013 E24.39293
G1 X64.104 Y31.207 E24.42439
G1 X64.427 Y31.321 E24.44148
G1 X65.299 Y31.671 E24.48836
G1 X65.456 Y31.742 E24.49695
G1 X66.016 Y32.015 E24.52804
G1 X66.217 Y32.12 E24.53935
G1 X67.038 Y32.595 E24.58667
G1 X67.59 Y32.947 E24.61933
G1 X68.359 Y33.485 E24.66616
G1 X68.781 Y33.825 E24.69319
G1 X68.976 Y33.99 E24.70594
G1 X69.501 Y34.464 E24.74122
G1 X70.394 Y35.324 E24.80308
G1 X70.542 Y35.469 E24.81341
G1 X175.9 Y140.829 E32.24706
G1 X176.435 Y141.38 E32.28538
G1 X176.784 Y141.752 E32.31082
G1 X177.243 Y142.271 E32.34539
G1 X177.612 Y142.721 E32.37442
G1 X177.731 Y142.874 E32.38409
G1 X178.057 Y143.316 E32.4115
G1 X178.319 Y143.69 E32.43428
G1 X178.628 Y144.155 E32.46213
G1 X178.724 Y144.308 E32.47114
G1 X179.009 Y144.79 E32.49908
G1 X179.214 Y145.157 E32.52005
G1 X179.526 Y145.757 E32.55379
G1 X179.814 Y146.382 E32.58812
G1 X179.986 Y146.785 E32.60998
G1 X180.208 Y147.348 E32.64018
G1 X180.277 Y147.538 E32.65026
G1 X180.456 Y148.074 E32.67845
G1 X180.587 Y148.502 E32.70078
G1 X180.765 Y149.152 E32.73441
G1 X180.906 Y149.783 E32.76666
G1 X180.986 Y150.191 E32.78741
G1 X181.09 Y150.812 E32.81882
G1 X181.118 Y151.016 E32.82909
G1 X181.177 Y151.537 E32.85525
G1 X181.215 Y151.964 E32.87664
G1 X181.252 Y152.582 E32.90753
G1 X181.258 Y152.767 E32.91676
G1 X181.263 Y153.298 E32.94325
G1 X181.256 Y153.741 E32.96536
G1 X181.227 Y154.382 E32.99737
G1 X181.166 Y155.048 E33.03074
G1 X181.111 Y155.508 E33.05385
G1 X181.02 Y156.125 E33.08497
G1 X180.99 Y156.294 E33.09353
G1 X180.888 Y156.799 E33.11923
G1 X180.79 Y157.232 E33.14138
G1 X180.596 Y157.97 E33.17945
G1 X180.406 Y158.571 E33.2109
G1 X180.263 Y158.986 E33.2328
G1 X180.047 Y159.56 E33.26339
G1 X179.978 Y159.729 E33.2725
G1 X179.772 Y160.201 E33.29819
G1 X179.585 Y160.604 E33.32036
G1 X179.314 Y161.147 E33.35064
G1 X179.225 Y161.314 E33.36008
G1 X178.959 Y161.785 E33.38706
G1 X178.739 Y162.153 E33.40845
G1 X178.4 Y162.686 E33.43997
G1 X178.286 Y162.854 E33.4501
G1 X177.964 Y163.304 E33.4777
G1 X177.687 Y163.671 E33.50064
G1 X177.314 Y164.138 E33.53046
G1 X177.233 Y164.234 E33.53673
G1 X176.9 Y164.611 E33.56182
G1 X176.516 Y165.026 E33.59003
G1 X176.318 Y165.234 E33.60436
G1 X175.831 Y165.733 E33.63914
G1 X165.674 Y175.887 E34.35567
G1 X165.102 Y176.443 E34.39547
G1 X164.474 Y177.021 E34.43805
G1 X164.218 Y177.243 E34.45495
G1 X163.76 Y177.619 E34.48452
G1 X163.612 Y177.734 E34.49387
G1 X163.174 Y178.057 E34.52102
G1 X162.8 Y178.319 E34.5438
G1 X162.335 Y178.628 E34.57166
G1 X162.182 Y178.724 E34.58067
G1 X161.698 Y179.01 E34.60871
G1 X161.338 Y179.211 E34.62928
G1 X160.767 Y179.509 E34.66142
G1 X160.581 Y179.599 E34.67173
G1 X160.102 Y179.817 E34.69798
G1 X159.696 Y179.99 E34.72
G1 X159.143 Y180.208 E34.74966
G1 X158.956 Y180.276 E34.75958
G1 X158.416 Y180.456 E34.78798
G1 X157.988 Y180.587 E34.81031
G1 X157.383 Y180.754 E34.84162
G1 X156.756 Y180.896 E34.8737
G1 X156.289 Y180.988 E34.89744
G1 X155.675 Y181.091 E34.9285
G1 X155.502 Y181.115 E34.93722
G1 X154.95 Y181.177 E34.96493
G1 X154.505 Y181.216 E34.98722
G1 X153.89 Y181.253 E35.01796
G1 X153.699 Y181.259 E35.02749
G1 X153.176 Y181.263 E35.05358
G1 X152.743 Y181.256 E35.07519
G1 X152.11 Y181.227 E35.1068
G1 X151.907 Y181.212 E35.11696
G1 X151.373 Y181.159 E35.14373
G1 X150.951 Y181.107 E35.16494
G1 X150.345 Y181.016 E35.19551
G1 X150.173 Y180.985 E35.20423
G1 X149.663 Y180.88 E35.23021
G1 X149.21 Y180.776 E35.2534
G1 X148.57 Y180.609 E35.2864
G1 X148.393 Y180.557 E35.2956
G1 X147.889 Y180.395 E35.32201
G1 X147.471 Y180.25 E35.34409
G1 X146.901 Y180.035 E35.37448
G1 X146.288 Y179.771 E35.40778
G1 X145.883 Y179.583 E35.43005
G1 X145.363 Y179.325 E35.45902
G1 X145.197 Y179.237 E35.46839
G1 X144.705 Y178.959 E35.49658
G1 X144.337 Y178.739 E35.51797
G1 X143.804 Y178.4 E35.54949
G1 X143.636 Y178.286 E35.55962
G1 X143.217 Y177.987 E35.5853
G1 X142.894 Y177.745 E35.60543
G1 X142.472 Y177.412 E35.63225
G1 X142.332 Y177.296 E35.64132
G1 X141.884 Y176.905 E35.67099
G1 X141.449 Y176.503 E35.70054
G1 X140.891 Y175.963 E35.73928
G1 X35.175 Y70.246 E43.19815
G1 X34.824 Y69.885 E43.22327
G1 X34.576 Y69.621 E43.24134
G1 X34.11 Y69.109 E43.27588
G1 X33.418 Y68.269 E43.33018
G1 X33.302 Y68.113 E43.33988
G1 X32.867 Y67.484 E43.37803
G1 X32.735 Y67.278 E43.39024
G1 X32.231 Y66.405 E43.44053
G1 X31.919 Y65.803 E43.47436
G1 X31.403 Y64.65 E43.53738
G1 X31.357 Y64.529 E43.54383
G1 X31.162 Y63.97 E43.57337
G1 X31.044 Y63.601 E43.5927
G1 X30.793 Y62.682 E43.64023
G1 X30.676 Y62.127 E43.66853
G1 X30.553 Y61.433 E43.70369
G1 X30.403 Y60.46 E43.75281
G1 X29.961 Y57.848 E43.88497
G1 X29.475 Y55.401 E44.00944
G1 X28.916 Y52.947 E44.135
G1 X28.291 Y50.53 E44.25955
G1 X27.578 Y48.052 E44.3882
G1 X27.026 Y46.312 E44.47927
G1 X26.876 Y45.795 E44.50613
G1 X26.834 Y45.636 E44.51433
G1 X26.633 Y44.72 E44.56112
G1 X26.511 Y43.79 E44.60791
G1 X26.469 Y42.853 E44.65471
G1 X26.507 Y41.916 E44.70149
G1 X26.624 Y40.986 E44.74826
G1 X26.82 Y40.069 E44.79504
G1 X27.094 Y39.172 E44.84183
G1 X27.443 Y38.301 E44.88865
G1 X27.865 Y37.463 E44.93546
G1 X28.357 Y36.665 E44.98223
G1 X28.915 Y35.911 E45.02903
G1 X29.442 Y35.306 E45.06905
G1 X29.895 Y34.831 E45.1018
G1 X31.965 Y32.759 E45.24792
G0 F3600 X32.247 Y33.043
G1 F1800 X33.033 Y32.262 E45.3032
G1 X33.357 Y31.935 E45.32617
G1 X34.976 Y30.317 E45.44036
G1 X35.449 Y29.858 E45.47324
G1 X36.137 Y29.246 E45.51918
G1 X36.875 Y28.696 E45.5651
G1 X37.659 Y28.213 E45.61104
G1 X38.481 Y27.799 E45.65696
G1 X39.336 Y27.458 E45.70288
G1 X40.218 Y27.192 E45.74885
G1 X41.119 Y27.004 E45.79476
G1 X42.033 Y26.895 E45.84069
G1 X42.953 Y26.866 E45.88661
G1 X43.873 Y26.916 E45.93258
G1 X44.784 Y27.046 E45.97849
G1 X46 Y27.35 E46.04102
G1 X47.193 Y27.724 E46.10339
G1 X49.683 Y28.467 E46.23303
G1 X52.128 Y29.121 E46.3593
G1 X54.621 Y29.714 E46.48715
G1 X57.09 Y30.229 E46.61298
G1 X59.581 Y30.672 E46.73921
G1 X61.29 Y30.934 E46.82547
G1 X61.672 Y30.998 E46.84479
G1 X62.174 Y31.094 E46.87029
G1 X62.537 Y31.173 E46.88882
G1 X63.387 Y31.396 E46.93266
G1 X63.971 Y31.584 E46.96327
G1 X64.294 Y31.698 E46.98036
G1 X65.134 Y32.036 E47.02553
G1 X65.291 Y32.107 E47.03413
G1 X65.831 Y32.37 E47.0641
G1 X66.032 Y32.475 E47.07541
G1 X66.823 Y32.933 E47.12101
G1 X67.375 Y33.285 E47.15367
G1 X68.129 Y33.813 E47.1996
G1 X68.523 Y34.13 E47.22483
G1 X68.718 Y34.295 E47.23757
G1 X69.224 Y34.752 E47.27159
G1 X70.117 Y35.612 E47.33344
G1 X175.503 Y140.997 E54.76896
G1 X176.148 Y141.659 E54.81507
G1 X176.491 Y142.025 E54.84009
G1 X176.94 Y142.533 E54.87392
G1 X177.296 Y142.966 E54.90188
G1 X177.415 Y143.119 E54.91155
G1 X177.73 Y143.545 E54.93799
G1 X177.992 Y143.919 E54.96077
G1 X178.289 Y144.367 E54.98758
G1 X178.385 Y144.52 E54.9966
G1 X178.66 Y144.985 E55.02355
G1 X178.865 Y145.352 E55.04452
G1 X179.165 Y145.931 E55.07705
G1 X179.446 Y146.539 E55.11047
G1 X179.618 Y146.942 E55.13233
G1 X179.832 Y147.485 E55.16145
G1 X179.901 Y147.675 E55.17153
G1 X180.074 Y148.191 E55.19869
G1 X180.205 Y148.619 E55.22102
G1 X180.376 Y149.245 E55.25339
G1 X180.514 Y149.86 E55.28484
G1 X180.594 Y150.268 E55.30558
G1 X180.694 Y150.867 E55.33588
G1 X180.722 Y151.071 E55.34615
G1 X180.778 Y151.572 E55.3713
G1 X180.816 Y151.999 E55.39269
G1 X180.852 Y152.595 E55.42248
G1 X180.858 Y152.78 E55.43171
G1 X180.863 Y153.291 E55.45721
G1 X180.856 Y153.734 E55.47931
G1 X180.828 Y154.352 E55.51018
G1 X180.769 Y155 E55.54264
G1 X180.714 Y155.46 E55.56575
G1 X180.626 Y156.055 E55.59576
G1 X180.498 Y156.711 E55.6291
G1 X180.4 Y157.144 E55.65125
G1 X180.212 Y157.855 E55.68794
G1 X180.028 Y158.44 E55.71854
G1 X179.885 Y158.855 E55.74044
G1 X179.677 Y159.409 E55.76996
G1 X179.409 Y160.033 E55.80384
G1 X179.222 Y160.436 E55.82601
G1 X178.961 Y160.959 E55.85517
G1 X178.872 Y161.126 E55.86461
G1 X178.616 Y161.58 E55.89061
G1 X178.396 Y161.948 E55.912
G1 X178.069 Y162.461 E55.94235
G1 X177.955 Y162.629 E55.95248
G1 X177.645 Y163.063 E55.97909
G1 X177.368 Y163.43 E56.00203
G1 X177.008 Y163.88 E56.03078
G1 X176.606 Y164.339 E56.06122
G1 X176.222 Y164.754 E56.08943
G1 X176.032 Y164.955 E56.10323
G1 X175.548 Y165.45 E56.13777
G1 X165.395 Y175.6 E56.85401
G1 X164.823 Y176.156 E56.89381
G1 X164.212 Y176.719 E56.93526
G1 X163.956 Y176.941 E56.95216
G1 X163.515 Y177.303 E56.98063
G1 X163.367 Y177.418 E56.98998
G1 X162.945 Y177.73 E57.01616
G1 X162.571 Y177.992 E57.03895
G1 X162.123 Y178.289 E57.06576
G1 X161.97 Y178.385 E57.07477
G1 X161.503 Y178.661 E57.10184
G1 X161.143 Y178.862 E57.12241
G1 X160.593 Y179.149 E57.15336
