;FLAVOR:Marlin
;TIME:6744
;Filament used: 7.58897m
;Layer height: 0.15
;MINX:26.069
;MINY:26.067
;MINZ:0.3
;MAXX:181.663
;MAXY:181.663
;MAXZ:24
;Generated with Cura_SteamEngine 4.13.0
M140 S90
M105
M190 S90
M104 S225
M105
M109 S225
M82 ;absolute extrusion mode
G21 ;metric values
G90 ;absolute positioning
M82 ;set extruder to absolute mode
M107 ;start with the fan off
G28 X0 Y0 ;move X/Y to min endstops
G28 Z0 ;move Z to min endstops
G1 Z15.0 F9000 ;move the platform down 15mm
G92 E0 ;zero the extruded length
G1 F200 E6 ;extrude 6 mm of feed stock
G92 E0 ;zero the extruded length again
G1 F9000
;Put printing message on LCD screen
M117 Printing...
G92 E0
G92 E0
G1 F3000 E-5
;LAYER_COUNT:159
;LAYER:0
M107
G1 F600 Z1.3
G0 F3600 X31.682 Y32.476 Z1.3
;TYPE:SKIRT
G1 F600 Z0.3
G1 F3000 E0
G1 F1800 X32.51 Y31.654 E0.05821
G1 X32.738 Y31.422 E0.07444
G1 X34.397 Y29.765 E0.19142
G1 X34.88 Y29.295 E0.22504
G1 X35.591 Y28.658 E0.27267
G1 X36.354 Y28.083 E0.32033
G1 X37.161 Y27.574 E0.36793
G1 X38.009 Y27.135 E0.41557
G1 X38.89 Y26.767 E0.46321
G1 X39.799 Y26.475 E0.51084
G1 X40.729 Y26.26 E0.55846
G1 X41.674 Y26.124 E0.60609
G1 X42.627 Y26.067 E0.65372
G1 X43.582 Y26.09 E0.70138
G1 X44.531 Y26.193 E0.74901
G1 X45.468 Y26.375 E0.79663
G1 X46.237 Y26.586 E0.83641
G1 X47.51 Y26.985 E0.90297
G1 X49.962 Y27.714 E1.03059
G1 X52.401 Y28.365 E1.15653
G1 X54.827 Y28.94 E1.28092
G1 X57.337 Y29.461 E1.40881
G1 X59.749 Y29.888 E1.53102
G1 X61.256 Y30.118 E1.60707
G1 X61.809 Y30.21 E1.63504
G1 X62.338 Y30.311 E1.66191
G1 X62.702 Y30.39 E1.68049
G1 X63.641 Y30.637 E1.72893
G1 X64.237 Y30.83 E1.76019
G1 X64.56 Y30.944 E1.77728
G1 X65.463 Y31.307 E1.82583
G1 X65.62 Y31.378 E1.83443
G1 X66.201 Y31.661 E1.86667
G1 X66.402 Y31.766 E1.87798
G1 X67.253 Y32.258 E1.92703
G1 X67.805 Y32.61 E1.95969
G1 X68.588 Y33.157 E2.00734
G1 X69.04 Y33.519 E2.03623
G1 X69.235 Y33.684 E2.04898
G1 X69.779 Y34.176 E2.08557
G1 X70.672 Y35.036 E2.14742
G1 X70.825 Y35.186 E2.15811
G1 X176.187 Y140.551 E9.59208
G1 X176.722 Y141.102 E9.63039
G1 X177.077 Y141.48 E9.65626
G1 X177.545 Y142.009 E9.6915
G1 X177.928 Y142.475 E9.72159
G1 X178.047 Y142.628 E9.73126
G1 X178.385 Y143.086 E9.75966
G1 X178.647 Y143.46 E9.78244
G1 X178.967 Y143.942 E9.81131
G1 X179.063 Y144.095 E9.82032
G1 X179.359 Y144.595 E9.84931
G1 X179.564 Y144.962 E9.87028
G1 X179.887 Y145.584 E9.90525
G1 X179.973 Y145.763 E9.91515
G1 X180.182 Y146.225 E9.94045
G1 X180.354 Y146.628 E9.96231
G1 X180.584 Y147.212 E9.99363
G1 X180.653 Y147.402 E10.00371
G1 X180.839 Y147.957 E10.03291
G1 X180.97 Y148.385 E10.05525
G1 X181.154 Y149.058 E10.09005
G1 X181.299 Y149.706 E10.12318
G1 X181.379 Y150.114 E10.14392
G1 X181.486 Y150.758 E10.17649
G1 X181.514 Y150.962 E10.18677
G1 X181.575 Y151.501 E10.21383
G1 X181.613 Y151.928 E10.23522
G1 X181.652 Y152.569 E10.26726
G1 X181.658 Y152.754 E10.27649
G1 X181.663 Y153.304 E10.30393
G1 X181.656 Y153.747 E10.32604
G1 X181.626 Y154.412 E10.35925
G1 X181.613 Y154.587 E10.368
G1 X181.563 Y155.095 E10.39347
G1 X181.508 Y155.555 E10.41658
G1 X181.414 Y156.195 E10.44885
G1 X181.384 Y156.364 E10.45742
G1 X181.278 Y156.887 E10.48404
G1 X181.18 Y157.32 E10.50619
G1 X180.979 Y158.085 E10.54565
G1 X180.784 Y158.701 E10.57789
G1 X180.641 Y159.116 E10.59978
G1 X180.417 Y159.711 E10.6315
G1 X180.348 Y159.88 E10.64061
G1 X180.135 Y160.369 E10.66722
G1 X179.948 Y160.772 E10.68939
G1 X179.667 Y161.336 E10.72082
G1 X179.578 Y161.503 E10.73026
G1 X179.303 Y161.991 E10.75821
G1 X179.083 Y162.359 E10.7796
G1 X178.731 Y162.91 E10.81222
G1 X178.617 Y163.078 E10.82235
G1 X178.283 Y163.545 E10.85099
G1 X178.006 Y163.912 E10.87393
G1 X177.62 Y164.396 E10.90482
G1 X177.539 Y164.492 E10.91108
G1 X177.193 Y164.882 E10.9371
G1 X176.809 Y165.297 E10.9653
G1 X176.605 Y165.513 E10.98013
G1 X176.114 Y166.015 E11.01516
G1 X165.953 Y176.174 E11.732
G1 X165.381 Y176.73 E11.7718
G1 X164.736 Y177.324 E11.81555
G1 X164.48 Y177.546 E11.83245
G1 X164.006 Y177.935 E11.86304
G1 X163.858 Y178.05 E11.87239
G1 X163.404 Y178.385 E11.90054
G1 X163.03 Y178.647 E11.92332
G1 X162.548 Y178.967 E11.95219
G1 X162.395 Y179.063 E11.9612
G1 X161.893 Y179.36 E11.9903
G1 X161.533 Y179.561 E12.01087
G1 X160.941 Y179.869 E12.04416
G1 X160.755 Y179.959 E12.05447
G1 X160.259 Y180.185 E12.08167
G1 X159.853 Y180.358 E12.10368
G1 X159.28 Y180.584 E12.13441
G1 X159.093 Y180.652 E12.14434
G1 X158.533 Y180.839 E12.1738
G1 X158.105 Y180.97 E12.19613
G1 X157.478 Y181.143 E12.22858
G1 X157.339 Y181.177 E12.23572
G1 X156.833 Y181.288 E12.26156
G1 X156.366 Y181.38 E12.28531
G1 X155.73 Y181.487 E12.31748
G1 X155.557 Y181.511 E12.3262
G1 X154.985 Y181.575 E12.35491
G1 X154.54 Y181.614 E12.3772
G1 X153.903 Y181.652 E12.40903
G1 X153.712 Y181.658 E12.41857
G1 X153.17 Y181.663 E12.44561
G1 X152.737 Y181.656 E12.46722
G1 X152.081 Y181.626 E12.49998
G1 X151.878 Y181.611 E12.51013
G1 X151.324 Y181.556 E12.53791
G1 X150.902 Y181.504 E12.55912
G1 X150.274 Y181.409 E12.59081
G1 X150.102 Y181.378 E12.59953
G1 X149.573 Y181.27 E12.62646
G1 X149.12 Y181.166 E12.64965
G1 X148.458 Y180.993 E12.68379
G1 X148.281 Y180.941 E12.69299
G1 X147.758 Y180.773 E12.7204
G1 X147.34 Y180.628 E12.74247
G1 X146.749 Y180.405 E12.77399
G1 X146.593 Y180.341 E12.7824
G1 X146.12 Y180.134 E12.80816
G1 X145.715 Y179.946 E12.83043
G1 X145.176 Y179.678 E12.86046
G1 X145.01 Y179.59 E12.86984
G1 X144.499 Y179.303 E12.89908
G1 X144.131 Y179.083 E12.92047
G1 X143.58 Y178.731 E12.95309
G1 X143.412 Y178.617 E12.96322
G1 X142.978 Y178.307 E12.98983
G1 X142.655 Y178.065 E13.00996
G1 X142.217 Y177.72 E13.03778
G1 X142.077 Y177.604 E13.04685
G1 X141.613 Y177.198 E13.07761
G1 X141.178 Y176.796 E13.10716
G1 X140.612 Y176.25 E13.14639
G1 X35.001 Y70.639 E20.59782
G1 X34.538 Y70.164 E20.63091
G1 X34.28 Y69.89 E20.64969
G1 X33.814 Y69.378 E20.68423
G1 X33.097 Y68.507 E20.74051
G1 X32.981 Y68.351 E20.75021
G1 X32.53 Y67.7 E20.78972
G1 X32.398 Y67.494 E20.80193
G1 X31.876 Y66.589 E20.85405
G1 X31.564 Y65.987 E20.88788
G1 X31.029 Y64.792 E20.9532
G1 X30.983 Y64.671 E20.95966
G1 X30.781 Y64.092 E20.99025
G1 X30.663 Y63.723 E21.00958
G1 X30.403 Y62.77 E21.05886
G1 X30.283 Y62.2 E21.08793
G1 X30.157 Y61.494 E21.1237
G1 X29.997 Y60.455 E21.17615
G1 X29.574 Y57.955 E21.30265
G1 X29.079 Y55.462 E21.42945
G1 X28.525 Y53.031 E21.55385
G1 X27.903 Y50.626 E21.67778
G1 X27.199 Y48.179 E21.80481
G1 X26.645 Y46.433 E21.8962
G1 X26.489 Y45.897 E21.92405
G1 X26.447 Y45.738 E21.93226
G1 X26.242 Y44.806 E21.97987
G1 X26.116 Y43.86 E22.02748
G1 X26.069 Y42.906 E22.07513
G1 X26.103 Y41.952 E22.12276
G1 X26.216 Y41.004 E22.17039
G1 X26.408 Y40.068 E22.21806
G1 X26.677 Y39.152 E22.26569
G1 X27.023 Y38.262 E22.31333
G1 X27.441 Y37.404 E22.36094
G1 X27.93 Y36.584 E22.40857
G1 X28.486 Y35.808 E22.4562
G1 X29.15 Y35.033 E22.50712
G1 X29.612 Y34.548 E22.54053
G1 X31.682 Y32.476 E22.68665
G0 F3600 X31.964 Y32.76
G1 F1800 X32.855 Y31.875 E22.74931
G1 X33.084 Y31.642 E22.76561
G1 X34.676 Y30.051 E22.8779
G1 X35.159 Y29.581 E22.91152
G1 X35.858 Y28.957 E22.95827
G1 X36.608 Y28.394 E23.00505
G1 X37.404 Y27.897 E23.05187
G1 X38.238 Y27.469 E23.09864
G1 X39.106 Y27.114 E23.14542
G1 X40.002 Y26.835 E23.19224
G1 X40.918 Y26.633 E23.23904
G1 X41.847 Y26.509 E23.2858
G1 X42.784 Y26.465 E23.3326
G1 X43.721 Y26.501 E23.37938
G1 X44.652 Y26.617 E23.42619
G1 X45.569 Y26.812 E23.47296
G1 X46.117 Y26.968 E23.50138
G1 X47.341 Y27.351 E23.56537
G1 X49.884 Y28.107 E23.69773
G1 X52.278 Y28.747 E23.82136
G1 X54.767 Y29.336 E23.94897
G1 X57.213 Y29.845 E24.07361
G1 X59.746 Y30.293 E24.20195
G1 X61.361 Y30.54 E24.28345
G1 X61.742 Y30.604 E24.30273
G1 X62.253 Y30.702 E24.32869
G1 X62.617 Y30.781 E24.34727
G1 X63.524 Y31.019 E24.39405
G1 X64.104 Y31.207 E24.42447
G1 X64.427 Y31.321 E24.44156
G1 X65.299 Y31.671 E24.48844
G1 X65.456 Y31.742 E24.49703
G1 X66.016 Y32.015 E24.52812
G1 X66.217 Y32.12 E24.53943
G1 X67.038 Y32.595 E24.58675
G1 X67.59 Y32.947 E24.61941
G1 X68.359 Y33.485 E24.66624
G1 X68.781 Y33.825 E24.69327
G1 X68.976 Y33.99 E24.70602
G1 X69.501 Y34.464 E24.7413
G1 X70.394 Y35.324 E24.80316
G1 X70.542 Y35.469 E24.81349
G1 X175.9 Y140.829 E32.24714
G1 X176.435 Y141.38 E32.28546
G1 X176.784 Y141.752 E32.31091
G1 X177.243 Y142.271 E32.34547
G1 X177.612 Y142.721 E32.3745
G1 X177.731 Y142.874 E32.38418
G1 X178.057 Y143.316 E32.41158
G1 X178.319 Y143.69 E32.43436
G1 X178.628 Y144.155 E32.46221
G1 X178.724 Y144.308 E32.47122
G1 X179.009 Y144.79 E32.49916
G1 X179.214 Y145.157 E32.52013
G1 X179.526 Y145.757 E32.55387
G1 X179.814 Y146.382 E32.5882
G1 X179.986 Y146.785 E32.61006
G1 X180.208 Y147.348 E32.64026
G1 X180.277 Y147.538 E32.65034
G1 X180.456 Y148.074 E32.67853
G1 X180.587 Y148.502 E32.70087
G1 X180.765 Y149.152 E32.73449
G1 X180.906 Y149.783 E32.76675
G1 X180.986 Y150.191 E32.78749
G1 X181.09 Y150.812 E32.8189
G1 X181.118 Y151.016 E32.82917
G1 X181.177 Y151.537 E32.85533
G1 X181.215 Y151.964 E32.87672
G1 X181.252 Y152.582 E32.90761
G1 X181.258 Y152.767 E32.91684
G1 X181.263 Y153.298 E32.94334
G1 X181.256 Y153.741 E32.96544
G1 X181.227 Y154.382 E32.99745
G1 X181.166 Y155.048 E33.03082
G1 X181.111 Y155.508 E33.05393
G1 X181.02 Y156.125 E33.08505
G1 X180.99 Y156.294 E33.09361
G1 X180.888 Y156.799 E33.11931
G1 X180.79 Y157.232 E33.14146
G1 X180.596 Y157.97 E33.17953
G1 X180.406 Y158.571 E33.21098
G1 X180.263 Y158.986 E33.23288
G1 X180.047 Y159.56 E33.26347
G1 X179.978 Y159.729 E33.27258
G1 X179.772 Y160.201 E33.29827
G1 X179.585 Y160.604 E33.32044
G1 X179.314 Y161.147 E33.35072
G1 X179.225 Y161.314 E33.36016
G1 X178.959 Y161.785 E33.38714
G1 X178.739 Y162.153 E33.40853
G1 X178.4 Y162.686 E33.44005
G1 X178.286 Y162.854 E33.45018
G1 X177.964 Y163.304 E33.47778
G1 X177.687 Y163.671 E33.50072
G1 X177.314 Y164.138 E33.53054
G1 X177.233 Y164.234 E33.53681
G1 X176.9 Y164.611 E33.5619
G1 X176.516 Y165.026 E33.59011
G1 X176.318 Y165.234 E33.60444
G1 X175.831 Y165.733 E33.63923
G1 X165.674 Y175.887 E34.35575
G1 X165.102 Y176.443 E34.39555
G1 X164.474 Y177.021 E34.43813
G1 X164.218 Y177.243 E34.45503
G1 X163.76 Y177.619 E34.4846
G1 X163.612 Y177.734 E34.49395
G1 X163.174 Y178.057 E34.5211
G1 X162.8 Y178.319 E34.54388
G1 X162.335 Y178.628 E34.57174
G1 X162.182 Y178.724 E34.58075
G1 X161.698 Y179.01 E34.60879
G1 X161.338 Y179.211 E34.62937
G1 X160.767 Y179.509 E34.6615
G1 X160.581 Y179.599 E34.67181
G1 X160.102 Y179.817 E34.69806
G1 X159.696 Y179.99 E34.72008
G1 X159.143 Y180.208 E34.74974
G1 X158.956 Y180.276 E34.75966
G1 X158.416 Y180.456 E34.78806
G1 X157.988 Y180.587 E34.81039
G1 X157.383 Y180.754 E34.84171
G1 X156.756 Y180.896 E34.87378
G1 X156.289 Y180.988 E34.89752
G1 X155.675 Y181.091 E34.92859
G1 X155.502 Y181.115 E34.9373
G1 X154.95 Y181.177 E34.96501
G1 X154.505 Y181.216 E34.9873
G1 X153.89 Y181.253 E35.01804
G1 X153.699 Y181.259 E35.02757
G1 X153.176 Y181.263 E35.05366
G1 X152.743 Y181.256 E35.07527
G1 X152.11 Y181.227 E35.10688
G1 X151.907 Y181.212 E35.11704
G1 X151.373 Y181.159 E35.14381
G1 X150.951 Y181.107 E35.16502
G1 X150.345 Y181.016 E35.19559
G1 X150.173 Y180.985 E35.20431
G1 X149.663 Y180.88 E35.23029
G1 X149.21 Y180.776 E35.25348
G1 X148.57 Y180.609 E35.28648
G1 X148.393 Y180.557 E35.29568
G1 X147.889 Y180.395 E35.32209
G1 X147.471 Y180.25 E35.34417
G1 X146.901 Y180.035 E35.37456
G1 X146.288 Y179.771 E35.40786
G1 X145.883 Y179.583 E35.43014
G1 X145.363 Y179.325 E35.4591
G1 X145.197 Y179.237 E35.46847
G1 X144.705 Y178.959 E35.49666
G1 X144.337 Y178.739 E35.51805
G1 X143.804 Y178.4 E35.54957
G1 X143.636 Y178.286 E35.5597
G1 X143.217 Y177.987 E35.58538
G1 X142.894 Y177.745 E35.60551
G1 X142.472 Y177.412 E35.63233
G1 X142.332 Y177.296 E35.6414
G1 X141.884 Y176.905 E35.67107
G1 X141.449 Y176.503 E35.70062
G1 X140.891 Y175.963 E35.73936
G1 X35.175 Y70.246 E43.19823
G1 X34.824 Y69.885 E43.22335
G1 X34.576 Y69.621 E43.24142
G1 X34.11 Y69.109 E43.27596
G1 X33.418 Y68.269 E43.33026
G1 X33.302 Y68.113 E43.33996
G1 X32.867 Y67.484 E43.37811
G1 X32.735 Y67.278 E43.39032
G1 X32.231 Y66.405 E43.44061
G1 X31.919 Y65.803 E43.47444
G1 X31.403 Y64.65 E43.53746
G1 X31.357 Y64.529 E43.54392
G1 X31.162 Y63.97 E43.57345
G1 X31.044 Y63.601 E43.59278
G1 X30.793 Y62.682 E43.64031
G1 X30.676 Y62.127 E43.66861
G1 X30.553 Y61.433 E43.70377
G1 X30.403 Y60.46 E43.75289
G1 X29.961 Y57.848 E43.88505
G1 X29.475 Y55.401 E44.00952
G1 X28.916 Y52.947 E44.13508
G1 X28.291 Y50.53 E44.25964
G1 X27.578 Y48.052 E44.38828
G1 X27.026 Y46.312 E44.47935
G1 X26.876 Y45.795 E44.50621
G1 X26.834 Y45.636 E44.51441
G1 X26.633 Y44.72 E44.5612
G1 X26.511 Y43.79 E44.608
G1 X26.469 Y42.853 E44.65479
G1 X26.507 Y41.916 E44.70157
G1 X26.624 Y40.986 E44.74834
G1 X26.82 Y40.069 E44.79512
G1 X27.094 Y39.172 E44.84191
G1 X27.443 Y38.301 E44.88873
G1 X27.865 Y37.463 E44.93554
G1 X28.357 Y36.665 E44.98231
G1 X28.915 Y35.911 E45.02911
G1 X29.442 Y35.306 E45.06913
G1 X29.895 Y34.831 E45.10188
G1 X31.964 Y32.76 E45.24793
G0 F3600 X32.246 Y33.043
G1 F1800 X33.137 Y32.158 E45.31059
G1 X33.309 Y31.983 E45.32283
G1 X34.955 Y30.338 E45.43893
G1 X35.438 Y29.868 E45.47255
G1 X36.125 Y29.255 E45.51848
G1 X36.862 Y28.704 E45.56439
G1 X37.645 Y28.22 E45.61032
G1 X38.467 Y27.805 E45.65626
G1 X39.322 Y27.462 E45.70222
G1 X40.203 Y27.196 E45.74813
G1 X41.104 Y27.007 E45.79406
G1 X42.018 Y26.896 E45.83999
G1 X42.938 Y26.866 E45.88592
G1 X43.857 Y26.915 E45.93183
G1 X44.769 Y27.044 E45.97779
G1 X45.998 Y27.349 E46.04096
G1 X47.317 Y27.762 E46.10992
G1 X49.747 Y28.485 E46.2364
G1 X52.213 Y29.143 E46.36374
G1 X54.665 Y29.724 E46.48945
G1 X57.134 Y30.237 E46.61526
G1 X59.654 Y30.683 E46.74294
G1 X61.295 Y30.934 E46.82576
G1 X61.676 Y30.998 E46.84504
G1 X62.168 Y31.093 E46.87004
G1 X62.532 Y31.172 E46.88862
G1 X63.406 Y31.401 E46.93369
G1 X63.971 Y31.584 E46.96332
G1 X64.294 Y31.698 E46.98041
G1 X65.134 Y32.036 E47.02559
G1 X65.291 Y32.107 E47.03418
G1 X65.831 Y32.37 E47.06415
G1 X66.032 Y32.475 E47.07546
G1 X66.823 Y32.933 E47.12106
G1 X67.375 Y33.285 E47.15373
G1 X68.129 Y33.813 E47.19965
G1 X68.523 Y34.13 E47.22488
G1 X68.718 Y34.295 E47.23762
G1 X69.224 Y34.752 E47.27164
G1 X70.117 Y35.612 E47.33349
G1 X175.503 Y140.997 E54.76901
G1 X176.148 Y141.659 E54.81512
G1 X176.491 Y142.025 E54.84014
G1 X176.94 Y142.533 E54.87397
G1 X177.296 Y142.966 E54.90194
G1 X177.415 Y143.119 E54.91161
G1 X177.73 Y143.545 E54.93804
G1 X177.992 Y143.919 E54.96082
G1 X178.289 Y144.367 E54.98764
G1 X178.385 Y144.52 E54.99665
G1 X178.66 Y144.985 E55.0236
G1 X178.865 Y145.352 E55.04457
G1 X179.165 Y145.931 E55.07711
G1 X179.446 Y146.539 E55.11052
G1 X179.618 Y146.942 E55.13238
G1 X179.832 Y147.485 E55.1615
G1 X179.901 Y147.675 E55.17159
G1 X180.074 Y148.191 E55.19874
G1 X180.205 Y148.619 E55.22107
G1 X180.376 Y149.245 E55.25344
G1 X180.514 Y149.86 E55.28489
G1 X180.594 Y150.268 E55.30563
G1 X180.694 Y150.867 E55.33593
G1 X180.722 Y151.071 E55.3462
G1 X180.778 Y151.572 E55.37135
G1 X180.816 Y151.999 E55.39274
G1 X180.852 Y152.595 E55.42253
G1 X180.858 Y152.78 E55.43176
G1 X180.863 Y153.291 E55.45726
G1 X180.856 Y153.734 E55.47936
G1 X180.828 Y154.352 E55.51023
G1 X180.769 Y155 E55.54269
G1 X180.714 Y155.46 E55.5658
G1 X180.626 Y156.055 E55.59581
G1 X180.498 Y156.711 E55.62916
G1 X180.4 Y157.144 E55.6513
G1 X180.212 Y157.855 E55.688
G1 X180.028 Y158.44 E55.71859
G1 X179.885 Y158.855 E55.74049
G1 X179.677 Y159.409 E55.77001
G1 X179.409 Y160.033 E55.80389
G1 X179.222 Y160.436 E55.82606
G1 X178.961 Y160.959 E55.85522
G1 X178.872 Y161.126 E55.86466
G1 X178.616 Y161.58 E55.89066
G1 X178.396 Y161.948 E55.91205
G1 X178.069 Y162.461 E55.94241
G1 X177.955 Y162.629 E55.95253
G1 X177.645 Y163.063 E55.97914
G1 X177.368 Y163.43 E56.00208
G1 X177.008 Y163.88 E56.03083
G1 X176.606 Y164.339 E56.06127
G1 X176.222 Y164.754 E56.08948
G1 X176.032 Y164.955 E56.10328
G1 X175.548 Y165.45 E56.13782
G1 X165.395 Y175.6 E56.85406
G1 X164.823 Y176.156 E56.89386
G1 X164.212 Y176.719 E56.93531
G1 X163.956 Y176.941 E56.95222
G1 X163.515 Y177.303 E56.98068
G1 X163.367 Y177.418 E56.99003
G1 X162.945 Y177.73 E57.01622
G1 X162.571 Y177.992 E57.039
G1 X162.123 Y178.289 E57.06581
G1 X161.97 Y178.385 E57.07482
G1 X161.503 Y178.661 E57.10189
