;FLAVOR:Marlin
;TIME:649
;Filament used: 0.472334m
;Layer height: 0.15
;MINX:60.883
;MINY:63.351
;MINZ:0.3
;MAXX:139.118
;MAXY:136.648
;MAXZ:11.55
;Generated with Cura_SteamEngine 4.13.0
M140 S90
M105
M190 S90
M104 S235
M105
M109 S235
M82 ;absolute extrusion mode
G21 ;metric values
G90 ;absolute positioning
M82 ;set extruder to absolute mode
M107 ;start with the fan off
G28 X0 Y0 ;move X/Y to min endstops
G28 Z0 ;move Z to min endstops
G1 Z15.0 F9000 ;move the platform down 15mm
G92 E0 ;zero the extruded length
G1 F200 E6 ;extrude 6 mm of feed stock
G92 E0 ;zero the extruded length again
G1 F9000
;Put printing message on LCD screen
M117 Printing...
G92 E0
G92 E0
G1 F3000 E-5
;LAYER_COUNT:76
;LAYER:0
M107
G0 F3600 X66.802 Y83.489 Z0.3
;TYPE:SKIRT
G1 F3000 E0
G1 F1800 X67.33 Y83.114 E0.03231
G1 X67.618 Y82.921 E0.04961
G1 X68.46 Y82.405 E0.09887
G1 X69.089 Y82.077 E0.13427
G1 X69.415 Y81.919 E0.15234
G1 X70.284 Y81.539 E0.19966
G1 X70.705 Y81.374 E0.22222
G1 X71.28 Y81.165 E0.25274
G1 X73.374 Y80.463 E0.36292
G1 X75.7 Y79.609 E0.48654
G1 X77.991 Y78.694 E0.60962
G1 X80.283 Y77.702 E0.73422
G1 X82.526 Y76.656 E0.85769
G1 X84.731 Y75.549 E0.98079
G1 X86.935 Y74.364 E1.10563
G1 X89.076 Y73.134 E1.22882
G1 X91.207 Y71.829 E1.35348
G1 X93.295 Y70.467 E1.47786
G1 X95.304 Y69.072 E1.59988
G1 X97.33 Y67.581 E1.72538
G1 X98.353 Y66.787 E1.78999
G1 X98.955 Y66.332 E1.82763
G1 X99.598 Y65.878 E1.8669
G1 X99.815 Y65.735 E1.87987
G1 X100.639 Y65.237 E1.9279
G1 X100.815 Y65.14 E1.93793
G1 X101.778 Y64.663 E1.99155
G1 X102.025 Y64.554 E2.00501
G1 X103.024 Y64.165 E2.0585
G1 X103.174 Y64.114 E2.0664
G1 X104.033 Y63.857 E2.11114
G1 X104.314 Y63.784 E2.12562
G1 X105.579 Y63.526 E2.19003
G1 X105.86 Y63.484 E2.20421
G1 X107.072 Y63.364 E2.26497
G1 X107.34 Y63.351 E2.27836
G1 X108.579 Y63.354 E2.34017
G1 X108.861 Y63.369 E2.35426
G1 X110.175 Y63.511 E2.4202
G1 X110.488 Y63.562 E2.43602
G1 X111.805 Y63.852 E2.5033
G1 X112.063 Y63.924 E2.51666
G1 X112.982 Y64.22 E2.56483
G1 X113.173 Y64.29 E2.57498
G1 X114.062 Y64.656 E2.62294
G1 X114.256 Y64.745 E2.63359
G1 X115.27 Y65.269 E2.69054
G1 X115.528 Y65.418 E2.7054
G1 X116.587 Y66.105 E2.76838
G1 X116.805 Y66.263 E2.78181
G1 X117.802 Y67.069 E2.84577
G1 X118.02 Y67.265 E2.8604
G1 X118.944 Y68.19 E2.92562
G1 X119.136 Y68.404 E2.93997
G1 X119.895 Y69.338 E3.00001
G1 X120.057 Y69.559 E3.01368
G1 X120.665 Y70.473 E3.06845
G1 X120.791 Y70.682 E3.08062
G1 X121.326 Y71.669 E3.13664
G1 X122.052 Y73.171 E3.21986
G1 X122.245 Y73.578 E3.24234
G1 X123.377 Y75.818 E3.36755
G1 X124.559 Y78.002 E3.49145
G1 X125.799 Y80.147 E3.61505
G1 X127.093 Y82.244 E3.73799
G1 X128.47 Y84.343 E3.86323
G1 X129.872 Y86.352 E3.98545
G1 X131.369 Y88.373 E4.11093
G1 X132.889 Y90.308 E4.23369
G1 X134.795 Y92.589 E4.38199
G1 X135.545 Y93.458 E4.43926
G1 X135.939 Y93.938 E4.47024
G1 X136.023 Y94.046 E4.47707
G1 X136.848 Y95.249 E4.54984
G1 X137.118 Y95.698 E4.57598
G1 X137.593 Y96.564 E4.62526
G1 X138.006 Y97.494 E4.67603
G1 X138.143 Y97.84 E4.69459
G1 X138.575 Y99.137 E4.76279
G1 X138.642 Y99.384 E4.77556
G1 X138.912 Y100.637 E4.83951
G1 X138.961 Y100.941 E4.85487
G1 X139.097 Y102.195 E4.9178
G1 X139.112 Y102.461 E4.93109
G1 X139.118 Y103.721 E4.99396
G1 X139.104 Y104.019 E5.00884
G1 X138.979 Y105.278 E5.07196
G1 X138.938 Y105.548 E5.08558
G1 X138.683 Y106.787 E5.14869
G1 X138.606 Y107.083 E5.16395
G1 X138.218 Y108.306 E5.22797
G1 X138.13 Y108.54 E5.24044
G1 X137.639 Y109.67 E5.30191
G1 X137.502 Y109.946 E5.31728
G1 X136.865 Y111.075 E5.38195
G1 X136.716 Y111.309 E5.39579
G1 X135.969 Y112.356 E5.45996
G1 X135.797 Y112.572 E5.47373
G1 X134.983 Y113.495 E5.53513
G1 X134.777 Y113.706 E5.54984
G1 X133.837 Y114.572 E5.61361
G1 X133.608 Y114.762 E5.62845
G1 X132.585 Y115.524 E5.69209
G1 X132.396 Y115.65 E5.70343
G1 X131.84 Y116 E5.7362
G1 X131.388 Y116.268 E5.76242
G1 X129.22 Y117.591 E5.88913
G1 X127.171 Y118.923 E6.01106
G1 X125.101 Y120.353 E6.13658
G1 X123.101 Y121.82 E6.26032
G1 X121.14 Y123.346 E6.38429
G1 X119.221 Y124.928 E6.50837
G1 X117.365 Y126.549 E6.63131
G1 X115.535 Y128.239 E6.75558
G1 X113.764 Y129.971 E6.87917
G1 X112.072 Y131.725 E7.00076
G1 X111.597 Y132.211 E7.03466
G1 X110.859 Y132.906 E7.08523
G1 X110.62 Y133.113 E7.10101
G1 X109.468 Y133.997 E7.17345
G1 X109.227 Y134.16 E7.18797
G1 X108.387 Y134.679 E7.23723
G1 X107.906 Y134.937 E7.26446
G1 X107.533 Y135.126 E7.28532
G1 X106.469 Y135.603 E7.3435
G1 X106.252 Y135.688 E7.35512
G1 X104.929 Y136.12 E7.42456
G1 X104.616 Y136.203 E7.44071
G1 X103.652 Y136.418 E7.48999
G1 X102.873 Y136.536 E7.5293
G1 X101.802 Y136.636 E7.58296
G1 X101.559 Y136.648 E7.5951
G1 X100.243 Y136.642 E7.66076
G1 X99.919 Y136.623 E7.67695
G1 X98.725 Y136.494 E7.73686
G1 X98.605 Y136.475 E7.74293
G1 X97.38 Y136.216 E7.80539
G1 X96.872 Y136.081 E7.83162
G1 X95.928 Y135.789 E7.88091
G1 X95.298 Y135.545 E7.91462
G1 X95.078 Y135.453 E7.92652
G1 X94.081 Y134.982 E7.98153
G1 X93.839 Y134.854 E7.99519
G1 X92.732 Y134.192 E8.05954
G1 X92.518 Y134.048 E8.07241
G1 X91.551 Y133.325 E8.13264
G1 X91.319 Y133.133 E8.14767
G1 X90.294 Y132.181 E8.21746
G1 X90.08 Y131.958 E8.23288
G1 X89.314 Y131.079 E8.29105
G1 X89.159 Y130.883 E8.30351
G1 X88.602 Y130.119 E8.35069
G1 X88.231 Y129.567 E8.38387
G1 X86.765 Y127.452 E8.51225
G1 X85.285 Y125.438 E8.63695
G1 X83.764 Y123.487 E8.76037
G1 X82.178 Y121.567 E8.88461
G1 X80.525 Y119.678 E9.00984
G1 X78.853 Y117.872 E9.13263
G1 X77.136 Y116.121 E9.25498
G1 X75.332 Y114.38 E9.38005
G1 X73.489 Y112.703 E9.50437
G1 X71.596 Y111.074 E9.62897
G1 X69.684 Y109.52 E9.75189
G1 X67.697 Y107.997 E9.87679
G1 X67.48 Y107.837 E9.89024
G1 X66.78 Y107.309 E9.93399
G1 X66.3 Y106.928 E9.96456
G1 X65.56 Y106.274 E10.01383
G1 X65.118 Y105.827 E10.04519
G1 X64.759 Y105.445 E10.07135
G1 X64.019 Y104.58 E10.12814
G1 X63.991 Y104.544 E10.13041
G1 X63.432 Y103.763 E10.17833
G1 X63.245 Y103.479 E10.1953
G1 X62.563 Y102.307 E10.26295
G1 X62.426 Y102.038 E10.27801
G1 X61.904 Y100.863 E10.34215
G1 X61.819 Y100.641 E10.35401
G1 X61.434 Y99.458 E10.41608
G1 X61.346 Y99.132 E10.43293
G1 X61.07 Y97.832 E10.49923
G1 X61.029 Y97.569 E10.51251
G1 X60.896 Y96.258 E10.57825
G1 X60.883 Y95.979 E10.59218
G1 X60.885 Y94.804 E10.65081
G1 X60.9 Y94.503 E10.66584
G1 X60.99 Y93.511 E10.71554
G1 X61.006 Y93.39 E10.72162
G1 X61.182 Y92.384 E10.77258
G1 X61.229 Y92.169 E10.78356
G1 X61.486 Y91.19 E10.83405
G1 X61.608 Y90.793 E10.85477
G1 X62.124 Y89.417 E10.92809
G1 X62.217 Y89.208 E10.9395
G1 X62.823 Y88.023 E11.00591
G1 X62.967 Y87.776 E11.02017
G1 X63.546 Y86.877 E11.07352
G1 X63.674 Y86.696 E11.08458
G1 X64.246 Y85.949 E11.13152
G1 X64.402 Y85.761 E11.14371
G1 X65.044 Y85.048 E11.19157
G1 X65.114 Y84.976 E11.19658
G1 X65.775 Y84.344 E11.24221
G1 X66.036 Y84.113 E11.2596
G1 X66.802 Y83.489 E11.30889
G0 F3600 X67.055 Y83.799
G1 F1800 X67.553 Y83.447 E11.33931
G1 X67.841 Y83.254 E11.35661
G1 X68.67 Y82.746 E11.40512
G1 X69.264 Y82.437 E11.43852
G1 X69.59 Y82.279 E11.45659
G1 X70.43 Y81.912 E11.50233
G1 X70.851 Y81.747 E11.52489
G1 X71.408 Y81.545 E11.55445
G1 X73.461 Y80.857 E11.66247
G1 X75.85 Y79.98 E11.78943
G1 X78.15 Y79.061 E11.913
G1 X80.432 Y78.073 E12.03706
G1 X82.695 Y77.018 E12.16163
G1 X84.92 Y75.901 E12.28584
G1 X87.144 Y74.705 E12.41182
G1 X89.278 Y73.479 E12.53461
G1 X91.429 Y72.162 E12.66044
G1 X93.496 Y70.814 E12.78355
G1 X95.547 Y69.39 E12.90812
G1 X97.591 Y67.885 E13.03476
G1 X98.594 Y67.106 E13.09812
G1 X99.196 Y66.651 E13.13577
G1 X99.818 Y66.212 E13.17375
G1 X100.035 Y66.069 E13.18671
G1 X100.832 Y65.588 E13.23316
G1 X101.008 Y65.491 E13.24318
G1 X101.94 Y65.029 E13.29508
G1 X102.187 Y64.92 E13.30855
G1 X103.153 Y64.544 E13.36027
G1 X103.303 Y64.493 E13.36817
G1 X104.134 Y64.244 E13.41145
G1 X104.415 Y64.171 E13.42593
G1 X105.638 Y63.922 E13.4882
G1 X105.919 Y63.88 E13.50238
G1 X107.091 Y63.764 E13.56113
G1 X107.359 Y63.751 E13.57452
G1 X108.558 Y63.754 E13.63434
G1 X108.84 Y63.769 E13.64843
G1 X110.111 Y63.906 E13.71221
G1 X110.424 Y63.957 E13.72803
G1 X111.698 Y64.237 E13.7931
G1 X111.956 Y64.309 E13.80647
G1 X112.845 Y64.596 E13.85307
G1 X113.036 Y64.666 E13.86322
G1 X113.895 Y65.02 E13.90957
G1 X114.089 Y65.109 E13.92022
G1 X115.07 Y65.616 E13.97532
G1 X115.328 Y65.765 E13.99018
G1 X116.352 Y66.429 E14.05107
G1 X116.57 Y66.587 E14.0645
G1 X117.534 Y67.366 E14.12633
G1 X117.752 Y67.562 E14.14096
G1 X118.646 Y68.457 E14.20407
G1 X118.838 Y68.671 E14.21842
G1 X119.572 Y69.575 E14.27651
G1 X119.734 Y69.796 E14.29018
G1 X120.323 Y70.68 E14.34318
G1 X120.449 Y70.889 E14.35535
G1 X120.966 Y71.843 E14.40949
G1 X121.691 Y73.342 E14.49256
G1 X121.892 Y73.767 E14.51602
G1 X123.025 Y76.009 E14.64134
G1 X124.204 Y78.186 E14.76486
G1 X125.455 Y80.351 E14.8896
G1 X126.767 Y82.477 E15.01424
G1 X128.134 Y84.561 E15.13859
G1 X129.567 Y86.614 E15.26349
G1 X131.035 Y88.595 E15.38651
G1 X132.567 Y90.546 E15.51026
G1 X134.467 Y92.82 E15.6581
G1 X135.243 Y93.719 E15.71735
G1 X135.623 Y94.184 E15.74731
G1 X135.707 Y94.292 E15.75414
G1 X136.505 Y95.455 E15.82451
G1 X136.775 Y95.904 E15.85064
G1 X137.241 Y96.756 E15.89909
G1 X137.634 Y97.641 E15.9474
G1 X137.771 Y97.987 E15.96597
G1 X138.188 Y99.242 E16.03195
G1 X138.255 Y99.489 E16.04472
G1 X138.517 Y100.7 E16.10653
G1 X138.566 Y101.004 E16.12189
G1 X138.697 Y102.218 E16.18281
G1 X138.712 Y102.484 E16.1961
G1 X138.718 Y103.702 E16.25687
G1 X138.704 Y104 E16.27175
G1 X138.583 Y105.218 E16.33282
G1 X138.542 Y105.488 E16.34644
G1 X138.296 Y106.687 E16.40751
G1 X138.219 Y106.983 E16.42277
G1 X137.844 Y108.166 E16.48468
G1 X137.756 Y108.4 E16.49715
G1 X137.281 Y109.492 E16.55657
G1 X137.144 Y109.768 E16.57194
G1 X136.527 Y110.86 E16.63451
G1 X136.378 Y111.094 E16.64835
G1 X135.656 Y112.107 E16.71042
G1 X135.484 Y112.323 E16.72419
G1 X134.696 Y113.215 E16.78357
G1 X134.49 Y113.426 E16.79828
G1 X133.582 Y114.264 E16.85993
G1 X133.353 Y114.454 E16.87477
G1 X132.363 Y115.191 E16.93635
G1 X132.174 Y115.317 E16.94768
G1 X131.636 Y115.655 E16.97938
G1 X131.233 Y115.893 E17.00273
G1 X129.015 Y117.248 E17.1324
G1 X126.931 Y118.602 E17.25639
G1 X124.869 Y120.027 E17.38144
G1 X122.847 Y121.51 E17.50654
G1 X120.9 Y123.025 E17.62962
G1 X118.966 Y124.62 E17.75469
G1 X117.094 Y126.255 E17.87869
G1 X115.249 Y127.959 E18.00399
G1 X113.479 Y129.689 E18.12747
G1 X111.786 Y131.446 E18.2492
G1 X111.311 Y131.932 E18.2831
G1 X110.597 Y132.604 E18.33202
G1 X110.358 Y132.811 E18.34779
G1 X109.244 Y133.665 E18.41782
G1 X109.003 Y133.828 E18.43234
G1 X108.176 Y134.339 E18.48084
G1 X107.725 Y134.58 E18.50635
G1 X107.352 Y134.769 E18.52721
G1 X106.323 Y135.23 E18.58346
G1 X106.106 Y135.315 E18.59509
G1 X104.827 Y135.734 E18.66224
G1 X104.514 Y135.817 E18.67839
G1 X103.107 Y136.1 E18.74999
G1 X102.818 Y136.14 E18.76455
G1 X101.782 Y136.237 E18.81646
G1 X101.539 Y136.249 E18.8286
G1 X100.266 Y136.243 E18.89211
G1 X99.942 Y136.224 E18.9083
G1 X98.788 Y136.099 E18.96621
G1 X98.668 Y136.08 E18.97227
G1 X97.482 Y135.829 E19.03275
G1 X96.974 Y135.694 E19.05898
G1 X96.047 Y135.406 E19.10741
G1 X95.452 Y135.176 E19.13923
G1 X95.232 Y135.084 E19.15113
G1 X94.268 Y134.629 E19.20431
G1 X94.026 Y134.501 E19.21797
G1 X92.955 Y133.86 E19.28024
G1 X92.741 Y133.716 E19.29311
G1 X91.806 Y133.017 E19.35135
G1 X91.574 Y132.825 E19.36638
G1 X90.583 Y131.904 E19.43387
G1 X90.369 Y131.681 E19.44929
G1 X89.627 Y130.83 E19.50562
G1 X89.472 Y130.634 E19.51809
G1 X88.934 Y129.896 E19.56365
G1 X88.57 Y129.355 E19.59618
G1 X87.089 Y127.216 E19.72598
G1 X85.607 Y125.201 E19.85077
G1 X84.055 Y123.21 E19.97672
G1 X82.489 Y121.314 E20.0994
G1 X80.836 Y119.426 E20.22459
G1 X79.149 Y117.602 E20.34855
G1 X77.398 Y115.818 E20.47326
G1 X75.613 Y114.095 E20.59703
G1 X73.736 Y112.386 E20.72368
G1 X71.885 Y110.794 E20.84548
G1 X69.912 Y109.19 E20.97234
G1 X67.943 Y107.681 E21.0961
G1 X67.721 Y107.518 E21.10985
G1 X67.021 Y106.99 E21.15359
G1 X66.553 Y106.618 E21.18342
G1 X65.826 Y105.974 E21.23187
G1 X65.409 Y105.553 E21.26143
G1 X65.05 Y105.171 E21.28759
G1 X64.335 Y104.334 E21.34251
G1 X64.307 Y104.298 E21.34478
G1 X63.766 Y103.543 E21.39112
G1 X63.579 Y103.259 E21.40808
G1 X62.919 Y102.125 E21.47354
G1 X62.782 Y101.856 E21.48861
G1 X62.277 Y100.72 E21.55063
G1 X62.192 Y100.498 E21.56249
G1 X61.82 Y99.354 E21.6225
G1 X61.732 Y99.028 E21.63935
G1 X61.465 Y97.771 E21.70346
G1 X61.424 Y97.508 E21.71674
G1 X61.296 Y96.239 E21.78037
G1 X61.283 Y95.96 E21.79431
G1 X61.285 Y94.824 E21.85098
G1 X61.3 Y94.523 E21.86602
G1 X61.387 Y93.563 E21.91411
G1 X61.403 Y93.442 E21.9202
G1 X61.573 Y92.469 E21.96948
G1 X61.62 Y92.254 E21.98046
G1 X61.869 Y91.308 E22.02926
G1 X61.991 Y90.911 E22.04998
G1 X62.489 Y89.58 E22.12088
G1 X62.582 Y89.371 E22.13229
G1 X63.169 Y88.225 E22.19653
G1 X63.313 Y87.978 E22.2108
G1 X63.873 Y87.108 E22.26241
G1 X64.001 Y86.927 E22.27347
G1 X64.554 Y86.205 E22.31885
G1 X64.71 Y86.017 E22.33103
G1 X65.33 Y85.326 E22.37735
G1 X65.4 Y85.254 E22.38236
G1 X66.04 Y84.644 E22.42647
G1 X66.301 Y84.413 E22.44386
G1 X67.055 Y83.799 E22.49237
G0 F3600 X67.307 Y84.11
G1 F1800 X67.776 Y83.779 E22.52101
G1 X68.064 Y83.586 E22.53831
G1 X68.878 Y83.088 E22.58592
G1 X69.438 Y82.797 E22.6174
G1 X69.764 Y82.639 E22.63547
G1 X70.576 Y82.284 E22.67969
G1 X70.997 Y82.119 E22.70225
G1 X71.535 Y81.924 E22.7308
G1 X73.62 Y81.225 E22.84051
G1 X75.957 Y80.367 E22.96471
G1 X78.321 Y79.423 E23.09171
G1 X80.61 Y78.432 E23.21615
G1 X82.879 Y77.374 E23.34105
G1 X85.096 Y76.261 E23.46481
G1 X87.315 Y75.068 E23.59051
G1 X89.492 Y73.817 E23.71577
G1 X91.651 Y72.495 E23.84207
G1 X93.72 Y71.145 E23.96533
G1 X95.784 Y69.713 E24.09066
G1 X97.816 Y68.217 E24.21654
G1 X98.835 Y67.425 E24.28093
G1 X99.437 Y66.97 E24.31858
G1 X100.038 Y66.546 E24.35527
G1 X100.255 Y66.403 E24.36824
G1 X101.025 Y65.938 E24.41312
G1 X101.201 Y65.841 E24.42314
G1 X102.101 Y65.395 E24.47325
G1 X102.348 Y65.286 E24.48672
G1 X103.281 Y64.923 E24.53667
G1 X103.431 Y64.872 E24.54457
G1 X104.235 Y64.631 E24.58645
G1 X104.516 Y64.558 E24.60093
G1 X105.697 Y64.317 E24.66107
G1 X105.978 Y64.275 E24.67524
G1 X107.111 Y64.163 E24.73204
G1 X107.379 Y64.15 E24.74543
G1 X108.537 Y64.153 E24.8032
G1 X108.819 Y64.168 E24.81729
G1 X110.046 Y64.3 E24.87886
G1 X110.359 Y64.351 E24.89468
G1 X111.59 Y64.623 E24.95758
G1 X111.848 Y64.695 E24.97094
G1 X112.707 Y64.971 E25.01596
G1 X112.898 Y65.041 E25.02611
G1 X113.729 Y65.383 E25.07094
G1 X113.923 Y65.472 E25.08159
G1 X114.87 Y65.962 E25.13478
G1 X115.128 Y66.111 E25.14965
G1 X116.117 Y66.752 E25.20844
G1 X116.335 Y66.91 E25.22188
G1 X117.267 Y67.664 E25.28169
G1 X117.485 Y67.86 E25.29631
G1 X118.348 Y68.724 E25.35724
G1 X118.54 Y68.938 E25.37158
G1 X119.249 Y69.811 E25.42769
G1 X119.411 Y70.032 E25.44136
G1 X119.98 Y70.886 E25.49256
G1 X120.106 Y71.095 E25.50473
G1 X120.605 Y72.017 E25.55703
G1 X121.329 Y73.514 E25.64
G1 X121.511 Y73.898 E25.6612
G1 X122.682 Y76.216 E25.79076
G1 X123.855 Y78.383 E25.9137
G1 X125.111 Y80.555 E26.03887
G1 X126.409 Y82.66 E26.16225
G1 X127.816 Y84.804 E26.29019
G1 X129.234 Y86.835 E26.41377
G1 X130.732 Y88.857 E26.53932
G1 X132.257 Y90.8 E26.66255
G1 X134.143 Y93.057 E26.80929
G1 X134.94 Y93.98 E26.87013
G1 X135.308 Y94.429 E26.89909
G1 X135.392 Y94.537 E26.90592
G1 X136.163 Y95.661 E26.97392
G1 X136.433 Y96.11 E27.00006
G1 X136.89 Y96.948 E27.04768
G1 X137.262 Y97.788 E27.09351
G1 X137.399 Y98.134 E27.11208
G1 X137.802 Y99.347 E27.17584
G1 X137.869 Y99.594 E27.18861
G1 X138.122 Y100.764 E27.24833
G1 X138.171 Y101.068 E27.2637
G1 X138.298 Y102.24 E27.32251
G1 X138.313 Y102.506 E27.3358
G1 X138.318 Y103.683 E27.39452
G1 X138.304 Y103.981 E27.40941
G1 X138.188 Y105.157 E27.46836
G1 X138.147 Y105.427 E27.48199
G1 X137.909 Y106.586 E27.54102
G1 X137.832 Y106.882 E27.55628
G1 X137.469 Y108.025 E27.61611
G1 X137.381 Y108.259 E27.62858
G1 X136.922 Y109.315 E27.68602
G1 X136.785 Y109.591 E27.7014
G1 X136.19 Y110.645 E27.76178
G1 X136.041 Y110.879 E27.77562
G1 X135.343 Y111.857 E27.83557
G1 X135.171 Y112.073 E27.84934
G1 X134.41 Y112.936 E27.90675
G1 X134.204 Y113.147 E27.92146
G1 X133.326 Y113.956 E27.98102
G1 X133.097 Y114.146 E27.99587
G1 X132.142 Y114.858 E28.0553
G1 X131.953 Y114.984 E28.06663
