;FLAVOR:Marlin
;TIME:1663
;Filament used: 1.08664m
;Layer height: 0.15
;MINX:34.055
;MINY:63.351
;MINZ:0.3
;MAXX:139.118
;MAXY:169.218
;MAXZ:13.5
;Generated with Cura_SteamEngine 4.13.0
M140 S90
M105
M190 S90
M104 S235
M105
M109 S235
M82 ;absolute extrusion mode
G21 ;metric values
G90 ;absolute positioning
M82 ;set extruder to absolute mode
M107 ;start with the fan off
G28 X0 Y0 ;move X/Y to min endstops
G28 Z0 ;move Z to min endstops
G1 Z15.0 F9000 ;move the platform down 15mm
G92 E0 ;zero the extruded length
G1 F200 E6 ;extrude 6 mm of feed stock
G92 E0 ;zero the extruded length again
G1 F9000
;Put printing message on LCD screen
M117 Printing...
G92 E0
G92 E0
G1 F3000 E-5
;LAYER_COUNT:89
;LAYER:0
M107
G0 F3600 X54.529 Y77.982 Z0.3
;TYPE:SKIRT
G1 F3000 E0
G1 F1800 X55.05 Y77.623 E0.03157
G1 X55.642 Y77.257 E0.06629
G1 X55.889 Y77.114 E0.08053
G1 X56.702 Y76.684 E0.12641
G1 X56.787 Y76.643 E0.13112
G1 X57.598 Y76.287 E0.17531
G1 X57.972 Y76.139 E0.19538
G1 X59.225 Y75.72 E0.26129
G1 X59.454 Y75.657 E0.27314
G1 X60.113 Y75.495 E0.307
G1 X60.312 Y75.452 E0.31715
G1 X61.582 Y75.247 E0.38133
G1 X61.879 Y75.215 E0.39624
G1 X62.734 Y75.153 E0.43901
G1 X63.167 Y75.137 E0.46062
G1 X65.68 Y75.01 E0.58616
G1 X68.157 Y74.815 E0.71012
G1 X70.626 Y74.55 E0.834
G1 X73.073 Y74.216 E0.95722
G1 X75.554 Y73.806 E1.08267
G1 X77.966 Y73.338 E1.20525
G1 X80.393 Y72.795 E1.32933
G1 X82.787 Y72.188 E1.45255
G1 X85.184 Y71.507 E1.57687
G1 X87.583 Y70.753 E1.70232
G1 X89.921 Y69.942 E1.82579
G1 X92.196 Y69.082 E1.94713
G1 X94.514 Y68.13 E2.07214
G1 X96.823 Y67.103 E2.19822
G1 X99.021 Y66.052 E2.31977
G1 X100.909 Y65.08 E2.42571
G1 X101.451 Y64.814 E2.45584
G1 X101.652 Y64.72 E2.46691
G1 X102.514 Y64.356 E2.51359
G1 X102.795 Y64.25 E2.52857
G1 X104.033 Y63.857 E2.59337
G1 X104.314 Y63.784 E2.60786
G1 X105.579 Y63.526 E2.67227
G1 X105.86 Y63.484 E2.68644
G1 X107.072 Y63.364 E2.74721
G1 X107.34 Y63.351 E2.76059
G1 X108.579 Y63.354 E2.82241
G1 X108.861 Y63.369 E2.8365
G1 X110.175 Y63.511 E2.90243
G1 X110.488 Y63.562 E2.91825
G1 X111.805 Y63.852 E2.98553
G1 X112.063 Y63.924 E2.9989
G1 X112.982 Y64.22 E3.04707
G1 X113.173 Y64.29 E3.05721
G1 X114.062 Y64.656 E3.10518
G1 X114.256 Y64.745 E3.11583
G1 X115.321 Y65.299 E3.17572
G1 X115.583 Y65.452 E3.19086
G1 X116.535 Y66.069 E3.24745
G1 X116.75 Y66.223 E3.26065
G1 X117.823 Y67.087 E3.32938
G1 X118.04 Y67.283 E3.34397
G1 X118.944 Y68.19 E3.40785
G1 X119.136 Y68.404 E3.4222
G1 X119.916 Y69.367 E3.48403
G1 X120.077 Y69.588 E3.49767
G1 X120.642 Y70.437 E3.54855
G1 X120.769 Y70.646 E3.56075
G1 X121.326 Y71.669 E3.61886
G1 X122.052 Y73.171 E3.70209
G1 X122.245 Y73.578 E3.72456
G1 X123.377 Y75.818 E3.84978
G1 X124.559 Y78.002 E3.97367
G1 X125.799 Y80.147 E4.09728
G1 X127.093 Y82.244 E4.22021
G1 X128.465 Y84.336 E4.34503
G1 X129.872 Y86.352 E4.46768
G1 X131.369 Y88.373 E4.59316
G1 X132.889 Y90.308 E4.71592
G1 X134.795 Y92.589 E4.86422
G1 X135.545 Y93.458 E4.92148
G1 X135.939 Y93.938 E4.95247
G1 X136.023 Y94.046 E4.95929
G1 X136.848 Y95.249 E5.03207
G1 X137.118 Y95.698 E5.05821
G1 X137.593 Y96.564 E5.10748
G1 X138.006 Y97.494 E5.15825
G1 X138.143 Y97.84 E5.17682
G1 X138.575 Y99.137 E5.24502
G1 X138.642 Y99.384 E5.25779
G1 X138.912 Y100.637 E5.32173
G1 X138.961 Y100.941 E5.3371
G1 X139.097 Y102.193 E5.39993
G1 X139.112 Y102.458 E5.41317
G1 X139.118 Y103.718 E5.47603
G1 X139.104 Y104.017 E5.49096
G1 X138.973 Y105.314 E5.556
G1 X138.929 Y105.598 E5.57034
G1 X138.673 Y106.827 E5.63297
G1 X138.599 Y107.109 E5.64752
G1 X138.218 Y108.306 E5.71019
G1 X138.13 Y108.54 E5.72266
G1 X137.759 Y109.422 E5.7704
G1 X137.692 Y109.565 E5.77827
G1 X137.429 Y110.092 E5.80766
G1 X137.173 Y110.566 E5.83454
G1 X136.74 Y111.333 E5.87848
G1 X136.242 Y112.189 E5.92789
G1 X135.037 Y114.401 E6.05356
G1 X133.93 Y116.582 E6.17558
G1 X132.869 Y118.826 E6.29942
G1 X131.866 Y121.113 E6.42401
G1 X130.924 Y123.434 E6.54897
G1 X130.067 Y125.73 E6.67124
G1 X129.262 Y128.091 E6.79569
G1 X128.526 Y130.471 E6.91998
G1 X127.856 Y132.871 E7.04429
G1 X127.294 Y135.119 E7.1599
G1 X127.105 Y135.884 E7.19921
G1 X126.952 Y136.443 E7.22813
G1 X126.489 Y137.812 E7.30023
G1 X126.381 Y138.078 E7.31455
G1 X125.989 Y138.944 E7.36197
G1 X125.94 Y139.042 E7.36744
G1 X125.448 Y139.932 E7.41817
G1 X125.286 Y140.198 E7.43371
G1 X124.506 Y141.329 E7.50226
G1 X124.385 Y141.485 E7.51211
G1 X123.688 Y142.306 E7.56584
G1 X123.392 Y142.625 E7.58755
G1 X122.691 Y143.322 E7.63687
G1 X122.142 Y143.796 E7.67305
G1 X121.902 Y143.991 E7.68848
G1 X121.3 Y144.45 E7.72625
G1 X121.258 Y144.48 E7.72882
G1 X120.581 Y144.93 E7.76938
G1 X120.348 Y145.074 E7.78304
G1 X119.576 Y145.513 E7.82735
G1 X118.671 Y145.985 E7.87827
G1 X116.394 Y147.215 E8.00739
G1 X114.236 Y148.46 E8.13168
G1 X112.127 Y149.756 E8.25518
G1 X110.057 Y151.112 E8.37864
G1 X108.009 Y152.539 E8.50317
G1 X106.027 Y154.003 E8.6261
G1 X104.054 Y155.549 E8.75116
G1 X102.15 Y157.13 E8.87463
G1 X100.285 Y158.77 E8.99853
G1 X98.468 Y160.46 E9.12233
G1 X96.703 Y162.199 E9.24595
G1 X94.758 Y164.232 E9.38631
G1 X94.401 Y164.618 E9.41255
G1 X93.701 Y165.315 E9.46183
G1 X93.112 Y165.822 E9.5006
G1 X92.864 Y166.022 E9.5165
G1 X92.233 Y166.497 E9.5559
G1 X91.561 Y166.942 E9.59611
G1 X91.327 Y167.086 E9.60982
G1 X90.389 Y167.608 E9.66337
G1 X90.195 Y167.705 E9.67419
G1 X89.411 Y168.063 E9.71719
G1 X89.218 Y168.143 E9.72762
G1 X88.008 Y168.572 E9.79167
G1 X87.714 Y168.659 E9.80696
G1 X86.623 Y168.927 E9.86301
G1 X86.406 Y168.97 E9.87405
G1 X85.101 Y169.156 E9.93981
G1 X84.444 Y169.204 E9.97268
G1 X84.15 Y169.218 E9.98736
G1 X82.814 Y169.209 E10.05402
G1 X82.492 Y169.189 E10.07011
G1 X81.289 Y169.054 E10.13051
G1 X81.123 Y169.027 E10.1389
G1 X80.216 Y168.844 E10.18506
G1 X79.976 Y168.786 E10.19738
G1 X78.804 Y168.439 E10.25836
G1 X78.536 Y168.345 E10.27253
G1 X77.417 Y167.89 E10.33279
G1 X77.164 Y167.772 E10.34672
G1 X75.966 Y167.129 E10.41455
G1 X75.712 Y166.974 E10.4294
G1 X74.636 Y166.236 E10.49449
G1 X74.399 Y166.054 E10.5094
G1 X73.499 Y165.29 E10.5683
G1 X73.315 Y165.118 E10.58087
G1 X72.433 Y164.204 E10.64424
G1 X72.229 Y163.969 E10.65976
G1 X71.631 Y163.223 E10.70746
G1 X71.342 Y162.822 E10.73212
G1 X70.571 Y161.708 E10.79971
G1 X69.859 Y160.696 E10.86144
G1 X68.341 Y158.632 E10.98927
G1 X66.832 Y156.698 E11.11165
G1 X65.251 Y154.788 E11.23535
G1 X63.595 Y152.896 E11.36079
G1 X61.906 Y151.073 E11.48478
G1 X60.184 Y149.319 E11.60741
G1 X58.409 Y147.609 E11.73037
G1 X56.532 Y145.9 E11.85702
G1 X54.647 Y144.28 E11.98102
G1 X53.968 Y143.711 E12.02522
G1 X53.517 Y143.307 E12.05542
G1 X53.322 Y143.125 E12.06873
G1 X52.436 Y142.207 E12.13238
G1 X52.231 Y141.971 E12.14798
G1 X51.391 Y140.887 E12.2164
G1 X51.232 Y140.656 E12.23039
G1 X50.596 Y139.625 E12.29082
G1 X50.455 Y139.369 E12.3054
G1 X49.873 Y138.16 E12.37235
G1 X49.746 Y137.854 E12.38888
G1 X49.53 Y137.295 E12.41877
G1 X49.147 Y136.227 E12.47538
G1 X48.444 Y134.323 E12.57664
G1 X47.523 Y132.021 E12.70034
G1 X46.531 Y129.73 E12.82489
G1 X45.485 Y127.492 E12.94814
G1 X44.363 Y125.255 E13.07299
G1 X43.2 Y123.094 E13.19543
G1 X41.95 Y120.92 E13.32054
G1 X40.661 Y118.82 E13.44347
G1 X39.293 Y116.722 E13.56843
G1 X37.896 Y114.712 E13.69055
G1 X37.376 Y114.007 E13.73425
G1 X36.809 Y113.212 E13.78297
G1 X36.228 Y112.315 E13.83629
G1 X36.049 Y112.01 E13.85393
G1 X35.441 Y110.831 E13.92011
G1 X35.318 Y110.557 E13.9351
G1 X34.882 Y109.443 E13.99478
G1 X34.787 Y109.16 E14.00967
G1 X34.482 Y108.093 E14.06504
G1 X34.422 Y107.84 E14.07801
G1 X34.224 Y106.805 E14.13058
G1 X34.192 Y106.588 E14.14153
G1 X34.084 Y105.556 E14.19329
G1 X34.066 Y105.263 E14.20794
G1 X34.055 Y103.982 E14.27185
G1 X34.071 Y103.616 E14.29013
G1 X34.191 Y102.361 E14.35303
G1 X34.227 Y102.118 E14.36528
G1 X34.48 Y100.864 E14.4291
G1 X34.566 Y100.53 E14.44631
G1 X34.851 Y99.584 E14.4956
G1 X35.133 Y98.847 E14.53497
G1 X35.351 Y98.328 E14.56306
G1 X35.77 Y97.434 E14.61231
G1 X36.189 Y96.691 E14.65487
G1 X36.354 Y96.421 E14.67066
G1 X36.98 Y95.496 E14.72638
G1 X37.123 Y95.304 E14.73832
G1 X37.845 Y94.423 E14.79515
G1 X38.055 Y94.19 E14.8108
G1 X38.809 Y93.424 E14.86442
G1 X39.332 Y92.951 E14.8996
G1 X40.129 Y92.268 E14.95197
G1 X41.204 Y91.366 E15.02198
G1 X43.076 Y89.703 E15.14691
G1 X44.876 Y88.012 E15.27012
G1 X46.621 Y86.275 E15.39296
G1 X48.346 Y84.46 E15.51788
G1 X50.011 Y82.603 E15.64231
G1 X51.262 Y81.137 E15.73846
G1 X51.778 Y80.52 E15.77859
G1 X52.392 Y79.839 E15.82434
G1 X52.604 Y79.621 E15.83951
G1 X53.503 Y78.785 E15.90075
G1 X53.678 Y78.638 E15.91216
G1 X54.337 Y78.122 E15.95391
G1 X54.529 Y77.982 E15.96577
G0 F3600 X54.765 Y78.306
G1 F1800 X55.27 Y77.957 E15.99639
G1 X55.843 Y77.603 E16.03
G1 X56.09 Y77.46 E16.04424
G1 X56.875 Y77.044 E16.08856
G1 X56.96 Y77.003 E16.09327
G1 X57.745 Y76.659 E16.13603
G1 X58.119 Y76.511 E16.15609
G1 X59.331 Y76.106 E16.21985
G1 X59.56 Y76.043 E16.2317
G1 X60.198 Y75.886 E16.26448
G1 X60.397 Y75.843 E16.27463
G1 X61.625 Y75.645 E16.33669
G1 X61.922 Y75.613 E16.35159
G1 X62.749 Y75.553 E16.39296
G1 X63.127 Y75.539 E16.41183
G1 X65.696 Y75.409 E16.54016
G1 X68.195 Y75.212 E16.66523
G1 X70.689 Y74.944 E16.79037
G1 X73.155 Y74.608 E16.91453
G1 X75.589 Y74.206 E17.03761
G1 X78.065 Y73.725 E17.16345
G1 X80.499 Y73.18 E17.28789
G1 X82.899 Y72.573 E17.4114
G1 X85.299 Y71.891 E17.53587
G1 X87.698 Y71.137 E17.66133
G1 X90.045 Y70.322 E17.78528
G1 X92.353 Y69.45 E17.90837
G1 X94.692 Y68.489 E18.03453
G1 X96.965 Y67.479 E18.15862
G1 X99.184 Y66.417 E18.28136
G1 X100.96 Y65.502 E18.38103
G1 X101.62 Y65.176 E18.41775
G1 X101.821 Y65.082 E18.42882
G1 X102.655 Y64.73 E18.47399
G1 X102.936 Y64.624 E18.48897
G1 X104.134 Y64.244 E18.55167
G1 X104.415 Y64.171 E18.56616
G1 X105.638 Y63.922 E18.62843
G1 X105.919 Y63.88 E18.6426
G1 X107.091 Y63.764 E18.70136
G1 X107.359 Y63.751 E18.71474
G1 X108.558 Y63.754 E18.77456
G1 X108.84 Y63.769 E18.78865
G1 X110.111 Y63.906 E18.85243
G1 X110.424 Y63.957 E18.86825
G1 X111.698 Y64.237 E18.93333
G1 X111.956 Y64.309 E18.94669
G1 X112.845 Y64.596 E18.9933
G1 X113.036 Y64.666 E19.00345
G1 X113.895 Y65.02 E19.0498
G1 X114.089 Y65.109 E19.06045
G1 X115.12 Y65.644 E19.1184
G1 X115.382 Y65.797 E19.13353
G1 X116.302 Y66.394 E19.18825
G1 X116.517 Y66.548 E19.20144
G1 X117.555 Y67.384 E19.26794
G1 X117.772 Y67.58 E19.28253
G1 X118.646 Y68.457 E19.3443
G1 X118.838 Y68.671 E19.35864
G1 X119.592 Y69.603 E19.41845
G1 X119.753 Y69.824 E19.43209
G1 X120.3 Y70.644 E19.48127
G1 X120.427 Y70.853 E19.49347
G1 X120.966 Y71.843 E19.54971
G1 X121.691 Y73.342 E19.63278
G1 X121.891 Y73.764 E19.65608
G1 X123.025 Y76.009 E19.78156
G1 X124.204 Y78.186 E19.90508
G1 X125.455 Y80.351 E20.02982
G1 X126.767 Y82.477 E20.15446
G1 X128.134 Y84.561 E20.2788
G1 X129.567 Y86.614 E20.40371
G1 X131.035 Y88.595 E20.52672
G1 X132.567 Y90.546 E20.65048
G1 X134.467 Y92.82 E20.79832
G1 X135.243 Y93.719 E20.85757
G1 X135.623 Y94.184 E20.88753
G1 X135.707 Y94.292 E20.89436
G1 X136.505 Y95.455 E20.96472
G1 X136.775 Y95.904 E20.99086
G1 X137.241 Y96.756 E21.03931
G1 X137.634 Y97.641 E21.08762
G1 X137.771 Y97.987 E21.10619
G1 X138.188 Y99.242 E21.17217
G1 X138.255 Y99.489 E21.18493
G1 X138.517 Y100.7 E21.24675
G1 X138.566 Y101.004 E21.26211
G1 X138.697 Y102.215 E21.32288
G1 X138.712 Y102.48 E21.33612
G1 X138.718 Y103.699 E21.39694
G1 X138.704 Y103.998 E21.41187
G1 X138.578 Y105.253 E21.4748
G1 X138.534 Y105.537 E21.48914
G1 X138.287 Y106.725 E21.54968
G1 X138.213 Y107.007 E21.56422
G1 X137.844 Y108.166 E21.6249
G1 X137.756 Y108.4 E21.63738
G1 X137.396 Y109.252 E21.68352
G1 X137.329 Y109.395 E21.6914
G1 X137.075 Y109.905 E21.71982
G1 X136.825 Y110.37 E21.74616
G1 X136.394 Y111.132 E21.78984
G1 X135.895 Y111.99 E21.83936
G1 X134.68 Y114.22 E21.96606
G1 X133.578 Y116.391 E22.08752
G1 X132.491 Y118.69 E22.21439
G1 X131.499 Y120.952 E22.33762
G1 X130.563 Y123.261 E22.46192
G1 X129.679 Y125.629 E22.58803
G1 X128.887 Y127.949 E22.71033
G1 X128.141 Y130.36 E22.83624
G1 X127.469 Y132.772 E22.96116
G1 X126.896 Y135.061 E23.07888
G1 X126.719 Y135.778 E23.11573
G1 X126.566 Y136.337 E23.14464
G1 X126.118 Y137.661 E23.21438
G1 X126.01 Y137.927 E23.2287
G1 X125.631 Y138.765 E23.27458
G1 X125.582 Y138.863 E23.28005
G1 X125.106 Y139.724 E23.32913
G1 X124.944 Y139.99 E23.34467
G1 X124.19 Y141.084 E23.41096
G1 X124.069 Y141.24 E23.42081
G1 X123.395 Y142.034 E23.47277
G1 X123.099 Y142.353 E23.49448
G1 X122.409 Y143.037 E23.54295
G1 X121.89 Y143.485 E23.57716
G1 X121.65 Y143.68 E23.59258
G1 X121.068 Y144.124 E23.6291
G1 X121.026 Y144.154 E23.63168
G1 X120.371 Y144.59 E23.67094
G1 X120.138 Y144.734 E23.6846
G1 X119.391 Y145.158 E23.72745
G1 X118.502 Y145.621 E23.77746
G1 X116.199 Y146.865 E23.90805
G1 X114.033 Y148.115 E24.03281
G1 X111.913 Y149.418 E24.15696
G1 X109.831 Y150.782 E24.28114
G1 X107.765 Y152.221 E24.40675
G1 X105.788 Y153.682 E24.52939
G1 X103.818 Y155.225 E24.65424
G1 X101.875 Y156.839 E24.78026
G1 X100.03 Y158.462 E24.90285
G1 X98.18 Y160.182 E25.02887
G1 X96.416 Y161.92 E25.15242
G1 X94.458 Y163.968 E25.29378
G1 X94.107 Y164.346 E25.31951
G1 X93.418 Y165.031 E25.36798
G1 X92.86 Y165.51 E25.40467
G1 X92.612 Y165.71 E25.42057
G1 X92.002 Y166.171 E25.45871
G1 X91.351 Y166.602 E25.49767
G1 X91.117 Y166.746 E25.51137
G1 X90.21 Y167.25 E25.56314
G1 X90.016 Y167.347 E25.57396
G1 X89.257 Y167.694 E25.6156
G1 X89.064 Y167.774 E25.62602
G1 X87.894 Y168.188 E25.68794
G1 X87.6 Y168.275 E25.70324
G1 X86.546 Y168.535 E25.7574
G1 X86.329 Y168.578 E25.76843
G1 X85.066 Y168.758 E25.83208
G1 X84.425 Y168.805 E25.86415
G1 X84.131 Y168.819 E25.87883
G1 X82.838 Y168.809 E25.94334
G1 X82.516 Y168.789 E25.95944
G1 X81.354 Y168.659 E26.01777
G1 X81.188 Y168.632 E26.02616
G1 X80.31 Y168.455 E26.07085
G1 X80.07 Y168.397 E26.08316
G1 X78.936 Y168.062 E26.14216
G1 X78.668 Y167.968 E26.15633
G1 X77.586 Y167.527 E26.21462
G1 X77.333 Y167.409 E26.22855
G1 X76.174 Y166.788 E26.29415
G1 X75.92 Y166.633 E26.30899
G1 X74.88 Y165.919 E26.37193
G1 X74.643 Y165.737 E26.38684
G1 X73.772 Y164.998 E26.44382
G1 X73.588 Y164.826 E26.45639
G1 X72.735 Y163.941 E26.51771
G1 X72.531 Y163.706 E26.53324
G1 X71.953 Y162.985 E26.57934
G1 X71.671 Y162.594 E26.60339
G1 X70.9 Y161.48 E26.67098
G1 X70.183 Y160.461 E26.73315
G1 X68.663 Y158.395 E26.86111
G1 X67.14 Y156.443 E26.98463
G1 X65.544 Y154.515 E27.1095
G1 X63.906 Y152.644 E27.23356
G1 X62.201 Y150.804 E27.35871
G1 X60.464 Y149.033 E27.48247
G1 X58.673 Y147.308 E27.60653
G1 X56.795 Y145.599 E27.73321
G1 X54.906 Y143.976 E27.85746
G1 X54.232 Y143.411 E27.90134
G1 X53.79 Y143.014 E27.93098
G1 X53.595 Y142.832 E27.94429
G1 X52.738 Y141.944 E28.00586
G1 X52.533 Y141.708 E28.02145
G1 X51.721 Y140.66 E28.08759
G1 X51.562 Y140.429 E28.10159
G1 X50.946 Y139.432 E28.16005
G1 X50.805 Y139.176 E28.17464
G1 X50.242 Y138.006 E28.23941
G1 X50.115 Y137.7 E28.25594
G1 X49.907 Y137.16 E28.28481
G1 X49.561 Y136.195 E28.33596
G1 X48.824 Y134.197 E28.4422
G1 X47.885 Y131.85 E28.56832
G1 X46.902 Y129.58 E28.69173
G1 X45.84 Y127.307 E28.8169
G1 X44.722 Y125.08 E28.94122
G1 X43.532 Y122.869 E29.06649
G1 X42.304 Y120.732 E29.18945
G1 X40.994 Y118.597 E29.31442
G1 X39.639 Y116.521 E29.4381
G1 X38.201 Y114.451 E29.56385
G1 X37.58 Y113.607 E29.61613
G1 X37.134 Y112.98 E29.65452
G1 X36.573 Y112.113 E29.70604
G1 X36.394 Y111.808 E29.72368
G1 X35.806 Y110.667 E29.78772
G1 X35.683 Y110.393 E29.8027
G1 X35.261 Y109.316 E29.86041
G1 X35.166 Y109.033 E29.8753
G1 X34.871 Y108.001 E29.92885
G1 X34.811 Y107.748 E29.94183
G1 X34.619 Y106.746 E29.99273
G1 X34.587 Y106.529 E30.00367
G1 X34.483 Y105.532 E30.05368
G1 X34.465 Y105.239 E30.06832
G1 X34.454 Y104 E30.13014
G1 X34.47 Y103.634 E30.14842
G1 X34.586 Y102.42 E30.20926
G1 X34.622 Y102.177 E30.22152
G1 X34.868 Y100.964 E30.28326
G1 X34.954 Y100.63 E30.30047
G1 X35.234 Y99.7 E30.34893
G1 X35.502 Y99.002 E30.38623
G1 X35.72 Y98.483 E30.41431
G1 X36.132 Y97.604 E30.46274
G1 X36.53 Y96.9 E30.50309
G1 X36.695 Y96.63 E30.51888
G1 X37.3 Y95.735 E30.57277
G1 X37.443 Y95.543 E30.58472
G1 X38.142 Y94.691 E30.6397
G1 X38.352 Y94.458 E30.65535
G1 X39.081 Y93.717 E30.70721
G1 X39.593 Y93.255 E30.74161
G1 X40.386 Y92.575 E30.79373
G1 X41.461 Y91.673 E30.86374
G1 X43.333 Y90.01 E30.98867
