;FLAVOR:Marlin
;TIME:983
;Filament used: 0.643204m
;Layer height: 0.15
;MINX:57.083
;MINY:70.157
;MINZ:0.3
;MAXX:137.488
;MAXY:158.798
;MAXZ:11.55
;Generated with Cura_SteamEngine 4.13.0
M140 S90
M105
M190 S90
M104 S235
M105
M109 S235
M82 ;absolute extrusion mode
G21 ;metric values
G90 ;absolute positioning
M82 ;set extruder to absolute mode
M107 ;start with the fan off
G28 X0 Y0 ;move X/Y to min endstops
G28 Z0 ;move Z to min endstops
G1 Z15.0 F9000 ;move the platform down 15mm
G92 E0 ;zero the extruded length
G1 F200 E6 ;extrude 6 mm of feed stock
G92 E0 ;zero the extruded length again
G1 F9000
;Put printing message on LCD screen
M117 Printing...
G92 E0
G92 E0
G1 F3000 E-5
;LAYER_COUNT:76
;LAYER:0
M107
G0 F3600 X62.838 Y73.447 Z0.3
;TYPE:SKIRT
G1 F3000 E0
G1 F1800 X63.169 Y73.194 E0.02079
G1 X63.842 Y72.715 E0.062
G1 X64.064 Y72.568 E0.07528
G1 X65.129 Y71.938 E0.13701
G1 X65.329 Y71.833 E0.14828
G1 X66.499 Y71.296 E0.21251
G1 X66.829 Y71.165 E0.23022
G1 X68.097 Y70.74 E0.29694
G1 X68.359 Y70.668 E0.3105
G1 X69.108 Y70.487 E0.34894
G1 X69.31 Y70.445 E0.35924
G1 X70.369 Y70.274 E0.41275
G1 X70.573 Y70.25 E0.423
G1 X71.324 Y70.185 E0.46061
G1 X71.559 Y70.172 E0.47235
G1 X72.81 Y70.167 E0.53476
G1 X73.565 Y70.208 E0.57249
G1 X74.59 Y70.289 E0.62378
G1 X75.713 Y70.389 E0.68003
G1 X78.194 Y70.539 E0.80404
G1 X80.695 Y70.621 E0.92888
G1 X83.186 Y70.631 E1.05316
G1 X85.64 Y70.572 E1.17562
G1 X88.11 Y70.443 E1.29902
G1 X90.611 Y70.242 E1.4242
G1 X90.86 Y70.218 E1.43668
G1 X91.411 Y70.178 E1.46424
G1 X91.632 Y70.167 E1.47528
G1 X92.577 Y70.157 E1.52243
G1 X92.793 Y70.163 E1.53321
G1 X93.747 Y70.227 E1.58091
G1 X94.019 Y70.256 E1.59456
G1 X95.11 Y70.422 E1.64961
G1 X95.391 Y70.478 E1.66391
G1 X96.391 Y70.722 E1.71526
G1 X96.533 Y70.763 E1.72264
G1 X97.421 Y71.056 E1.76929
G1 X97.742 Y71.176 E1.78638
G1 X98.942 Y71.7 E1.85171
G1 X99.219 Y71.839 E1.86717
G1 X100.235 Y72.411 E1.92534
G1 X100.45 Y72.546 E1.93801
G1 X101.193 Y73.052 E1.98286
G1 X101.371 Y73.183 E1.99388
G1 X102.238 Y73.884 E2.04951
G1 X102.469 Y74.089 E2.06492
G1 X103.313 Y74.915 E2.12383
G1 X103.455 Y75.068 E2.13425
G1 X103.958 Y75.645 E2.17244
G1 X104.288 Y76.054 E2.19866
G1 X104.664 Y76.54 E2.22931
G1 X105.958 Y78.248 E2.33622
G1 X107.536 Y80.215 E2.46203
G1 X109.108 Y82.063 E2.58307
G1 X111.55 Y84.752 E2.76429
G1 X111.761 Y84.987 E2.78005
G1 X112.285 Y85.612 E2.82074
G1 X112.314 Y85.649 E2.82308
G1 X112.803 Y86.319 E2.86446
G1 X112.945 Y86.528 E2.87707
G1 X113.429 Y87.3 E2.92253
G1 X113.67 Y87.733 E2.94725
G1 X114.562 Y89.412 E3.0421
G1 X115.761 Y91.594 E3.16632
G1 X117.027 Y93.751 E3.2911
G1 X118.365 Y95.888 E3.41689
G1 X119.706 Y97.903 E3.53764
G1 X121.171 Y99.975 E3.66424
G1 X122.647 Y101.94 E3.78685
G1 X124.19 Y103.879 E3.91048
G1 X125.808 Y105.798 E4.03571
G1 X127.455 Y107.642 E4.15906
G1 X129.141 Y109.427 E4.28156
G1 X130.908 Y111.194 E4.40623
G1 X132.281 Y112.484 E4.50022
G1 X132.686 Y112.872 E4.5282
G1 X133.082 Y113.263 E4.55597
G1 X133.488 Y113.682 E4.58507
G1 X134.354 Y114.7 E4.65175
G1 X134.516 Y114.913 E4.6651
G1 X135.081 Y115.722 E4.71433
G1 X135.443 Y116.325 E4.74942
G1 X135.653 Y116.699 E4.77082
G1 X136.143 Y117.671 E4.82513
G1 X136.254 Y117.918 E4.83864
G1 X136.622 Y118.835 E4.88793
G1 X136.814 Y119.42 E4.91865
G1 X136.908 Y119.734 E4.935
G1 X137.208 Y120.966 E4.99827
G1 X137.26 Y121.241 E5.01223
G1 X137.439 Y122.618 E5.0815
G1 X137.46 Y122.905 E5.09586
G1 X137.488 Y124.137 E5.15734
G1 X137.48 Y124.422 E5.17157
G1 X137.394 Y125.567 E5.22885
G1 X137.366 Y125.795 E5.24031
G1 X137.135 Y127.091 E5.30599
G1 X137.053 Y127.441 E5.32392
G1 X136.664 Y128.761 E5.39258
G1 X136.574 Y129.013 E5.40593
G1 X136.105 Y130.144 E5.46701
G1 X135.982 Y130.403 E5.48132
G1 X135.31 Y131.631 E5.55116
G1 X135.147 Y131.892 E5.56651
G1 X134.446 Y132.899 E5.62772
G1 X134.278 Y133.116 E5.64141
G1 X133.507 Y134.017 E5.70058
G1 X133.358 Y134.175 E5.71141
G1 X132.802 Y134.728 E5.75053
G1 X132.639 Y134.88 E5.76165
G1 X131.72 Y135.655 E5.82163
G1 X131.53 Y135.8 E5.83355
G1 X131.105 Y136.11 E5.8598
G1 X128.793 Y137.722 E6.00041
G1 X126.761 Y139.223 E6.12645
G1 X124.81 Y140.752 E6.25012
G1 X122.895 Y142.342 E6.37429
G1 X121.034 Y143.979 E6.49795
G1 X119.218 Y145.669 E6.62171
G1 X117.457 Y147.404 E6.74505
G1 X115.73 Y149.205 E6.86953
G1 X114.043 Y151.066 E6.99485
G1 X112.448 Y152.929 E7.1172
G1 X111.874 Y153.611 E7.16168
G1 X111.691 Y153.817 E7.17542
G1 X110.939 Y154.592 E7.2293
G1 X110.322 Y155.152 E7.27087
G1 X109.22 Y156.025 E7.34101
G1 X109.015 Y156.169 E7.35351
G1 X107.973 Y156.825 E7.41494
G1 X107.736 Y156.958 E7.4285
G1 X106.455 Y157.582 E7.49959
G1 X106.162 Y157.704 E7.51542
G1 X105.066 Y158.1 E7.57356
G1 X104.933 Y158.141 E7.5805
G1 X103.8 Y158.431 E7.63885
G1 X103.363 Y158.521 E7.66111
G1 X102.162 Y158.707 E7.72174
G1 X101.902 Y158.734 E7.73478
G1 X100.493 Y158.798 E7.80515
G1 X100.247 Y158.795 E7.81743
G1 X99.234 Y158.741 E7.86804
G1 X99.025 Y158.721 E7.87851
G1 X97.978 Y158.574 E7.93126
G1 X97.701 Y158.523 E7.94531
G1 X96.512 Y158.242 E8.00626
G1 X96.312 Y158.184 E8.01665
G1 X95.516 Y157.923 E8.05845
G1 X95.292 Y157.841 E8.07035
G1 X94.163 Y157.363 E8.13151
G1 X93.636 Y157.093 E8.16105
G1 X93.282 Y156.901 E8.18115
G1 X92.464 Y156.415 E8.22862
G1 X92.285 Y156.299 E8.23926
G1 X91.479 Y155.729 E8.28851
G1 X91.058 Y155.39 E8.31547
G1 X90.81 Y155.181 E8.33166
G1 X89.922 Y154.354 E8.39219
G1 X89.751 Y154.178 E8.40444
G1 X89.395 Y153.795 E8.43053
G1 X88.998 Y153.34 E8.46065
G1 X87.724 Y151.818 E8.55967
G1 X86.04 Y149.919 E8.6863
G1 X84.356 Y148.124 E8.8091
G1 X82.614 Y146.368 E8.9325
G1 X80.827 Y144.666 E9.05562
G1 X78.939 Y142.968 E9.1823
G1 X77.09 Y141.398 E9.30332
G1 X75.116 Y139.813 E9.42962
G1 X73.166 Y138.339 E9.55157
G1 X71.087 Y136.857 E9.67895
G1 X70.513 Y136.467 E9.71357
G1 X69.849 Y136 E9.75407
G1 X68.814 Y135.185 E9.81979
G1 X68.583 Y134.982 E9.83514
G1 X67.534 Y133.941 E9.90887
G1 X67.285 Y133.662 E9.92752
G1 X66.658 Y132.9 E9.97675
G1 X66.297 Y132.397 E10.00764
G1 X66.106 Y132.116 E10.02459
G1 X65.398 Y130.937 E10.09321
G1 X65.266 Y130.686 E10.10735
G1 X64.733 Y129.53 E10.17086
G1 X64.632 Y129.277 E10.18445
G1 X64.389 Y128.612 E10.21978
G1 X64.208 Y128.031 E10.25014
G1 X64.075 Y127.553 E10.27489
G1 X63.443 Y125.158 E10.39847
G1 X62.743 Y122.783 E10.522
G1 X61.97 Y120.408 E10.6466
G1 X61.152 Y118.119 E10.76787
G1 X60.244 Y115.787 E10.89273
G1 X58.807 Y112.441 E11.0744
G1 X58.436 Y111.621 E11.11931
G1 X58.22 Y111.114 E11.1468
G1 X58.123 Y110.871 E11.15985
G1 X57.88 Y110.206 E11.19518
G1 X57.849 Y110.113 E11.20007
G1 X57.553 Y109.072 E11.25406
G1 X57.464 Y108.697 E11.27329
G1 X57.293 Y107.845 E11.31664
G1 X57.254 Y107.606 E11.32872
G1 X57.116 Y106.363 E11.39112
G1 X57.102 Y106.127 E11.40291
G1 X57.083 Y105.17 E11.45067
G1 X57.088 Y104.911 E11.46359
G1 X57.123 Y104.19 E11.49961
G1 X57.225 Y102.905 E11.56392
G1 X57.322 Y101.811 E11.61871
G1 X57.47 Y99.349 E11.74176
G1 X57.549 Y96.869 E11.86555
G1 X57.557 Y94.37 E11.99023
G1 X57.497 Y91.915 E12.11275
G1 X57.363 Y89.397 E12.23855
G1 X57.167 Y86.97 E12.36002
G1 X57.11 Y86.269 E12.39511
G1 X57.098 Y86.048 E12.40615
G1 X57.089 Y84.916 E12.46263
G1 X57.098 Y84.683 E12.47427
G1 X57.19 Y83.584 E12.52929
G1 X57.234 Y83.245 E12.54634
G1 X57.364 Y82.45 E12.58653
G1 X57.414 Y82.197 E12.5994
G1 X57.668 Y81.158 E12.65276
G1 X57.702 Y81.041 E12.65884
G1 X57.974 Y80.215 E12.70222
G1 X58.069 Y79.958 E12.71589
G1 X58.489 Y78.96 E12.76991
G1 X58.618 Y78.688 E12.78493
G1 X59.131 Y77.721 E12.83954
G1 X59.243 Y77.531 E12.85055
G1 X59.868 Y76.576 E12.90749
G1 X60.051 Y76.323 E12.92307
G1 X60.833 Y75.351 E12.98531
G1 X61.04 Y75.119 E13.00082
G1 X61.643 Y74.489 E13.04433
G1 X61.747 Y74.388 E13.05156
G1 X62.838 Y73.447 E13.12344
G0 F3600 X63.081 Y73.765
G1 F1800 X63.412 Y73.512 E13.14422
G1 X64.063 Y73.048 E13.18411
G1 X64.285 Y72.901 E13.19739
G1 X65.315 Y72.292 E13.25709
G1 X65.515 Y72.187 E13.26836
G1 X66.646 Y71.668 E13.33044
G1 X66.976 Y71.537 E13.34815
G1 X68.203 Y71.126 E13.41271
G1 X68.465 Y71.054 E13.42627
G1 X69.19 Y70.879 E13.46348
G1 X69.392 Y70.837 E13.47377
G1 X70.415 Y70.671 E13.52548
G1 X70.619 Y70.647 E13.53572
G1 X71.346 Y70.584 E13.57213
G1 X71.581 Y70.571 E13.58387
G1 X72.791 Y70.566 E13.64424
G1 X73.534 Y70.607 E13.68137
G1 X74.555 Y70.688 E13.73246
G1 X75.691 Y70.789 E13.78936
G1 X78.155 Y70.939 E13.91252
G1 X80.68 Y71.021 E14.03856
G1 X83.158 Y71.031 E14.16219
G1 X85.671 Y70.971 E14.2876
G1 X88.163 Y70.84 E14.4121
G1 X90.614 Y70.643 E14.53477
G1 X90.898 Y70.616 E14.549
G1 X91.43 Y70.578 E14.57561
G1 X91.651 Y70.567 E14.58665
G1 X92.566 Y70.557 E14.6323
G1 X92.782 Y70.563 E14.64308
G1 X93.705 Y70.625 E14.68924
G1 X93.977 Y70.654 E14.70288
G1 X95.032 Y70.815 E14.75613
G1 X95.313 Y70.871 E14.77042
G1 X96.28 Y71.106 E14.82007
G1 X96.422 Y71.147 E14.82744
G1 X97.281 Y71.431 E14.87258
G1 X97.602 Y71.551 E14.88968
G1 X98.762 Y72.057 E14.95282
G1 X99.039 Y72.196 E14.96828
G1 X100.022 Y72.75 E15.02457
G1 X100.237 Y72.885 E15.03724
G1 X100.956 Y73.374 E15.08062
G1 X101.134 Y73.505 E15.09165
G1 X101.972 Y74.183 E15.14542
G1 X102.203 Y74.388 E15.16083
G1 X103.02 Y75.187 E15.21785
G1 X103.162 Y75.34 E15.22826
G1 X103.648 Y75.898 E15.26518
G1 X103.972 Y76.3 E15.29094
G1 X104.345 Y76.781 E15.3213
G1 X105.656 Y78.512 E15.42964
G1 X107.223 Y80.465 E15.55456
G1 X108.804 Y82.324 E15.67631
G1 X111.252 Y85.02 E15.85799
G1 X111.463 Y85.255 E15.87374
G1 X111.97 Y85.859 E15.91309
G1 X111.999 Y85.896 E15.91543
G1 X112.472 Y86.544 E15.95546
G1 X112.614 Y86.753 E15.96806
G1 X113.082 Y87.499 E16.012
G1 X113.317 Y87.921 E16.0361
G1 X114.183 Y89.551 E16.12818
G1 X115.424 Y91.809 E16.25673
G1 X116.696 Y93.976 E16.38209
G1 X118.015 Y96.083 E16.50611
G1 X119.39 Y98.149 E16.62992
G1 X120.841 Y100.2 E16.75526
G1 X122.33 Y102.184 E16.87902
G1 X123.887 Y104.141 E17.00379
G1 X125.503 Y106.057 E17.12884
G1 X127.15 Y107.901 E17.25219
G1 X128.867 Y109.719 E17.37694
G1 X130.618 Y111.47 E17.50049
G1 X132.004 Y112.773 E17.59539
G1 X132.556 Y113.304 E17.63361
G1 X133.046 Y113.798 E17.66832
G1 X133.198 Y113.958 E17.67933
G1 X134.035 Y114.942 E17.74378
G1 X134.197 Y115.155 E17.75713
G1 X134.753 Y115.951 E17.80557
G1 X135.094 Y116.521 E17.83871
G1 X135.304 Y116.895 E17.86011
G1 X135.778 Y117.835 E17.91263
G1 X135.889 Y118.082 E17.92614
G1 X136.25 Y118.984 E17.97461
G1 X136.43 Y119.535 E18.00353
G1 X136.524 Y119.849 E18.01988
G1 X136.815 Y121.041 E18.0811
G1 X136.867 Y121.316 E18.09506
G1 X137.041 Y122.647 E18.16203
G1 X137.062 Y122.934 E18.17639
G1 X137.088 Y124.126 E18.23587
G1 X137.08 Y124.411 E18.2501
G1 X136.997 Y125.518 E18.30548
G1 X136.969 Y125.746 E18.31694
G1 X136.746 Y127 E18.38048
G1 X136.664 Y127.35 E18.39842
G1 X136.288 Y128.627 E18.46483
G1 X136.198 Y128.879 E18.47818
G1 X135.744 Y129.972 E18.53723
G1 X135.621 Y130.231 E18.55153
G1 X134.971 Y131.42 E18.61914
G1 X134.808 Y131.681 E18.63449
G1 X134.13 Y132.654 E18.69366
G1 X133.962 Y132.871 E18.70735
G1 X133.216 Y133.743 E18.7646
G1 X133.067 Y133.901 E18.77543
G1 X132.53 Y134.435 E18.81322
G1 X132.367 Y134.587 E18.82434
G1 X131.478 Y135.337 E18.88236
G1 X131.288 Y135.482 E18.89429
G1 X130.877 Y135.782 E18.91967
G1 X128.532 Y137.417 E19.0623
G1 X126.522 Y138.902 E19.18698
G1 X124.571 Y140.431 E19.31064
G1 X122.624 Y142.048 E19.43691
G1 X120.779 Y143.671 E19.5595
G1 X118.93 Y145.39 E19.68546
G1 X117.17 Y147.125 E19.80876
G1 X115.445 Y148.923 E19.93307
G1 X113.76 Y150.783 E20.05828
G1 X112.094 Y152.728 E20.18604
G1 X111.575 Y153.346 E20.22631
G1 X111.392 Y153.552 E20.24005
G1 X110.665 Y154.301 E20.29213
G1 X110.056 Y154.853 E20.33314
G1 X108.99 Y155.698 E20.401
G1 X108.785 Y155.842 E20.4135
G1 X107.777 Y156.476 E20.47291
G1 X107.54 Y156.609 E20.48647
G1 X106.301 Y157.212 E20.55521
G1 X106.008 Y157.334 E20.57105
G1 X104.948 Y157.717 E20.62728
G1 X104.815 Y157.758 E20.63422
G1 X103.719 Y158.039 E20.69067
G1 X103.282 Y158.129 E20.71293
G1 X102.121 Y158.309 E20.77154
G1 X101.861 Y158.336 E20.78459
G1 X100.498 Y158.398 E20.85266
G1 X100.252 Y158.395 E20.86493
G1 X99.272 Y158.342 E20.91389
G1 X99.063 Y158.322 E20.92437
G1 X98.05 Y158.181 E20.97539
G1 X97.773 Y158.13 E20.98945
G1 X96.623 Y157.858 E21.0484
G1 X96.423 Y157.8 E21.05879
G1 X95.654 Y157.548 E21.09917
G1 X95.43 Y157.466 E21.11107
G1 X94.338 Y157.003 E21.17024
G1 X93.827 Y156.742 E21.19887
G1 X93.473 Y156.55 E21.21896
G1 X92.682 Y156.079 E21.26489
G1 X92.503 Y155.963 E21.27553
G1 X91.71 Y155.402 E21.32399
G1 X91.316 Y155.084 E21.34925
G1 X91.068 Y154.875 E21.36543
G1 X90.209 Y154.075 E21.424
G1 X90.038 Y153.899 E21.43624
G1 X89.693 Y153.529 E21.46148
G1 X89.304 Y153.084 E21.49097
G1 X87.999 Y151.524 E21.59244
G1 X86.364 Y149.681 E21.71535
G1 X84.614 Y147.815 E21.84298
G1 X82.909 Y146.097 E21.96374
G1 X81.069 Y144.344 E22.09053
G1 X79.22 Y142.682 E22.21456
G1 X77.337 Y141.083 E22.33781
G1 X75.379 Y139.511 E22.46308
G1 X73.376 Y137.997 E22.58834
G1 X71.349 Y136.552 E22.71254
G1 X70.927 Y136.267 E22.73794
G1 X70.743 Y136.14 E22.7491
G1 X70.079 Y135.673 E22.7896
G1 X69.078 Y134.885 E22.85315
G1 X68.847 Y134.682 E22.8685
G1 X67.832 Y133.675 E22.93983
G1 X67.583 Y133.396 E22.95849
G1 X66.967 Y132.645 E23.00694
G1 X66.628 Y132.172 E23.03598
G1 X66.437 Y131.891 E23.05293
G1 X65.752 Y130.75 E23.11932
G1 X65.62 Y130.499 E23.13347
G1 X65.105 Y129.382 E23.19484
G1 X65.004 Y129.129 E23.20843
G1 X64.769 Y128.485 E23.24263
G1 X64.593 Y127.921 E23.27211
G1 X64.462 Y127.451 E23.29645
G1 X63.837 Y125.081 E23.41873
G1 X63.119 Y122.647 E23.54534
G1 X62.355 Y120.298 E23.66857
G1 X61.51 Y117.933 E23.79387
G1 X60.615 Y115.637 E23.91681
G1 X59.172 Y112.276 E24.09929
G1 X58.801 Y111.456 E24.14419
G1 X58.592 Y110.966 E24.17077
G1 X58.495 Y110.723 E24.18383
G1 X58.26 Y110.079 E24.21803
G1 X58.229 Y109.986 E24.22292
G1 X57.942 Y108.98 E24.27511
G1 X57.853 Y108.605 E24.29434
G1 X57.688 Y107.78 E24.33631
G1 X57.649 Y107.541 E24.34839
G1 X57.516 Y106.34 E24.40868
G1 X57.502 Y106.104 E24.42047
G1 X57.483 Y105.177 E24.46673
G1 X57.488 Y104.918 E24.47966
G1 X57.522 Y104.222 E24.51442
G1 X57.624 Y102.941 E24.57853
G1 X57.719 Y101.879 E24.63173
G1 X57.871 Y99.351 E24.75808
G1 X57.949 Y96.883 E24.88127
G1 X57.957 Y94.361 E25.00709
G1 X57.896 Y91.884 E25.13071
G1 X57.765 Y89.416 E25.25401
G1 X57.561 Y86.898 E25.38004
G1 X57.509 Y86.248 E25.41258
G1 X57.497 Y86.027 E25.42362
G1 X57.489 Y84.932 E25.47825
G1 X57.498 Y84.699 E25.48988
G1 X57.587 Y83.635 E25.54315
G1 X57.631 Y83.296 E25.56021
G1 X57.757 Y82.527 E25.59908
G1 X57.807 Y82.274 E25.61195
G1 X58.052 Y81.269 E25.66356
G1 X58.086 Y81.152 E25.66964
G1 X58.349 Y80.354 E25.71155
G1 X58.444 Y80.097 E25.72522
G1 X58.85 Y79.132 E25.77746
G1 X58.979 Y78.86 E25.79248
G1 X59.476 Y77.924 E25.84535
G1 X59.588 Y77.734 E25.85635
G1 X60.192 Y76.81 E25.91142
G1 X60.375 Y76.557 E25.927
G1 X61.131 Y75.617 E25.98718
G1 X61.338 Y75.385 E26.0027
G1 X61.922 Y74.776 E26.04479
G1 X62.026 Y74.675 E26.05202
G1 X63.081 Y73.765 E26.12153
G0 F3600 X63.324 Y74.083
G1 F1800 X63.655 Y73.83 E26.14232
G1 X64.284 Y73.382 E26.18085
G1 X64.506 Y73.235 E26.19413
G1 X65.501 Y72.646 E26.25182
G1 X65.701 Y72.541 E26.26309
G1 X66.794 Y72.039 E26.32309
G1 X67.124 Y71.908 E26.34081
G1 X68.309 Y71.512 E26.40314
G1 X68.571 Y71.44 E26.41669
G1 X69.271 Y71.271 E26.45262
G1 X69.473 Y71.229 E26.46291
G1 X70.462 Y71.068 E26.51291
G1 X70.666 Y71.044 E26.52315
G1 X71.368 Y70.983 E26.55831
G1 X71.603 Y70.97 E26.57005
G1 X72.772 Y70.966 E26.62837
G1 X73.503 Y71.006 E26.6649
G1 X74.519 Y71.086 E26.71574
G1 X75.665 Y71.188 E26.77314
G1 X78.154 Y71.339 E26.89755
G1 X80.665 Y71.421 E27.02289
G1 X83.166 Y71.431 E27.14766
G1 X85.701 Y71.37 E27.27417
G1 X88.179 Y71.24 E27.39797
G1 X90.617 Y71.044 E27.52
G1 X90.936 Y71.014 E27.53598
G1 X91.45 Y70.977 E27.56169
G1 X91.671 Y70.966 E27.57273
G1 X92.555 Y70.956 E27.61684
G1 X92.771 Y70.962 E27.62762
G1 X93.663 Y71.022 E27.67222
G1 X93.935 Y71.051 E27.68587
G1 X94.954 Y71.207 E27.7373
G1 X95.235 Y71.263 E27.75159
G1 X96.169 Y71.49 E27.79954
G1 X96.311 Y71.531 E27.80692
G1 X97.141 Y71.806 E27.85054
G1 X97.462 Y71.926 E27.86764
G1 X98.583 Y72.415 E27.92865
G1 X98.86 Y72.554 E27.94412
G1 X99.809 Y73.088 E27.99844
