;FLAVOR:Marlin
;TIME:2072
;Filament used: 2.3861m
;Layer height: 0.15
;MINX:67.382
;MINY:56.402
;MINZ:0.3
;MAXX:132.617
;MAXY:143.49
;MAXZ:9.15
;Generated with Cura_SteamEngine 4.13.0
M140 S90
M105
M190 S90
M104 S235
M105
M109 S235
M82 ;absolute extrusion mode
G21 ;metric values
G90 ;absolute positioning
M82 ;set extruder to absolute mode
M107 ;start with the fan off
G28 X0 Y0 ;move X/Y to min endstops
G28 Z0 ;move Z to min endstops
G1 Z15.0 F9000 ;move the platform down 15mm
G92 E0 ;zero the extruded length
G1 F200 E6 ;extrude 6 mm of feed stock
G92 E0 ;zero the extruded length again
G1 F9000
;Put printing message on LCD screen
M117 Printing...
G92 E0
G92 E0
G1 F3000 E-5
;LAYER_COUNT:60
;LAYER:0
M107
G0 F3600 X69.965 Y60.597 Z0.3
;TYPE:SKIRT
G1 F3000 E0
G1 F1800 X70.6 Y59.883 E0.0429
G1 X71.292 Y59.225 E0.08578
G1 X72.037 Y58.628 E0.12865
G1 X72.829 Y58.095 E0.17151
G1 X73.663 Y57.63 E0.21439
G1 X74.533 Y57.237 E0.25725
G1 X75.433 Y56.917 E0.30014
G1 X76.356 Y56.674 E0.343
G1 X77.296 Y56.51 E0.38584
G1 X78.472 Y56.416 E0.43881
G1 X79.112 Y56.402 E0.46756
G1 X80.028 Y56.402 E0.50869
G1 X81.033 Y56.415 E0.55382
G1 X83.628 Y56.415 E0.67033
G1 X84.469 Y56.403 E0.7081
G1 X115.162 Y56.404 E2.08625
G1 X115.993 Y56.416 E2.12357
G1 X118.619 Y56.416 E2.24148
G1 X119.471 Y56.403 E2.27974
G1 X120.673 Y56.404 E2.33371
G1 X121.371 Y56.414 E2.36506
G1 X122.325 Y56.468 E2.40796
G1 X123.27 Y56.601 E2.45081
G1 X124.201 Y56.813 E2.49368
G1 X125.111 Y57.102 E2.53655
G1 X125.994 Y57.466 E2.57944
G1 X126.843 Y57.903 E2.62231
G1 X127.652 Y58.409 E2.66516
G1 X128.416 Y58.981 E2.70801
G1 X129.13 Y59.615 E2.75089
G1 X129.788 Y60.307 E2.79376
G1 X130.386 Y61.051 E2.83662
G1 X130.92 Y61.843 E2.87951
G1 X131.385 Y62.677 E2.92239
G1 X131.78 Y63.546 E2.96525
G1 X132.099 Y64.446 E3.00812
G1 X132.343 Y65.369 E3.05099
G1 X132.508 Y66.31 E3.09389
G1 X132.603 Y67.493 E3.14718
G1 X132.617 Y68.133 E3.17592
G1 X132.617 Y101.87 E4.69075
G1 X132.591 Y103.434 E4.76098
G1 X132.557 Y104.14 E4.79272
G1 X132.529 Y104.491 E4.80853
G1 X132.453 Y105.176 E4.83948
G1 X132.375 Y105.729 E4.86455
G1 X132.257 Y106.416 E4.89585
G1 X132.115 Y107.081 E4.92639
G1 X131.918 Y107.879 E4.96329
G1 X131.762 Y108.423 E4.9887
G1 X131.468 Y109.305 E5.03045
G1 X131.252 Y109.881 E5.05807
G1 X131.094 Y110.27 E5.07692
G1 X130.826 Y110.879 E5.1068
G1 X130.465 Y111.622 E5.14389
G1 X130.014 Y112.492 E5.18789
G1 X127.271 Y117.587 E5.44771
G1 X121.463 Y128.341 E5.9965
G1 X118.627 Y133.575 E6.26379
G1 X118.193 Y134.333 E6.30301
G1 X117.866 Y134.852 E6.33056
G1 X117.468 Y135.451 E6.36285
G1 X116.951 Y136.168 E6.40254
G1 X116.477 Y136.762 E6.43666
G1 X116.079 Y137.226 E6.46411
G1 X115.645 Y137.707 E6.4932
G1 X115.131 Y138.244 E6.52658
G1 X114.748 Y138.619 E6.55064
G1 X114.492 Y138.859 E6.5664
G1 X114.055 Y139.255 E6.59288
G1 X113.392 Y139.817 E6.6319
G1 X112.809 Y140.267 E6.66497
G1 X112.213 Y140.702 E6.6981
G1 X111.565 Y141.148 E6.73343
G1 X110.841 Y141.598 E6.7717
G1 X110.147 Y141.994 E6.80758
G1 X109.298 Y142.433 E6.85049
G1 X108.416 Y142.798 E6.89335
G1 X107.507 Y143.088 E6.9362
G1 X106.576 Y143.302 E6.97909
G1 X105.631 Y143.436 E7.02195
G1 X104.223 Y143.49 E7.08521
G1 X103.473 Y143.472 E7.1189
G1 X102.262 Y143.425 E7.17332
G1 X99.764 Y143.397 E7.28549
G1 X97.28 Y143.44 E7.39704
G1 X96.863 Y143.457 E7.41578
G1 X95.856 Y143.486 E7.46101
G1 X94.901 Y143.474 E7.50389
G1 X93.951 Y143.381 E7.54675
G1 X93.012 Y143.21 E7.58961
G1 X92.09 Y142.96 E7.6325
G1 X91.193 Y142.635 E7.67534
G1 X90.489 Y142.317 E7.71003
G1 X90.144 Y142.147 E7.7273
G1 X89.527 Y141.819 E7.75867
G1 X89.289 Y141.683 E7.77098
G1 X88.643 Y141.285 E7.80505
G1 X88.04 Y140.885 E7.83754
G1 X87.381 Y140.421 E7.87373
G1 X86.932 Y140.081 E7.89902
G1 X86.667 Y139.87 E7.91423
G1 X86.18 Y139.46 E7.94281
G1 X85.616 Y138.957 E7.97675
G1 X84.976 Y138.349 E8.01638
G1 X84.479 Y137.839 E8.04836
G1 X84.195 Y137.535 E8.06704
G1 X83.72 Y136.994 E8.09936
G1 X83.382 Y136.583 E8.12326
G1 X82.961 Y136.038 E8.15418
G1 X82.593 Y135.531 E8.18231
G1 X82.143 Y134.863 E8.21847
G1 X81.877 Y134.436 E8.24106
G1 X81.568 Y133.909 E8.26849
G1 X80.772 Y132.464 E8.34257
G1 X78.461 Y128.199 E8.56038
G1 X74.078 Y120.085 E8.97446
G1 X70.006 Y112.527 E9.35994
G1 X69.51 Y111.568 E9.40842
G1 X69.248 Y111.033 E9.43517
G1 X68.902 Y110.259 E9.47324
G1 X68.662 Y109.659 E9.50225
G1 X68.51 Y109.245 E9.52206
G1 X68.295 Y108.598 E9.55267
G1 X68.142 Y108.089 E9.57654
G1 X68 Y107.576 E9.60044
G1 X67.844 Y106.919 E9.63076
G1 X67.723 Y106.314 E9.65846
G1 X67.641 Y105.839 E9.6801
G1 X67.539 Y105.108 E9.71324
G1 X67.476 Y104.517 E9.73993
G1 X67.423 Y103.814 E9.77159
G1 X67.398 Y103.145 E9.80165
G1 X67.382 Y101.987 E9.85365
G1 X67.383 Y68.306 E11.36596
G1 X67.393 Y67.64 E11.39587
G1 X67.448 Y66.687 E11.43873
G1 X67.581 Y65.741 E11.48163
G1 X67.794 Y64.81 E11.52451
G1 X68.084 Y63.901 E11.56735
G1 X68.448 Y63.018 E11.61024
G1 X68.886 Y62.17 E11.65309
G1 X69.393 Y61.36 E11.696
G1 X69.965 Y60.597 E11.73882
G0 F3600 X70.36 Y60.747
G1 F1800 X70.992 Y60.055 E11.7809
G1 X71.681 Y59.418 E11.82303
G1 X72.422 Y58.843 E11.86514
G1 X73.209 Y58.333 E11.90725
G1 X74.037 Y57.892 E11.94937
G1 X74.899 Y57.523 E11.99148
G1 X75.789 Y57.229 E12.03356
G1 X76.702 Y57.011 E12.07571
G1 X77.629 Y56.873 E12.11779
G1 X78.483 Y56.815 E12.15623
G1 X79.112 Y56.802 E12.18447
G1 X80.028 Y56.802 E12.2256
G1 X81.028 Y56.815 E12.27051
G1 X83.636 Y56.815 E12.38761
G1 X84.472 Y56.803 E12.42515
G1 X115.156 Y56.804 E13.8029
G1 X115.987 Y56.816 E13.84022
G1 X118.628 Y56.816 E13.9588
G1 X119.475 Y56.803 E13.99684
G1 X120.668 Y56.804 E14.0504
G1 X121.366 Y56.814 E14.08175
G1 X122.302 Y56.868 E14.12385
G1 X123.23 Y57 E14.16593
G1 X124.144 Y57.212 E14.20806
G1 X125.036 Y57.501 E14.25016
G1 X125.901 Y57.864 E14.29228
G1 X126.731 Y58.3 E14.33438
G1 X127.522 Y58.805 E14.37652
G1 X128.266 Y59.376 E14.41863
G1 X128.959 Y60.008 E14.46074
G1 X129.596 Y60.696 E14.50284
G1 X130.171 Y61.437 E14.54496
G1 X130.682 Y62.223 E14.58705
G1 X131.124 Y63.051 E14.6292
G1 X131.493 Y63.913 E14.6713
G1 X131.788 Y64.803 E14.7134
G1 X132.006 Y65.715 E14.7555
G1 X132.146 Y66.643 E14.79764
G1 X132.204 Y67.504 E14.83639
G1 X132.217 Y68.133 E14.86464
G1 X132.217 Y101.87 E16.37947
G1 X132.191 Y103.427 E16.44939
G1 X132.158 Y104.108 E16.48
G1 X132.13 Y104.459 E16.49581
G1 X132.057 Y105.12 E16.52567
G1 X131.979 Y105.673 E16.55075
G1 X131.865 Y106.336 E16.58096
G1 X131.726 Y106.988 E16.61089
G1 X131.532 Y107.773 E16.6472
G1 X131.379 Y108.308 E16.67218
G1 X131.09 Y109.175 E16.71322
G1 X130.881 Y109.73 E16.73985
G1 X130.723 Y110.119 E16.7587
G1 X130.464 Y110.707 E16.78755
G1 X130.11 Y111.438 E16.82402
G1 X129.659 Y112.308 E16.86802
G1 X126.919 Y117.397 E17.12754
G1 X121.112 Y128.15 E17.67627
G1 X118.276 Y133.384 E17.94356
G1 X117.852 Y134.124 E17.98185
G1 X117.533 Y134.631 E18.00875
G1 X117.135 Y135.23 E18.04104
G1 X116.636 Y135.921 E18.07931
G1 X116.171 Y136.505 E18.11283
G1 X115.782 Y136.958 E18.13964
G1 X115.348 Y137.439 E18.16873
G1 X114.846 Y137.964 E18.20135
G1 X114.471 Y138.331 E18.22491
G1 X114.223 Y138.562 E18.24013
G1 X113.786 Y138.958 E18.26661
G1 X113.144 Y139.503 E18.30442
G1 X112.573 Y139.944 E18.33681
G1 X111.977 Y140.379 E18.36994
G1 X111.342 Y140.817 E18.40458
G1 X110.643 Y141.251 E18.44152
G1 X109.949 Y141.647 E18.4774
G1 X109.115 Y142.077 E18.51953
G1 X108.248 Y142.434 E18.56163
G1 X107.353 Y142.716 E18.60377
G1 X106.438 Y142.92 E18.64586
G1 X105.509 Y143.046 E18.68796
G1 X104.233 Y143.09 E18.74528
G1 X103.483 Y143.072 E18.77897
G1 X102.283 Y143.025 E18.83289
G1 X99.763 Y142.997 E18.94605
G1 X97.255 Y143.04 E19.05868
G1 X96.852 Y143.057 E19.07679
G1 X95.845 Y143.086 E19.12203
G1 X94.907 Y143.073 E19.16415
G1 X93.974 Y142.981 E19.20624
G1 X93.052 Y142.809 E19.24836
G1 X92.148 Y142.559 E19.29047
G1 X91.268 Y142.233 E19.33261
G1 X90.666 Y141.958 E19.36232
G1 X90.321 Y141.788 E19.37959
G1 X89.725 Y141.472 E19.40988
G1 X89.487 Y141.336 E19.42219
G1 X88.864 Y140.952 E19.45505
G1 X88.261 Y140.552 E19.48754
G1 X87.615 Y140.096 E19.52305
G1 X87.181 Y139.768 E19.54747
G1 X86.916 Y139.557 E19.56268
G1 X86.446 Y139.161 E19.59028
G1 X85.882 Y138.658 E19.62421
G1 X85.261 Y138.069 E19.66264
G1 X84.771 Y137.566 E19.69417
G1 X84.487 Y137.262 E19.71285
G1 X84.029 Y136.74 E19.74403
G1 X83.691 Y136.329 E19.76793
G1 X83.285 Y135.804 E19.79773
G1 X82.917 Y135.297 E19.82586
G1 X82.482 Y134.651 E19.86083
G1 X82.216 Y134.224 E19.88342
G1 X81.918 Y133.716 E19.90986
G1 X81.124 Y132.274 E19.98377
G1 X78.813 Y128.009 E20.20158
G1 X74.43 Y119.896 E20.61563
G1 X70.361 Y112.343 E21.00085
G1 X69.865 Y111.384 E21.04933
G1 X69.608 Y110.86 E21.07553
G1 X69.27 Y110.101 E21.11284
G1 X69.038 Y109.521 E21.14089
G1 X68.886 Y109.107 E21.16069
G1 X68.678 Y108.483 E21.19023
G1 X68.525 Y107.974 E21.21409
G1 X68.387 Y107.475 E21.23734
G1 X68.234 Y106.83 E21.2671
G1 X68.117 Y106.246 E21.29385
G1 X68.035 Y105.771 E21.31549
G1 X67.937 Y105.066 E21.34745
G1 X67.874 Y104.475 E21.37414
G1 X67.823 Y103.797 E21.40467
G1 X67.798 Y103.139 E21.43423
G1 X67.782 Y101.987 E21.48596
G1 X67.783 Y68.312 E22.99801
G1 X67.793 Y67.646 E23.02792
G1 X67.847 Y66.71 E23.07001
G1 X67.981 Y65.781 E23.11216
G1 X68.193 Y64.868 E23.15425
G1 X68.482 Y63.976 E23.19635
G1 X68.847 Y63.111 E23.2385
G1 X69.283 Y62.281 E23.2806
G1 X69.789 Y61.491 E23.32272
G1 X70.36 Y60.747 E23.36483
G0 F3600 X70.754 Y60.901
G1 F1800 X71.384 Y60.23 E23.40616
G1 X72.07 Y59.615 E23.44753
G1 X72.806 Y59.063 E23.48884
G1 X73.588 Y58.577 E23.53018
G1 X74.409 Y58.16 E23.57153
G1 X75.263 Y57.816 E23.61287
G1 X76.143 Y57.547 E23.65418
G1 X77.044 Y57.356 E23.69554
G1 X77.958 Y57.244 E23.73689
G1 X78.494 Y57.215 E23.76099
G1 X79.112 Y57.202 E23.78874
G1 X80.028 Y57.202 E23.82987
G1 X81.022 Y57.215 E23.87451
G1 X83.644 Y57.215 E23.99224
G1 X84.475 Y57.203 E24.02956
G1 X115.15 Y57.204 E25.4069
G1 X115.981 Y57.216 E25.44422
G1 X118.591 Y57.216 E25.56141
G1 X119.105 Y57.206 E25.58449
G1 X119.478 Y57.203 E25.60124
G1 X120.662 Y57.204 E25.6544
G1 X121.36 Y57.214 E25.68575
G1 X122.279 Y57.267 E25.72708
G1 X123.19 Y57.4 E25.76842
G1 X124.086 Y57.611 E25.80975
G1 X124.96 Y57.899 E25.85107
G1 X125.807 Y58.262 E25.89245
G1 X126.618 Y58.697 E25.93377
G1 X127.388 Y59.201 E25.97509
G1 X128.112 Y59.77 E26.01644
G1 X128.784 Y60.4 E26.0578
G1 X129.399 Y61.085 E26.09913
G1 X129.952 Y61.821 E26.14047
G1 X130.439 Y62.602 E26.1818
G1 X130.856 Y63.423 E26.22314
G1 X131.201 Y64.277 E26.2645
G1 X131.47 Y65.157 E26.30582
G1 X131.662 Y66.058 E26.34718
G1 X131.775 Y66.971 E26.38849
G1 X131.804 Y67.515 E26.41295
G1 X131.817 Y68.133 E26.4407
G1 X131.817 Y101.87 E27.95554
G1 X131.791 Y103.42 E28.02514
G1 X131.759 Y104.076 E28.05463
G1 X131.731 Y104.427 E28.07044
G1 X131.661 Y105.064 E28.09922
G1 X131.583 Y105.617 E28.12429
G1 X131.473 Y106.256 E28.15341
G1 X131.337 Y106.896 E28.18279
G1 X131.146 Y107.667 E28.21845
G1 X130.996 Y108.193 E28.24301
G1 X130.712 Y109.044 E28.28329
G1 X130.511 Y109.58 E28.309
G1 X130.353 Y109.969 E28.32785
G1 X130.103 Y110.535 E28.35563
G1 X129.755 Y111.253 E28.39146
G1 X129.225 Y112.272 E28.44303
G1 X126.567 Y117.207 E28.69471
G1 X120.76 Y127.96 E29.24344
G1 X117.924 Y133.194 E29.51074
G1 X117.51 Y133.916 E29.54811
G1 X117.2 Y134.409 E29.57426
G1 X116.802 Y135.008 E29.60655
G1 X116.321 Y135.675 E29.64347
G1 X115.864 Y136.249 E29.67642
G1 X115.485 Y136.69 E29.70253
G1 X115.051 Y137.171 E29.73162
G1 X114.561 Y137.683 E29.76344
G1 X114.193 Y138.043 E29.78655
G1 X113.955 Y138.266 E29.8012
G1 X113.518 Y138.662 E29.82768
G1 X112.895 Y139.189 E29.86432
G1 X112.337 Y139.621 E29.896
G1 X111.741 Y140.056 E29.92913
G1 X111.118 Y140.485 E29.9631
G1 X110.444 Y140.904 E29.99873
G1 X109.75 Y141.3 E30.03461
G1 X108.932 Y141.721 E30.07592
G1 X108.08 Y142.069 E30.11724
G1 X107.2 Y142.342 E30.15861
G1 X106.301 Y142.538 E30.19993
G1 X105.388 Y142.656 E30.24126
G1 X104.243 Y142.69 E30.2927
G1 X103.328 Y142.667 E30.33379
G1 X102.268 Y142.625 E30.38143
G1 X99.76 Y142.597 E30.49405
G1 X97.263 Y142.64 E30.60618
G1 X96.84 Y142.658 E30.62519
G1 X95.833 Y142.687 E30.67043
G1 X94.913 Y142.673 E30.71174
G1 X93.997 Y142.58 E30.75308
G1 X93.092 Y142.407 E30.79445
G1 X92.206 Y142.157 E30.83579
G1 X91.345 Y141.831 E30.87713
G1 X90.843 Y141.599 E30.90196
G1 X90.498 Y141.429 E30.91923
G1 X89.924 Y141.124 E30.94841
G1 X89.686 Y140.988 E30.96072
G1 X89.085 Y140.618 E30.99241
G1 X88.482 Y140.218 E31.0249
G1 X87.848 Y139.772 E31.05971
G1 X87.43 Y139.455 E31.08326
G1 X87.165 Y139.244 E31.09847
G1 X86.713 Y138.863 E31.12502
G1 X86.149 Y138.36 E31.15895
G1 X85.545 Y137.788 E31.1963
G1 X85.063 Y137.293 E31.22732
G1 X84.779 Y136.989 E31.246
G1 X84.338 Y136.486 E31.27604
G1 X84 Y136.075 E31.29993
G1 X83.609 Y135.569 E31.32864
G1 X83.241 Y135.062 E31.35677
G1 X82.822 Y134.44 E31.39045
G1 X82.556 Y134.013 E31.41304
G1 X82.269 Y133.523 E31.43853
G1 X81.476 Y132.083 E31.51235
G1 X79.165 Y127.819 E31.73012
G1 X74.782 Y119.706 E32.14416
G1 X70.801 Y112.319 E32.52095
G1 X70.221 Y111.201 E32.5775
G1 X69.968 Y110.686 E32.60327
G1 X69.637 Y109.942 E32.63983
G1 X69.413 Y109.383 E32.66687
G1 X69.261 Y108.969 E32.68667
G1 X69.061 Y108.367 E32.71515
G1 X68.908 Y107.858 E32.73902
G1 X68.774 Y107.374 E32.76157
G1 X68.624 Y106.74 E32.79082
G1 X68.512 Y106.178 E32.81655
G1 X68.43 Y105.703 E32.8382
G1 X68.335 Y105.024 E32.86898
G1 X68.272 Y104.433 E32.89567
G1 X68.222 Y103.779 E32.92512
G1 X68.198 Y103.133 E32.95415
G1 X68.182 Y101.987 E33.00561
G1 X68.183 Y68.318 E34.51739
G1 X68.193 Y67.652 E34.54729
G1 X68.247 Y66.733 E34.58863
G1 X68.38 Y65.822 E34.62997
G1 X68.592 Y64.926 E34.67131
G1 X68.881 Y64.052 E34.71264
G1 X69.245 Y63.206 E34.754
G1 X69.68 Y62.395 E34.79532
G1 X70.185 Y61.625 E34.83666
G1 X70.754 Y60.901 E34.87801
G0 F3600 X71.148 Y61.058
G1 F1800 X71.775 Y60.408 E34.91856
G1 X72.457 Y59.817 E34.95908
G1 X73.189 Y59.288 E34.99964
G1 X73.965 Y58.825 E35.04021
G1 X74.779 Y58.434 E35.08076
G1 X75.624 Y58.115 E35.12131
G1 X76.494 Y57.873 E35.16186
G1 X77.382 Y57.709 E35.20241
G1 X78.505 Y57.615 E35.25301
G1 X79.112 Y57.602 E35.28027
G1 X80.028 Y57.602 E35.3214
G1 X81.016 Y57.615 E35.36576
G1 X83.653 Y57.615 E35.48417
G1 X84.478 Y57.603 E35.52121
G1 X115.144 Y57.604 E36.89815
G1 X115.975 Y57.616 E36.93547
G1 X118.599 Y57.616 E37.05329
G1 X119.108 Y57.606 E37.07615
G1 X119.481 Y57.603 E37.0929
G1 X120.656 Y57.604 E37.14566
G1 X121.354 Y57.614 E37.177
G1 X122.256 Y57.667 E37.21757
G1 X123.149 Y57.799 E37.25811
G1 X124.027 Y58.01 E37.29865
G1 X124.883 Y58.298 E37.3392
G1 X125.71 Y58.66 E37.37974
G1 X126.502 Y59.095 E37.42031
G1 X127.253 Y59.597 E37.46087
G1 X127.956 Y60.164 E37.50143
G1 X128.606 Y60.791 E37.54198
G1 X129.198 Y61.473 E37.58253
G1 X129.728 Y62.204 E37.62307
G1 X130.19 Y62.98 E37.66362
G1 X130.583 Y63.793 E37.70417
G1 X130.901 Y64.638 E37.7447
G1 X131.144 Y65.508 E37.78526
G1 X131.309 Y66.396 E37.82582
G1 X131.404 Y67.526 E37.87674
G1 X131.417 Y68.133 E37.904
G1 X131.417 Y101.87 E39.41883
G1 X131.391 Y103.413 E39.48812
G1 X131.361 Y104.044 E39.51649
G1 X131.333 Y104.395 E39.5323
G1 X131.265 Y105.009 E39.56003
G1 X131.187 Y105.562 E39.58511
G1 X131.081 Y106.176 E39.61309
G1 X130.948 Y106.803 E39.64187
G1 X130.761 Y107.56 E39.67688
G1 X130.613 Y108.078 E39.70107
G1 X130.333 Y108.914 E39.74065
G1 X130.14 Y109.429 E39.76535
G1 X129.982 Y109.818 E39.7842
G1 X129.742 Y110.364 E39.81098
G1 X129.4 Y111.069 E39.84617
G1 X128.949 Y111.939 E39.89017
G1 X126.215 Y117.017 E40.14912
G1 X120.408 Y127.769 E40.69781
G1 X117.572 Y133.003 E40.96511
G1 X117.169 Y133.707 E41.00153
G1 X116.867 Y134.188 E41.02703
G1 X116.469 Y134.787 E41.05932
G1 X116.006 Y135.428 E41.09483
G1 X115.558 Y135.992 E41.12717
G1 X115.188 Y136.422 E41.15264
G1 X114.754 Y136.903 E41.18173
G1 X114.276 Y137.403 E41.21279
G1 X113.916 Y137.755 E41.23539
G1 X113.686 Y137.969 E41.2495
G1 X113.249 Y138.365 E41.27598
G1 X112.647 Y138.876 E41.31144
G1 X112.101 Y139.298 E41.34242
G1 X111.505 Y139.733 E41.37555
G1 X110.894 Y140.154 E41.40887
G1 X110.246 Y140.556 E41.44311
G1 X109.552 Y140.952 E41.47899
G1 X108.749 Y141.365 E41.51953
G1 X107.912 Y141.704 E41.56008
G1 X107.048 Y141.969 E41.60066
G1 X106.165 Y142.156 E41.64118
