;FLAVOR:Marlin
;TIME:2910
;Filament used: 2.77435m
;Layer height: 0.15
;MINX:67.378
;MINY:61.1
;MINZ:0.3
;MAXX:132.622
;MAXY:138.806
;MAXZ:9.6
;Generated with Cura_SteamEngine 4.13.0
M140 S90
M105
M190 S90
M104 S235
M105
M109 S235
M82 ;absolute extrusion mode
G21 ;metric values
G90 ;absolute positioning
M82 ;set extruder to absolute mode
M107 ;start with the fan off
G28 X0 Y0 ;move X/Y to min endstops
G28 Z0 ;move Z to min endstops
G1 Z15.0 F9000 ;move the platform down 15mm
G92 E0 ;zero the extruded length
G1 F200 E6 ;extrude 6 mm of feed stock
G92 E0 ;zero the extruded length again
G1 F9000
;Put printing message on LCD screen
M117 Printing...
G92 E0
G92 E0
G1 F3000 E-5
;LAYER_COUNT:63
;LAYER:0
M107
G0 F3600 X70.577 Y64.599 Z0.3
;TYPE:SKIRT
G1 F3000 E0
G1 F1800 X71.268 Y63.94 E0.04287
G1 X72.011 Y63.341 E0.08573
G1 X72.802 Y62.807 E0.12858
G1 X73.635 Y62.34 E0.17146
G1 X74.505 Y61.945 E0.21436
G1 X75.404 Y61.623 E0.25724
G1 X76.327 Y61.378 E0.30012
G1 X77.267 Y61.212 E0.34298
G1 X78.503 Y61.114 E0.39865
G1 X79.188 Y61.1 E0.42941
G1 X80.04 Y61.1 E0.46767
G1 X80.342 Y61.103 E0.48123
G1 X82.461 Y61.103 E0.57638
G1 X82.549 Y61.107 E0.58033
G1 X83.299 Y61.101 E0.61401
G1 X83.553 Y61.102 E0.62541
G1 X84.165 Y61.111 E0.6529
G1 X85.118 Y61.165 E0.69576
G1 X85.77 Y61.249 E0.72527
G1 X86.14 Y61.307 E0.74209
G1 X88.732 Y61.677 E0.85965
G1 X91.178 Y61.956 E0.97019
G1 X93.713 Y62.173 E1.08443
G1 X96.226 Y62.315 E1.19745
G1 X98.703 Y62.386 E1.30872
G1 X101.204 Y62.388 E1.42101
G1 X103.736 Y62.317 E1.53475
G1 X106.233 Y62.177 E1.64704
G1 X108.701 Y61.967 E1.75826
G1 X111.187 Y61.686 E1.87059
G1 X113.051 Y61.41 E1.9552
G1 X114.347 Y61.23 E2.01395
G1 X115.689 Y61.124 E2.0744
G1 X116.646 Y61.105 E2.11738
G1 X116.872 Y61.103 E2.12753
G1 X118.461 Y61.103 E2.19887
G1 X118.55 Y61.107 E2.20287
G1 X119.48 Y61.1 E2.24463
G1 X120.678 Y61.101 E2.29842
G1 X121.376 Y61.111 E2.32977
G1 X122.33 Y61.165 E2.37267
G1 X123.275 Y61.298 E2.41552
G1 X124.206 Y61.51 E2.4584
G1 X125.116 Y61.799 E2.50127
G1 X125.999 Y62.163 E2.54415
G1 X126.848 Y62.6 E2.58703
G1 X127.657 Y63.106 E2.62987
G1 X128.421 Y63.678 E2.67273
G1 X129.135 Y64.312 E2.7156
G1 X129.793 Y65.004 E2.75848
G1 X130.391 Y65.748 E2.80134
G1 X130.925 Y66.54 E2.84423
G1 X131.39 Y67.374 E2.8871
G1 X131.785 Y68.243 E2.92996
G1 X132.104 Y69.143 E2.97284
G1 X132.348 Y70.066 E3.0157
G1 X132.513 Y71.007 E3.0586
G1 X132.608 Y72.182 E3.11153
G1 X132.622 Y72.823 E3.14032
G1 X132.621 Y106.141 E4.63634
G1 X132.613 Y106.575 E4.65583
G1 X132.576 Y107.547 E4.6995
G1 X132.534 Y108.175 E4.72776
G1 X132.471 Y108.777 E4.75494
G1 X132.398 Y109.292 E4.7783
G1 X132.262 Y110.08 E4.8142
G1 X132.144 Y110.665 E4.841
G1 X131.918 Y111.587 E4.88362
G1 X131.731 Y112.205 E4.91261
G1 X131.503 Y112.898 E4.94537
G1 X131.148 Y113.835 E4.99036
G1 X130.907 Y114.396 E5.01778
G1 X130.675 Y114.905 E5.04289
G1 X130.501 Y115.259 E5.06061
G1 X130.152 Y115.94 E5.09497
G1 X130.035 Y116.163 E5.10627
G1 X128.398 Y119.191 E5.26083
G1 X124.667 Y126.107 E5.61367
G1 X122.986 Y129.212 E5.77221
G1 X122.877 Y129.409 E5.78232
G1 X122.459 Y130.146 E5.82037
G1 X122.171 Y130.631 E5.84569
G1 X121.9 Y131.055 E5.86829
G1 X121.819 Y131.176 E5.87483
G1 X121.401 Y131.76 E5.90707
G1 X121.105 Y132.147 E5.92895
G1 X120.629 Y132.728 E5.96267
G1 X120.092 Y133.323 E5.99866
G1 X119.609 Y133.818 E6.02972
G1 X119.231 Y134.182 E6.05328
G1 X118.321 Y134.954 E6.10686
G1 X117.734 Y135.402 E6.14002
G1 X117.17 Y135.807 E6.17119
G1 X116.936 Y135.964 E6.18385
G1 X116.392 Y136.307 E6.21272
G1 X116.191 Y136.426 E6.22321
G1 X115.408 Y136.849 E6.26317
G1 X114.96 Y137.069 E6.28558
G1 X114.252 Y137.387 E6.32043
G1 X113.773 Y137.583 E6.34367
G1 X113.008 Y137.864 E6.38026
G1 X112.514 Y138.026 E6.40361
G1 X111.727 Y138.254 E6.4404
G1 X111.635 Y138.277 E6.44466
G1 X110.933 Y138.429 E6.47691
G1 X110.308 Y138.544 E6.50544
G1 X109.558 Y138.656 E6.53949
G1 X109.213 Y138.696 E6.55508
G1 X108.464 Y138.758 E6.58883
G1 X107.753 Y138.787 E6.62078
G1 X106.559 Y138.806 E6.6744
G1 X105.011 Y138.804 E6.74391
G1 X104.378 Y138.795 E6.77233
G1 X103.922 Y138.78 E6.79282
G1 X101.393 Y138.708 E6.90642
G1 X98.885 Y138.706 E7.01903
G1 X95.491 Y138.8 E7.17149
G1 X95.17 Y138.805 E7.1859
G1 X93.5 Y138.805 E7.26089
G1 X93.291 Y138.803 E7.27027
G1 X92.092 Y138.781 E7.32412
G1 X91.354 Y138.744 E7.35729
G1 X90.958 Y138.711 E7.37514
G1 X90.205 Y138.623 E7.40918
G1 X89.774 Y138.558 E7.42875
G1 X88.962 Y138.405 E7.46585
G1 X88.537 Y138.309 E7.48541
G1 X87.862 Y138.135 E7.51671
G1 X87.546 Y138.043 E7.53149
G1 X86.823 Y137.805 E7.56567
G1 X86.404 Y137.652 E7.5857
G1 X85.666 Y137.353 E7.62145
G1 X85.301 Y137.19 E7.6394
G1 X84.637 Y136.868 E7.67253
G1 X84.299 Y136.69 E7.68969
G1 X83.607 Y136.294 E7.72549
G1 X83.168 Y136.022 E7.74867
G1 X82.572 Y135.626 E7.7808
G1 X82.272 Y135.413 E7.79732
G1 X81.559 Y134.863 E7.83776
G1 X81.272 Y134.623 E7.85456
G1 X80.722 Y134.132 E7.88766
G1 X80.426 Y133.85 E7.90602
G1 X79.955 Y133.374 E7.93609
G1 X79.386 Y132.75 E7.974
G1 X79.271 Y132.616 E7.98193
G1 X78.899 Y132.16 E8.00836
G1 X78.579 Y131.738 E8.03214
G1 X78.503 Y131.634 E8.03792
G1 X78 Y130.885 E8.07843
G1 X77.633 Y130.289 E8.10986
G1 X77.4 Y129.894 E8.13045
G1 X76.91 Y129.018 E8.17552
G1 X69.909 Y116.059 E8.83688
G1 X69.578 Y115.426 E8.86895
G1 X69.431 Y115.133 E8.88367
G1 X69.157 Y114.545 E8.9128
G1 X68.908 Y113.969 E8.94097
G1 X68.71 Y113.482 E8.96458
G1 X68.546 Y113.04 E8.98575
G1 X68.358 Y112.499 E9.01146
G1 X68.089 Y111.611 E9.05313
G1 X67.903 Y110.856 E9.08804
G1 X67.787 Y110.322 E9.11258
G1 X67.635 Y109.509 E9.14971
G1 X67.559 Y109.008 E9.17247
G1 X67.494 Y108.44 E9.19814
G1 X67.442 Y107.851 E9.22469
G1 X67.402 Y107.146 E9.25639
G1 X67.382 Y106.381 E9.29075
G1 X67.378 Y106.083 E9.30414
G1 X67.378 Y73.06 E10.78691
G1 X67.387 Y72.363 E10.81821
G1 X67.439 Y71.409 E10.86111
G1 X67.571 Y70.464 E10.90395
G1 X67.782 Y69.533 E10.94681
G1 X68.069 Y68.622 E10.9897
G1 X68.432 Y67.739 E11.03257
G1 X68.868 Y66.889 E11.07546
G1 X69.373 Y66.079 E11.11832
G1 X69.944 Y65.314 E11.16118
G1 X70.577 Y64.599 E11.20406
G0 F3600 X70.97 Y64.77
G1 F1800 X71.657 Y64.132 E11.24616
G1 X72.397 Y63.556 E11.28826
G1 X73.183 Y63.044 E11.33038
G1 X74.01 Y62.601 E11.37251
G1 X74.871 Y62.23 E11.4146
G1 X75.761 Y61.934 E11.45672
G1 X76.673 Y61.715 E11.49883
G1 X77.6 Y61.574 E11.54094
G1 X78.512 Y61.513 E11.58198
G1 X79.188 Y61.5 E11.61234
G1 X80.04 Y61.5 E11.65059
G1 X80.337 Y61.503 E11.66393
G1 X82.461 Y61.503 E11.7593
G1 X82.548 Y61.507 E11.76321
G1 X83.302 Y61.501 E11.79706
G1 X83.547 Y61.502 E11.80807
G1 X84.159 Y61.511 E11.83555
G1 X85.095 Y61.565 E11.87765
G1 X85.708 Y61.644 E11.9054
G1 X86.088 Y61.704 E11.92267
G1 X88.667 Y62.071 E12.03964
G1 X91.17 Y62.357 E12.15276
G1 X93.692 Y62.573 E12.26641
G1 X96.192 Y62.714 E12.37884
G1 X98.691 Y62.786 E12.4911
G1 X101.214 Y62.788 E12.60438
G1 X103.734 Y62.717 E12.71758
G1 X106.256 Y62.575 E12.831
G1 X108.779 Y62.362 E12.94469
G1 X111.234 Y62.084 E13.05563
G1 X113.106 Y61.807 E13.1406
G1 X114.402 Y61.627 E13.19935
G1 X115.697 Y61.524 E13.25768
G1 X116.654 Y61.505 E13.30066
G1 X116.872 Y61.503 E13.31045
G1 X118.461 Y61.503 E13.38179
G1 X118.549 Y61.507 E13.38575
G1 X119.483 Y61.5 E13.42769
G1 X120.673 Y61.501 E13.48112
G1 X121.371 Y61.511 E13.51246
G1 X122.307 Y61.565 E13.55456
G1 X123.235 Y61.697 E13.59665
G1 X124.149 Y61.909 E13.63878
G1 X125.041 Y62.198 E13.68088
G1 X125.906 Y62.561 E13.723
G1 X126.736 Y62.997 E13.7651
G1 X127.527 Y63.502 E13.80724
G1 X128.271 Y64.073 E13.84935
G1 X128.964 Y64.705 E13.89146
G1 X129.601 Y65.393 E13.93356
G1 X130.176 Y66.134 E13.97567
G1 X130.687 Y66.92 E14.01777
G1 X131.129 Y67.748 E14.05991
G1 X131.498 Y68.61 E14.10201
G1 X131.793 Y69.5 E14.14411
G1 X132.011 Y70.412 E14.18622
G1 X132.151 Y71.34 E14.22836
G1 X132.208 Y72.194 E14.26679
G1 X132.222 Y72.823 E14.29504
G1 X132.221 Y106.141 E15.79106
G1 X132.213 Y106.559 E15.80983
G1 X132.176 Y107.531 E15.8535
G1 X132.136 Y108.138 E15.88082
G1 X132.074 Y108.726 E15.90737
G1 X132.004 Y109.228 E15.93012
G1 X131.87 Y110.001 E15.96535
G1 X131.752 Y110.586 E15.99215
G1 X131.534 Y111.475 E16.03325
G1 X131.351 Y112.08 E16.06163
G1 X131.123 Y112.773 E16.09439
G1 X130.781 Y113.677 E16.13778
G1 X130.54 Y114.238 E16.1652
G1 X130.313 Y114.735 E16.18973
G1 X130.145 Y115.077 E16.20684
G1 X129.796 Y115.758 E16.2412
G1 X129.683 Y115.972 E16.25207
G1 X128.046 Y119 E16.40662
G1 X124.315 Y125.917 E16.75951
G1 X122.634 Y129.022 E16.91805
G1 X122.529 Y129.212 E16.92779
G1 X122.111 Y129.949 E16.96584
G1 X121.829 Y130.423 E16.9906
G1 X121.487 Y130.953 E17.01892
G1 X121.083 Y131.517 E17.05007
G1 X120.787 Y131.904 E17.07195
G1 X120.328 Y132.465 E17.1045
G1 X119.798 Y133.051 E17.13998
G1 X119.326 Y133.535 E17.17033
G1 X118.956 Y133.891 E17.19339
G1 X118.079 Y134.636 E17.24505
G1 X117.492 Y135.084 E17.27821
G1 X116.947 Y135.474 E17.3083
G1 X116.713 Y135.631 E17.32095
G1 X116.188 Y135.963 E17.34885
G1 X115.987 Y136.082 E17.35933
G1 X115.232 Y136.49 E17.39787
G1 X114.784 Y136.71 E17.42028
G1 X114.101 Y137.017 E17.4539
G1 X113.622 Y137.213 E17.47714
G1 X112.884 Y137.484 E17.51244
G1 X112.39 Y137.646 E17.53578
G1 X111.63 Y137.866 E17.57131
G1 X111.538 Y137.889 E17.57557
G1 X110.861 Y138.035 E17.60666
G1 X110.236 Y138.15 E17.6352
G1 X109.512 Y138.259 E17.66807
G1 X109.167 Y138.299 E17.68367
G1 X108.445 Y138.359 E17.7162
G1 X107.746 Y138.387 E17.74761
G1 X106.559 Y138.406 E17.80091
G1 X105.017 Y138.404 E17.87015
G1 X104.384 Y138.395 E17.89858
G1 X101.405 Y138.308 E18.03239
G1 X98.875 Y138.306 E18.14599
G1 X95.48 Y138.401 E18.29849
G1 X95.17 Y138.405 E18.31241
G1 X93.5 Y138.405 E18.3874
G1 X93.298 Y138.403 E18.39647
G1 X92.099 Y138.381 E18.45032
G1 X91.387 Y138.345 E18.48233
G1 X90.991 Y138.312 E18.50017
G1 X90.265 Y138.227 E18.53299
G1 X89.834 Y138.162 E18.55256
G1 X89.05 Y138.015 E18.58838
G1 X88.625 Y137.919 E18.60794
G1 X87.974 Y137.75 E18.63814
G1 X87.658 Y137.658 E18.65292
G1 X86.96 Y137.43 E18.68589
G1 X86.541 Y137.277 E18.70592
G1 X85.829 Y136.988 E18.74042
G1 X85.464 Y136.825 E18.75837
G1 X84.823 Y136.514 E18.79036
G1 X84.485 Y136.336 E18.80751
G1 X83.817 Y135.954 E18.84206
G1 X83.378 Y135.682 E18.86525
G1 X82.804 Y135.3 E18.89621
G1 X82.504 Y135.087 E18.91273
G1 X81.816 Y134.556 E18.95175
G1 X81.529 Y134.316 E18.96855
G1 X80.997 Y133.842 E19.00055
G1 X80.701 Y133.56 E19.0189
G1 X80.247 Y133.102 E19.04786
G1 X79.69 Y132.49 E19.08502
G1 X79.575 Y132.356 E19.09295
G1 X79.216 Y131.915 E19.11848
G1 X78.902 Y131.502 E19.14177
G1 X78.826 Y131.398 E19.14756
G1 X78.34 Y130.676 E19.18664
G1 X77.973 Y130.08 E19.21806
G1 X77.749 Y129.698 E19.23795
G1 X77.348 Y128.984 E19.27472
G1 X70.965 Y117.176 E19.87742
G1 X70.2 Y115.754 E19.94992
G1 X69.936 Y115.247 E19.97559
G1 X69.789 Y114.954 E19.9903
G1 X69.524 Y114.386 E20.01845
G1 X69.275 Y113.81 E20.04662
G1 X69.082 Y113.335 E20.06965
G1 X68.923 Y112.909 E20.09006
G1 X68.735 Y112.368 E20.11578
G1 X68.476 Y111.511 E20.15598
G1 X68.294 Y110.771 E20.19019
G1 X68.178 Y110.237 E20.21473
G1 X68.029 Y109.441 E20.25109
G1 X67.955 Y108.953 E20.27326
G1 X67.893 Y108.404 E20.29806
G1 X67.841 Y107.815 E20.32461
G1 X67.802 Y107.135 E20.3552
G1 X67.782 Y106.37 E20.38956
G1 X67.778 Y106.083 E20.40244
G1 X67.778 Y73.065 E21.88499
G1 X67.787 Y72.368 E21.91629
G1 X67.839 Y71.432 E21.95838
G1 X67.971 Y70.503 E22.00052
G1 X68.181 Y69.589 E22.04262
G1 X68.468 Y68.696 E22.08474
G1 X68.831 Y67.831 E22.12686
G1 X69.265 Y67 E22.16896
G1 X69.769 Y66.209 E22.21107
G1 X70.339 Y65.464 E22.25319
G1 X70.97 Y64.77 E22.29531
G0 F3600 X71.362 Y64.944
G1 F1800 X72.046 Y64.329 E22.33661
G1 X72.782 Y63.775 E22.37797
G1 X73.562 Y63.287 E22.41928
G1 X74.382 Y62.868 E22.46063
G1 X75.236 Y62.522 E22.502
G1 X76.116 Y62.252 E22.54333
G1 X77.016 Y62.059 E22.58466
G1 X77.929 Y61.945 E22.62598
G1 X78.522 Y61.913 E22.65264
G1 X79.188 Y61.9 E22.68255
G1 X80.04 Y61.9 E22.72081
G1 X80.331 Y61.903 E22.73388
G1 X82.461 Y61.903 E22.82951
G1 X82.547 Y61.907 E22.83338
G1 X83.305 Y61.901 E22.86742
G1 X83.541 Y61.902 E22.87801
G1 X84.153 Y61.911 E22.9055
G1 X85.072 Y61.965 E22.94683
G1 X85.646 Y62.039 E22.97282
G1 X86.045 Y62.102 E22.99096
G1 X88.601 Y62.466 E23.10688
G1 X91.158 Y62.758 E23.22244
G1 X93.635 Y62.97 E23.33407
G1 X96.159 Y63.113 E23.44758
G1 X98.715 Y63.186 E23.56239
G1 X101.225 Y63.188 E23.67509
G1 X103.769 Y63.117 E23.78937
G1 X106.276 Y62.976 E23.90211
G1 X108.787 Y62.763 E24.01526
G1 X111.277 Y62.481 E24.12778
G1 X113.161 Y62.203 E24.21329
G1 X114.457 Y62.023 E24.27204
G1 X115.705 Y61.924 E24.32826
G1 X116.662 Y61.905 E24.37124
G1 X116.872 Y61.903 E24.38066
G1 X118.461 Y61.903 E24.45201
G1 X118.549 Y61.907 E24.45597
G1 X119.486 Y61.9 E24.49804
G1 X120.667 Y61.901 E24.55107
G1 X121.365 Y61.911 E24.58241
G1 X122.284 Y61.964 E24.62375
G1 X123.195 Y62.097 E24.66509
G1 X124.091 Y62.308 E24.70642
G1 X124.965 Y62.596 E24.74774
G1 X125.812 Y62.959 E24.78911
G1 X126.623 Y63.394 E24.83044
G1 X127.393 Y63.898 E24.87176
G1 X128.117 Y64.467 E24.9131
G1 X128.789 Y65.097 E24.95446
G1 X129.404 Y65.782 E24.9958
G1 X129.957 Y66.518 E25.03714
G1 X130.444 Y67.299 E25.07846
G1 X130.861 Y68.12 E25.11981
G1 X131.206 Y68.974 E25.16116
G1 X131.475 Y69.854 E25.20248
G1 X131.667 Y70.755 E25.24385
G1 X131.78 Y71.668 E25.28515
G1 X131.809 Y72.205 E25.3093
G1 X131.822 Y72.823 E25.33706
G1 X131.821 Y106.141 E26.83307
G1 X131.813 Y106.544 E26.85117
G1 X131.776 Y107.516 E26.89485
G1 X131.738 Y108.101 E26.92117
G1 X131.678 Y108.675 E26.94709
G1 X131.55 Y109.527 E26.98577
G1 X131.478 Y109.922 E27.0038
G1 X131.36 Y110.507 E27.03059
G1 X131.149 Y111.364 E27.07022
G1 X130.971 Y111.955 E27.09794
G1 X130.743 Y112.648 E27.1307
G1 X130.413 Y113.519 E27.17252
G1 X130.172 Y114.08 E27.19993
G1 X129.951 Y114.565 E27.22386
G1 X129.789 Y114.894 E27.24033
G1 X129.332 Y115.782 E27.28517
G1 X127.694 Y118.81 E27.43975
G1 X123.964 Y125.727 E27.79261
G1 X122.283 Y128.832 E27.95115
G1 X121.763 Y129.751 E27.99856
G1 X121.487 Y130.215 E28.0228
G1 X121.155 Y130.731 E28.05036
G1 X120.766 Y131.274 E28.08035
G1 X120.47 Y131.661 E28.10222
G1 X120.027 Y132.201 E28.13359
G1 X119.504 Y132.78 E28.16862
G1 X119.043 Y133.252 E28.19824
G1 X118.682 Y133.6 E28.22076
G1 X117.836 Y134.318 E28.27058
G1 X117.249 Y134.766 E28.30374
G1 X116.724 Y135.142 E28.33273
G1 X116.49 Y135.299 E28.34539
G1 X115.984 Y135.618 E28.37224
G1 X115.783 Y135.737 E28.38273
G1 X115.055 Y136.131 E28.4199
G1 X114.607 Y136.351 E28.44231
G1 X113.949 Y136.646 E28.47469
G1 X113.47 Y136.842 E28.49793
G1 X112.759 Y137.104 E28.53195
G1 X112.265 Y137.266 E28.55529
G1 X111.533 Y137.478 E28.58951
G1 X111.441 Y137.501 E28.59377
G1 X110.788 Y137.642 E28.62377
G1 X110.163 Y137.757 E28.6523
G1 X109.466 Y137.861 E28.68394
G1 X109.121 Y137.901 E28.69954
G1 X108.425 Y137.959 E28.7309
G1 X107.739 Y137.987 E28.76173
G1 X106.559 Y138.006 E28.81472
G1 X105.022 Y138.004 E28.88373
G1 X104.389 Y137.995 E28.91215
G1 X101.381 Y137.908 E29.04727
G1 X98.864 Y137.906 E29.16029
G1 X95.469 Y138.001 E29.31279
G1 X95.17 Y138.005 E29.32622
G1 X93.5 Y138.005 E29.4012
G1 X92.107 Y137.981 E29.46376
G1 X91.421 Y137.946 E29.4946
G1 X91.025 Y137.913 E29.51244
G1 X90.324 Y137.831 E29.54413
G1 X89.893 Y137.766 E29.5637
G1 X89.138 Y137.625 E29.59819
G1 X88.713 Y137.529 E29.61775
G1 X88.086 Y137.366 E29.64684
G1 X87.77 Y137.274 E29.66162
G1 X87.097 Y137.054 E29.69341
G1 X86.678 Y136.901 E29.71344
G1 X85.992 Y136.623 E29.74668
G1 X85.627 Y136.46 E29.76463
G1 X85.01 Y136.16 E29.79543
G1 X84.672 Y135.982 E29.81258
G1 X84.028 Y135.614 E29.84589
G1 X83.589 Y135.342 E29.86908
G1 X83.035 Y134.974 E29.89894
G1 X82.735 Y134.761 E29.91546
G1 X82.072 Y134.25 E29.95305
G1 X81.785 Y134.01 E29.96984
G1 X81.273 Y133.553 E30.00066
G1 X80.977 Y133.271 E30.01902
G1 X80.54 Y132.829 E30.04693
G1 X79.993 Y132.229 E30.08338
G1 X79.878 Y132.095 E30.09131
G1 X79.532 Y131.671 E30.11588
G1 X79.225 Y131.266 E30.1387
G1 X79.149 Y131.162 E30.14449
G1 X78.681 Y130.466 E30.18214
G1 X78.314 Y129.87 E30.21357
G1 X78.098 Y129.503 E30.23269
G1 X77.613 Y128.637 E30.27726
G1 X70.613 Y115.68 E30.93852
G1 X70.378 Y115.232 E30.96123
G1 X70.147 Y114.774 E30.98427
G1 X69.891 Y114.227 E31.01138
