;FLAVOR:Marlin
;TIME:1902
;Filament used: 2.1957m
;Layer height: 0.15
;MINX:67.383
;MINY:60.616
;MINZ:0.3
;MAXX:132.617
;MAXY:139.306
;MAXZ:9.15
;Generated with Cura_SteamEngine 4.13.0
M140 S90
M105
M190 S90
M104 S235
M105
M109 S235
M82 ;absolute extrusion mode
G21 ;metric values
G90 ;absolute positioning
M82 ;set extruder to absolute mode
M107 ;start with the fan off
G28 X0 Y0 ;move X/Y to min endstops
G28 Z0 ;move Z to min endstops
G1 Z15.0 F9000 ;move the platform down 15mm
G92 E0 ;zero the extruded length
G1 F200 E6 ;extrude 6 mm of feed stock
G92 E0 ;zero the extruded length again
G1 F9000
;Put printing message on LCD screen
M117 Printing...
G92 E0
G92 E0
G1 F3000 E-5
;LAYER_COUNT:60
;LAYER:0
M107
G0 F3600 X70.598 Y64.1 Z0.3
;TYPE:SKIRT
G1 F3000 E0
G1 F1800 X71.29 Y63.442 E0.04288
G1 X72.035 Y62.845 E0.08574
G1 X72.827 Y62.311 E0.12863
G1 X73.66 Y61.846 E0.17147
G1 X74.53 Y61.453 E0.21433
G1 X75.43 Y61.133 E0.25722
G1 X76.353 Y60.89 E0.30008
G1 X77.294 Y60.725 E0.34298
G1 X78.508 Y60.63 E0.39765
G1 X79.193 Y60.616 E0.42842
G1 X80.028 Y60.616 E0.46591
G1 X81.033 Y60.629 E0.51104
G1 X83.628 Y60.629 E0.62756
G1 X84.469 Y60.617 E0.66532
G1 X115.162 Y60.618 E2.04347
G1 X115.993 Y60.63 E2.08079
G1 X118.619 Y60.63 E2.1987
G1 X119.484 Y60.617 E2.23754
G1 X120.707 Y60.617 E2.29246
G1 X121.377 Y60.627 E2.32255
G1 X122.33 Y60.681 E2.36541
G1 X123.276 Y60.815 E2.40831
G1 X124.207 Y61.028 E2.45119
G1 X125.116 Y61.317 E2.49402
G1 X125.999 Y61.682 E2.53692
G1 X126.848 Y62.119 E2.57979
G1 X127.657 Y62.626 E2.62266
G1 X128.421 Y63.199 E2.66554
G1 X129.134 Y63.833 E2.70838
G1 X129.792 Y64.525 E2.75126
G1 X130.389 Y65.27 E2.79413
G1 X130.923 Y66.062 E2.83702
G1 X131.387 Y66.896 E2.87987
G1 X131.781 Y67.766 E2.92275
G1 X132.1 Y68.666 E2.96563
G1 X132.343 Y69.589 E3.00848
G1 X132.508 Y70.529 E3.05134
G1 X132.602 Y71.682 E3.10328
G1 X132.617 Y72.357 E3.13359
G1 X132.617 Y106.528 E4.66791
G1 X132.605 Y107.313 E4.70316
G1 X132.581 Y107.948 E4.7317
G1 X132.536 Y108.618 E4.76185
G1 X132.465 Y109.287 E4.79206
G1 X132.393 Y109.793 E4.815
G1 X132.266 Y110.528 E4.8485
G1 X132.156 Y111.08 E4.87377
G1 X131.922 Y112.037 E4.91801
G1 X131.764 Y112.58 E4.9434
G1 X131.491 Y113.426 E4.98331
G1 X131.154 Y114.312 E5.02588
G1 X130.938 Y114.816 E5.0505
G1 X130.615 Y115.517 E5.08515
G1 X130.466 Y115.822 E5.1004
G1 X130.218 Y116.309 E5.12493
G1 X130.089 Y116.555 E5.13741
G1 X123.048 Y129.594 E5.80278
G1 X122.962 Y129.752 E5.81086
G1 X122.473 Y130.623 E5.85571
G1 X122.13 Y131.193 E5.88558
G1 X121.948 Y131.477 E5.90072
G1 X121.418 Y132.234 E5.94222
G1 X121.111 Y132.637 E5.96496
G1 X120.622 Y133.236 E5.99968
G1 X120.073 Y133.842 E6.0364
G1 X119.609 Y134.318 E6.06625
G1 X119.231 Y134.682 E6.08981
G1 X118.321 Y135.454 E6.14339
G1 X117.734 Y135.902 E6.17655
G1 X117.17 Y136.307 E6.20773
G1 X116.936 Y136.464 E6.22038
G1 X116.392 Y136.807 E6.24925
G1 X116.191 Y136.926 E6.25974
G1 X115.408 Y137.349 E6.2997
G1 X114.96 Y137.569 E6.32211
G1 X114.252 Y137.887 E6.35696
G1 X113.773 Y138.083 E6.3802
G1 X113.008 Y138.364 E6.41679
G1 X112.514 Y138.526 E6.44014
G1 X111.727 Y138.754 E6.47693
G1 X111.635 Y138.777 E6.48119
G1 X110.933 Y138.929 E6.51344
G1 X110.308 Y139.044 E6.54197
G1 X109.558 Y139.156 E6.57602
G1 X109.213 Y139.196 E6.59162
G1 X108.466 Y139.258 E6.62527
G1 X107.752 Y139.287 E6.65736
G1 X106.559 Y139.306 E6.71093
G1 X105.047 Y139.305 E6.77882
G1 X104.333 Y139.295 E6.81089
G1 X101.335 Y139.208 E6.94556
G1 X98.82 Y139.208 E7.05848
G1 X95.491 Y139.3 E7.20802
G1 X95.17 Y139.305 E7.22243
G1 X93.5 Y139.305 E7.29742
G1 X93.291 Y139.303 E7.3068
G1 X92.092 Y139.281 E7.36065
G1 X91.354 Y139.244 E7.39382
G1 X90.958 Y139.211 E7.41167
G1 X90.205 Y139.123 E7.44571
G1 X89.774 Y139.058 E7.46528
G1 X88.962 Y138.905 E7.50238
G1 X88.537 Y138.809 E7.52194
G1 X87.862 Y138.635 E7.55324
G1 X87.546 Y138.543 E7.56802
G1 X86.823 Y138.305 E7.6022
G1 X86.404 Y138.152 E7.62223
G1 X85.666 Y137.853 E7.65798
G1 X85.301 Y137.69 E7.67593
G1 X84.637 Y137.368 E7.70906
G1 X84.299 Y137.19 E7.72622
G1 X83.607 Y136.794 E7.76202
G1 X83.168 Y136.522 E7.7852
G1 X82.572 Y136.126 E7.81733
G1 X82.272 Y135.913 E7.83385
G1 X81.559 Y135.363 E7.87429
G1 X81.272 Y135.123 E7.89109
G1 X80.722 Y134.632 E7.92419
G1 X80.426 Y134.35 E7.94255
G1 X79.955 Y133.874 E7.97262
G1 X79.386 Y133.25 E8.01053
G1 X79.271 Y133.116 E8.01846
G1 X78.899 Y132.66 E8.04489
G1 X78.553 Y132.202 E8.07066
G1 X78.445 Y132.053 E8.07892
G1 X77.964 Y131.335 E8.11773
G1 X77.504 Y130.572 E8.15773
G1 X77.005 Y129.689 E8.20327
G1 X76.899 Y129.496 E8.21316
G1 X69.882 Y116.498 E8.8764
G1 X69.561 Y115.881 E8.90763
G1 X69.418 Y115.593 E8.92207
G1 X69.172 Y115.063 E8.9483
G1 X68.892 Y114.418 E8.97988
G1 X68.586 Y113.637 E9.01754
G1 X68.359 Y112.987 E9.04845
G1 X68.08 Y112.061 E9.09188
G1 X67.913 Y111.381 E9.12332
G1 X67.796 Y110.842 E9.14808
G1 X67.662 Y110.124 E9.18088
G1 X67.559 Y109.426 E9.21256
G1 X67.507 Y108.968 E9.23326
G1 X67.459 Y108.454 E9.25644
G1 X67.411 Y107.723 E9.28933
G1 X67.385 Y106.845 E9.32877
G1 X67.383 Y106.608 E9.33941
G1 X67.383 Y72.535 E10.86933
G1 X67.393 Y71.858 E10.89973
G1 X67.447 Y70.904 E10.94264
G1 X67.581 Y69.959 E10.98549
G1 X67.793 Y69.028 E11.02836
G1 X68.083 Y68.118 E11.07125
G1 X68.447 Y67.236 E11.11409
G1 X68.884 Y66.387 E11.15697
G1 X69.391 Y65.578 E11.19984
G1 X69.964 Y64.814 E11.24272
G1 X70.598 Y64.1 E11.28559
G0 F3600 X70.99 Y64.272
G1 F1800 X71.679 Y63.635 E11.32772
G1 X72.42 Y63.06 E11.36984
G1 X73.207 Y62.55 E11.41195
G1 X74.034 Y62.108 E11.45405
G1 X74.896 Y61.739 E11.49615
G1 X75.787 Y61.444 E11.53829
G1 X76.699 Y61.227 E11.58039
G1 X77.627 Y61.088 E11.62252
G1 X78.518 Y61.029 E11.66262
G1 X79.193 Y61.016 E11.69293
G1 X80.028 Y61.016 E11.73042
G1 X81.028 Y61.029 E11.77533
G1 X83.636 Y61.029 E11.89243
G1 X84.472 Y61.017 E11.92997
G1 X115.156 Y61.018 E13.30772
G1 X115.987 Y61.03 E13.34504
G1 X118.628 Y61.03 E13.46362
G1 X119.487 Y61.017 E13.50219
G1 X120.701 Y61.017 E13.5567
G1 X121.371 Y61.027 E13.58679
G1 X122.307 Y61.081 E13.62889
G1 X123.236 Y61.215 E13.67103
G1 X124.149 Y61.427 E13.71312
G1 X125.042 Y61.716 E13.75526
G1 X125.906 Y62.08 E13.79736
G1 X126.736 Y62.517 E13.83948
G1 X127.526 Y63.022 E13.88158
G1 X128.27 Y63.593 E13.92369
G1 X128.963 Y64.225 E13.9658
G1 X129.599 Y64.914 E14.0079
G1 X130.174 Y65.655 E14.05002
G1 X130.684 Y66.442 E14.09213
G1 X131.126 Y67.27 E14.13427
G1 X131.495 Y68.132 E14.17637
G1 X131.789 Y69.022 E14.21846
G1 X132.006 Y69.935 E14.2606
G1 X132.145 Y70.862 E14.30268
G1 X132.202 Y71.694 E14.34013
G1 X132.217 Y72.357 E14.36991
G1 X132.217 Y106.525 E15.90409
G1 X132.205 Y107.297 E15.93876
G1 X132.181 Y107.932 E15.96729
G1 X132.138 Y108.579 E15.99641
G1 X132.068 Y109.236 E16.02607
G1 X131.943 Y110.067 E16.06381
G1 X131.874 Y110.45 E16.08128
G1 X131.764 Y111.002 E16.10655
G1 X131.538 Y111.925 E16.14922
G1 X131.38 Y112.468 E16.17461
G1 X131.112 Y113.3 E16.21386
G1 X130.787 Y114.154 E16.25489
G1 X130.571 Y114.658 E16.27951
G1 X130.254 Y115.346 E16.31352
G1 X130.109 Y115.641 E16.32828
G1 X129.861 Y116.128 E16.35282
G1 X129.737 Y116.365 E16.36483
G1 X122.697 Y129.404 E17.03018
G1 X122.124 Y130.427 E17.08283
G1 X121.793 Y130.977 E17.11166
G1 X121.611 Y131.261 E17.1268
G1 X121.1 Y131.992 E17.16685
G1 X120.793 Y132.395 E17.1896
G1 X120.321 Y132.973 E17.2231
G1 X119.78 Y133.57 E17.25928
G1 X119.326 Y134.035 E17.28846
G1 X118.956 Y134.391 E17.31151
G1 X118.079 Y135.136 E17.36318
G1 X117.492 Y135.584 E17.39634
G1 X116.947 Y135.974 E17.42643
G1 X116.713 Y136.131 E17.43908
G1 X116.188 Y136.463 E17.46697
G1 X115.987 Y136.582 E17.47746
G1 X115.232 Y136.99 E17.516
G1 X114.784 Y137.21 E17.53841
G1 X114.101 Y137.517 E17.57203
G1 X113.622 Y137.713 E17.59527
G1 X112.884 Y137.984 E17.63057
G1 X112.39 Y138.146 E17.65391
G1 X111.63 Y138.366 E17.68944
G1 X111.538 Y138.389 E17.6937
G1 X110.861 Y138.535 E17.72479
G1 X110.236 Y138.65 E17.75333
G1 X109.512 Y138.759 E17.7862
G1 X109.167 Y138.799 E17.8018
G1 X108.446 Y138.858 E17.83428
G1 X107.745 Y138.887 E17.86578
G1 X106.559 Y138.906 E17.91904
G1 X105.053 Y138.905 E17.98666
G1 X104.339 Y138.895 E18.01872
G1 X101.31 Y138.808 E18.15479
G1 X98.809 Y138.808 E18.26708
G1 X95.48 Y138.901 E18.41662
G1 X95.17 Y138.905 E18.43054
G1 X93.5 Y138.905 E18.50552
G1 X93.298 Y138.903 E18.51459
G1 X92.099 Y138.881 E18.56844
G1 X91.387 Y138.845 E18.60045
G1 X90.991 Y138.812 E18.61829
G1 X90.265 Y138.727 E18.65111
G1 X89.834 Y138.662 E18.67068
G1 X89.05 Y138.515 E18.7065
G1 X88.625 Y138.419 E18.72606
G1 X87.974 Y138.25 E18.75626
G1 X87.658 Y138.158 E18.77104
G1 X86.96 Y137.93 E18.80401
G1 X86.541 Y137.777 E18.82404
G1 X85.829 Y137.488 E18.85854
G1 X85.464 Y137.325 E18.87649
G1 X84.823 Y137.014 E18.90848
G1 X84.485 Y136.836 E18.92564
G1 X83.817 Y136.454 E18.96019
G1 X83.378 Y136.182 E18.98338
G1 X82.804 Y135.8 E19.01434
G1 X82.504 Y135.587 E19.03086
G1 X81.816 Y135.056 E19.06988
G1 X81.529 Y134.816 E19.08668
G1 X80.997 Y134.342 E19.11867
G1 X80.701 Y134.06 E19.13703
G1 X80.247 Y133.602 E19.16598
G1 X79.69 Y132.99 E19.20314
G1 X79.575 Y132.856 E19.21107
G1 X79.216 Y132.415 E19.2366
G1 X78.877 Y131.968 E19.26179
G1 X78.769 Y131.819 E19.27005
G1 X78.305 Y131.125 E19.30754
G1 X77.852 Y130.375 E19.34688
G1 X77.353 Y129.492 E19.39242
G1 X70.3 Y116.432 E20.05888
G1 X70.029 Y115.917 E20.08501
G1 X69.777 Y115.415 E20.11023
G1 X69.539 Y114.903 E20.13558
G1 X69.259 Y114.258 E20.16716
G1 X68.964 Y113.505 E20.20347
G1 X68.737 Y112.855 E20.23438
G1 X68.467 Y111.962 E20.27627
G1 X68.304 Y111.296 E20.30706
G1 X68.187 Y110.757 E20.33183
G1 X68.056 Y110.055 E20.36389
G1 X67.956 Y109.372 E20.39488
G1 X67.906 Y108.931 E20.41481
G1 X67.858 Y108.417 E20.43799
G1 X67.81 Y107.701 E20.47021
G1 X67.785 Y106.837 E20.50902
G1 X67.783 Y106.608 E20.51931
G1 X67.783 Y72.541 E22.04896
G1 X67.793 Y71.864 E22.07936
G1 X67.847 Y70.927 E22.1215
G1 X67.98 Y69.999 E22.16359
G1 X68.192 Y69.085 E22.20572
G1 X68.481 Y68.193 E22.24782
G1 X68.845 Y67.329 E22.28992
G1 X69.282 Y66.498 E22.33208
G1 X69.787 Y65.708 E22.37418
G1 X70.358 Y64.964 E22.41629
G1 X70.99 Y64.272 E22.45837
G0 F3600 X71.382 Y64.446
G1 F1800 X72.068 Y63.832 E22.49971
G1 X72.804 Y63.279 E22.54104
G1 X73.585 Y62.793 E22.58235
G1 X74.406 Y62.376 E22.62369
G1 X75.26 Y62.032 E22.66503
G1 X76.141 Y61.763 E22.70639
G1 X77.041 Y61.572 E22.74771
G1 X77.955 Y61.459 E22.78906
G1 X78.528 Y61.429 E22.81482
G1 X79.193 Y61.416 E22.84469
G1 X80.028 Y61.416 E22.88218
G1 X81.022 Y61.429 E22.92681
G1 X83.644 Y61.429 E23.04454
G1 X84.475 Y61.417 E23.08186
G1 X115.15 Y61.418 E24.45921
G1 X115.981 Y61.43 E24.49652
G1 X118.591 Y61.43 E24.61371
G1 X119.107 Y61.42 E24.63689
G1 X119.562 Y61.417 E24.65732
G1 X120.695 Y61.417 E24.70819
G1 X121.365 Y61.427 E24.73828
G1 X122.284 Y61.481 E24.77961
G1 X123.195 Y61.614 E24.82095
G1 X124.091 Y61.826 E24.86229
G1 X124.965 Y62.115 E24.90363
G1 X125.811 Y62.478 E24.94496
G1 X126.622 Y62.914 E24.98631
G1 X127.393 Y63.418 E25.02767
G1 X128.116 Y63.987 E25.06898
G1 X128.788 Y64.617 E25.11034
G1 X129.402 Y65.303 E25.15168
G1 X129.954 Y66.039 E25.19298
G1 X130.441 Y66.821 E25.23435
G1 X130.858 Y67.642 E25.2757
G1 X131.202 Y68.496 E25.31704
G1 X131.47 Y69.376 E25.35834
G1 X131.662 Y70.277 E25.3997
G1 X131.774 Y71.191 E25.44105
G1 X131.802 Y71.706 E25.46421
G1 X131.817 Y72.357 E25.49345
G1 X131.817 Y106.521 E27.02745
G1 X131.805 Y107.282 E27.06163
G1 X131.781 Y107.917 E27.09016
G1 X131.739 Y108.54 E27.1182
G1 X131.671 Y109.184 E27.14727
G1 X131.548 Y110.002 E27.18442
G1 X131.482 Y110.372 E27.20129
G1 X131.372 Y110.924 E27.22656
G1 X131.154 Y111.814 E27.26771
G1 X130.996 Y112.357 E27.2931
G1 X130.732 Y113.173 E27.33161
G1 X130.419 Y113.997 E27.37119
G1 X130.203 Y114.501 E27.39581
G1 X129.892 Y115.175 E27.42914
G1 X129.753 Y115.459 E27.44333
G1 X129.505 Y115.946 E27.46787
G1 X129.385 Y116.175 E27.47948
G1 X122.345 Y129.214 E28.14483
G1 X121.775 Y130.231 E28.19718
G1 X121.457 Y130.761 E28.22493
G1 X121.275 Y131.045 E28.24008
G1 X120.782 Y131.749 E28.27867
G1 X120.475 Y132.152 E28.30142
G1 X120.02 Y132.709 E28.33371
G1 X119.487 Y133.298 E28.36938
G1 X119.043 Y133.752 E28.39789
G1 X118.682 Y134.1 E28.42041
G1 X117.836 Y134.818 E28.47023
G1 X117.249 Y135.266 E28.50339
G1 X116.724 Y135.642 E28.53238
G1 X116.49 Y135.799 E28.54503
G1 X115.984 Y136.118 E28.57189
G1 X115.783 Y136.237 E28.58238
G1 X115.055 Y136.631 E28.61955
G1 X114.607 Y136.851 E28.64196
G1 X113.949 Y137.146 E28.67434
G1 X113.47 Y137.342 E28.69758
G1 X112.759 Y137.604 E28.7316
G1 X112.265 Y137.766 E28.75494
G1 X111.533 Y137.978 E28.78916
G1 X111.441 Y138.001 E28.79342
G1 X110.788 Y138.142 E28.82342
G1 X110.163 Y138.257 E28.85195
G1 X109.466 Y138.361 E28.88359
G1 X109.121 Y138.401 E28.89919
G1 X108.426 Y138.459 E28.9305
G1 X107.738 Y138.487 E28.96142
G1 X106.559 Y138.506 E29.01436
G1 X105.059 Y138.505 E29.08172
G1 X104.345 Y138.495 E29.11378
G1 X101.321 Y138.408 E29.24962
G1 X98.798 Y138.408 E29.3629
G1 X95.469 Y138.501 E29.51244
G1 X95.17 Y138.505 E29.52586
G1 X93.5 Y138.505 E29.60085
G1 X92.107 Y138.481 E29.6634
G1 X91.421 Y138.446 E29.69425
G1 X91.025 Y138.413 E29.71209
G1 X90.324 Y138.331 E29.74378
G1 X89.893 Y138.266 E29.76335
G1 X89.138 Y138.125 E29.79784
G1 X88.713 Y138.029 E29.8174
G1 X88.086 Y137.866 E29.84649
G1 X87.77 Y137.774 E29.86127
G1 X87.097 Y137.554 E29.89306
G1 X86.678 Y137.401 E29.91309
G1 X85.992 Y137.123 E29.94632
G1 X85.627 Y136.96 E29.96427
G1 X85.01 Y136.66 E29.99508
G1 X84.672 Y136.482 E30.01223
G1 X84.028 Y136.114 E30.04554
G1 X83.589 Y135.842 E30.06872
G1 X83.035 Y135.474 E30.09859
G1 X82.735 Y135.261 E30.11511
G1 X82.072 Y134.75 E30.15269
G1 X81.785 Y134.51 E30.16949
G1 X81.273 Y134.053 E30.20031
G1 X80.977 Y133.771 E30.21866
G1 X80.54 Y133.329 E30.24657
G1 X79.993 Y132.729 E30.28303
G1 X79.878 Y132.595 E30.29096
G1 X79.532 Y132.171 E30.31553
G1 X79.2 Y131.733 E30.34021
G1 X79.092 Y131.584 E30.34847
G1 X78.646 Y130.916 E30.38454
G1 X78.201 Y130.178 E30.42323
G1 X77.702 Y129.295 E30.46877
G1 X77.603 Y129.116 E30.47796
G1 X70.59 Y116.126 E31.1408
G1 X70.278 Y115.525 E31.1712
G1 X70.135 Y115.237 E31.18564
G1 X69.906 Y114.744 E31.21005
G1 X69.626 Y114.099 E31.24162
G1 X69.342 Y113.373 E31.27662
G1 X69.115 Y112.723 E31.30754
G1 X68.855 Y111.863 E31.34788
G1 X68.695 Y111.212 E31.37798
G1 X68.578 Y110.673 E31.40274
G1 X68.45 Y109.987 E31.43408
G1 X68.352 Y109.319 E31.46439
G1 X68.304 Y108.894 E31.4836
G1 X68.256 Y108.38 E31.50678
G1 X68.209 Y107.679 E31.53832
G1 X68.185 Y106.828 E31.57655
G1 X68.183 Y106.608 E31.58643
G1 X68.183 Y72.546 E33.11585
G1 X68.193 Y71.869 E33.14625
G1 X68.247 Y70.95 E33.18759
G1 X68.38 Y70.039 E33.22893
G1 X68.591 Y69.143 E33.27026
G1 X68.88 Y68.269 E33.31159
G1 X69.243 Y67.423 E33.35293
G1 X69.679 Y66.612 E33.39427
G1 X70.183 Y65.842 E33.43559
G1 X70.752 Y65.118 E33.47694
G1 X71.382 Y64.446 E33.5183
G0 F3600 X71.773 Y64.625
G1 F1800 X72.455 Y64.033 E33.55885
G1 X73.187 Y63.504 E33.5994
G1 X73.963 Y63.042 E33.63995
G1 X74.776 Y62.65 E33.68048
G1 X75.622 Y62.331 E33.72108
G1 X76.492 Y62.089 E33.76162
G1 X77.38 Y61.924 E33.80218
G1 X78.538 Y61.829 E33.85435
G1 X79.193 Y61.816 E33.88377
G1 X80.028 Y61.816 E33.92126
G1 X81.016 Y61.829 E33.96562
G1 X83.653 Y61.829 E34.08403
G1 X84.478 Y61.817 E34.12108
G1 X115.144 Y61.818 E35.49802
G1 X115.975 Y61.83 E35.53533
G1 X118.599 Y61.83 E35.65315
G1 X119.11 Y61.82 E35.6761
G1 X119.562 Y61.817 E35.6964
G1 X120.689 Y61.817 E35.747
G1 X121.359 Y61.827 E35.77709
G1 X122.261 Y61.881 E35.81766
G1 X123.154 Y62.014 E35.8582
G1 X124.032 Y62.225 E35.89875
G1 X124.888 Y62.513 E35.9393
G1 X125.715 Y62.876 E35.97985
G1 X126.507 Y63.311 E36.02042
G1 X127.257 Y63.814 E36.06097
G1 X127.959 Y64.381 E36.10149
G1 X128.609 Y65.008 E36.14204
G1 X129.201 Y65.69 E36.18259
G1 X129.73 Y66.422 E36.22314
G1 X130.192 Y67.198 E36.2637
G1 X130.584 Y68.012 E36.30426
G1 X130.902 Y68.857 E36.3448
G1 X131.145 Y69.727 E36.38536
G1 X131.309 Y70.615 E36.42591
G1 X131.402 Y71.718 E36.47561
G1 X131.417 Y72.357 E36.50431
G1 X131.417 Y106.518 E38.03818
G1 X131.406 Y107.267 E38.07181
G1 X131.382 Y107.902 E38.10035
G1 X131.341 Y108.502 E38.12735
G1 X131.275 Y109.132 E38.15579
G1 X131.154 Y109.938 E38.19239
