;FLAVOR:Marlin
;TIME:1635
;Filament used: 2.06389m
;Layer height: 0.15
;MINX:67.378
;MINY:61.126
;MINZ:0.3
;MAXX:132.622
;MAXY:138.806
;MAXZ:9.6
;Generated with Cura_SteamEngine 4.13.0
M140 S90
M105
M190 S90
M104 S235
M105
M109 S235
M82 ;absolute extrusion mode
G21 ;metric values
G90 ;absolute positioning
M82 ;set extruder to absolute mode
M107 ;start with the fan off
G28 X0 Y0 ;move X/Y to min endstops
G28 Z0 ;move Z to min endstops
G1 Z15.0 F9000 ;move the platform down 15mm
G92 E0 ;zero the extruded length
G1 F200 E6 ;extrude 6 mm of feed stock
G92 E0 ;zero the extruded length again
G1 F9000
;Put printing message on LCD screen
M117 Printing...
G92 E0
G92 E0
G1 F3000 E-5
;LAYER_COUNT:63
;LAYER:0
M107
G0 F3600 X70.582 Y64.62 Z0.3
;TYPE:SKIRT
G1 F3000 E0
G1 F1800 X71.273 Y63.962 E0.04284
G1 X72.017 Y63.363 E0.08573
G1 X72.809 Y62.829 E0.12862
G1 X73.642 Y62.363 E0.17148
G1 X74.511 Y61.968 E0.21434
G1 X75.41 Y61.647 E0.2572
G1 X76.333 Y61.403 E0.30007
G1 X77.274 Y61.237 E0.34297
G1 X78.503 Y61.14 E0.39833
G1 X79.188 Y61.126 E0.42909
G1 X80.028 Y61.126 E0.46681
G1 X81.033 Y61.139 E0.51194
G1 X83.628 Y61.139 E0.62846
G1 X84.469 Y61.127 E0.66622
G1 X115.162 Y61.128 E2.04438
G1 X115.993 Y61.14 E2.08169
G1 X118.619 Y61.14 E2.1996
G1 X119.471 Y61.127 E2.23786
G1 X120.678 Y61.128 E2.29206
G1 X121.376 Y61.138 E2.3234
G1 X122.33 Y61.192 E2.36631
G1 X123.275 Y61.325 E2.40916
G1 X124.206 Y61.537 E2.45203
G1 X125.116 Y61.826 E2.4949
G1 X125.999 Y62.19 E2.53779
G1 X126.848 Y62.627 E2.58066
G1 X127.657 Y63.133 E2.62351
G1 X128.421 Y63.705 E2.66636
G1 X129.135 Y64.339 E2.70923
G1 X129.793 Y65.031 E2.75211
G1 X130.391 Y65.775 E2.79497
G1 X130.925 Y66.567 E2.83786
G1 X131.39 Y67.401 E2.88073
G1 X131.785 Y68.27 E2.9236
G1 X132.104 Y69.17 E2.96647
G1 X132.348 Y70.093 E3.00934
G1 X132.513 Y71.034 E3.05223
G1 X132.608 Y72.208 E3.10512
G1 X132.622 Y72.849 E3.13391
G1 X132.621 Y106.141 E4.62876
G1 X132.613 Y106.575 E4.64825
G1 X132.576 Y107.547 E4.69192
G1 X132.534 Y108.175 E4.72019
G1 X132.471 Y108.777 E4.74736
G1 X132.398 Y109.292 E4.77072
G1 X132.262 Y110.08 E4.80662
G1 X132.144 Y110.665 E4.83342
G1 X131.918 Y111.587 E4.87604
G1 X131.731 Y112.205 E4.90504
G1 X131.503 Y112.898 E4.93779
G1 X131.148 Y113.835 E4.98278
G1 X130.907 Y114.396 E5.0102
G1 X130.675 Y114.905 E5.03532
G1 X130.501 Y115.259 E5.05303
G1 X130.152 Y115.94 E5.08739
G1 X130.035 Y116.163 E5.09869
G1 X128.398 Y119.191 E5.25325
G1 X124.667 Y126.107 E5.6061
G1 X122.986 Y129.212 E5.76463
G1 X122.877 Y129.409 E5.77474
G1 X122.459 Y130.146 E5.81279
G1 X122.171 Y130.631 E5.83811
G1 X121.9 Y131.055 E5.86071
G1 X121.819 Y131.176 E5.86725
G1 X121.401 Y131.76 E5.89949
G1 X121.105 Y132.147 E5.92137
G1 X120.629 Y132.728 E5.9551
G1 X120.092 Y133.323 E5.99108
G1 X119.609 Y133.818 E6.02214
G1 X119.231 Y134.182 E6.0457
G1 X118.321 Y134.954 E6.09928
G1 X117.734 Y135.402 E6.13244
G1 X117.17 Y135.807 E6.16362
G1 X116.936 Y135.964 E6.17627
G1 X116.392 Y136.307 E6.20515
G1 X116.191 Y136.426 E6.21563
G1 X115.408 Y136.849 E6.25559
G1 X114.96 Y137.069 E6.278
G1 X114.252 Y137.387 E6.31285
G1 X113.773 Y137.583 E6.33609
G1 X113.008 Y137.864 E6.37269
G1 X112.514 Y138.026 E6.39603
G1 X111.727 Y138.254 E6.43282
G1 X111.635 Y138.277 E6.43708
G1 X110.933 Y138.429 E6.46933
G1 X110.308 Y138.544 E6.49786
G1 X109.558 Y138.656 E6.53191
G1 X109.213 Y138.696 E6.54751
G1 X108.466 Y138.758 E6.58116
G1 X107.752 Y138.787 E6.61325
G1 X106.559 Y138.806 E6.66682
G1 X105.047 Y138.805 E6.73471
G1 X104.333 Y138.795 E6.76678
G1 X101.335 Y138.708 E6.90145
G1 X98.82 Y138.708 E7.01437
G1 X95.491 Y138.8 E7.16391
G1 X95.17 Y138.805 E7.17832
G1 X93.5 Y138.805 E7.25331
G1 X93.291 Y138.803 E7.26269
G1 X92.092 Y138.781 E7.31654
G1 X91.354 Y138.744 E7.34971
G1 X90.958 Y138.711 E7.36756
G1 X90.205 Y138.623 E7.4016
G1 X89.774 Y138.558 E7.42117
G1 X88.962 Y138.405 E7.45827
G1 X88.537 Y138.309 E7.47783
G1 X87.862 Y138.135 E7.50913
G1 X87.546 Y138.043 E7.52391
G1 X86.823 Y137.805 E7.55809
G1 X86.404 Y137.652 E7.57812
G1 X85.666 Y137.353 E7.61387
G1 X85.301 Y137.19 E7.63182
G1 X84.637 Y136.868 E7.66495
G1 X84.299 Y136.69 E7.68211
G1 X83.607 Y136.294 E7.71791
G1 X83.168 Y136.022 E7.7411
G1 X82.572 Y135.626 E7.77322
G1 X82.272 Y135.413 E7.78975
G1 X81.559 Y134.863 E7.83018
G1 X81.272 Y134.623 E7.84698
G1 X80.722 Y134.132 E7.88008
G1 X80.426 Y133.85 E7.89844
G1 X79.955 Y133.374 E7.92851
G1 X79.386 Y132.75 E7.96642
G1 X79.271 Y132.616 E7.97435
G1 X78.899 Y132.16 E8.00078
G1 X78.527 Y131.667 E8.02851
G1 X78.417 Y131.514 E8.03697
G1 X77.972 Y130.847 E8.07297
G1 X77.701 Y130.408 E8.09614
G1 X77.481 Y130.035 E8.11558
G1 X77.065 Y129.3 E8.1535
G1 X76.956 Y129.103 E8.16361
G1 X69.807 Y115.869 E8.83899
G1 X69.427 Y115.121 E8.87666
G1 X69.166 Y114.564 E8.90428
G1 X68.915 Y113.986 E8.93258
G1 X68.71 Y113.482 E8.95701
G1 X68.546 Y113.04 E8.97818
G1 X68.358 Y112.499 E9.00389
G1 X68.089 Y111.611 E9.04556
G1 X67.903 Y110.856 E9.08047
G1 X67.787 Y110.322 E9.10501
G1 X67.635 Y109.509 E9.14214
G1 X67.559 Y109.008 E9.1649
G1 X67.494 Y108.44 E9.19057
G1 X67.442 Y107.851 E9.21712
G1 X67.402 Y107.146 E9.24882
G1 X67.382 Y106.381 E9.28318
G1 X67.378 Y106.083 E9.29656
G1 X67.378 Y73.047 E10.77992
G1 X67.387 Y72.382 E10.80978
G1 X67.44 Y71.428 E10.85268
G1 X67.572 Y70.483 E10.89553
G1 X67.784 Y69.552 E10.9384
G1 X68.072 Y68.642 E10.98126
G1 X68.435 Y67.759 E11.02413
G1 X68.871 Y66.909 E11.06702
G1 X69.377 Y66.099 E11.1099
G1 X69.949 Y65.335 E11.15276
G1 X70.582 Y64.62 E11.19563
G0 F3600 X70.975 Y64.791
G1 F1800 X71.663 Y64.154 E11.23773
G1 X72.403 Y63.578 E11.27984
G1 X73.189 Y63.066 E11.32196
G1 X74.016 Y62.624 E11.36406
G1 X74.878 Y62.254 E11.40618
G1 X75.768 Y61.958 E11.4483
G1 X76.68 Y61.74 E11.4904
G1 X77.607 Y61.599 E11.5325
G1 X78.512 Y61.539 E11.57323
G1 X79.188 Y61.526 E11.60359
G1 X80.028 Y61.526 E11.6413
G1 X81.028 Y61.539 E11.68621
G1 X83.636 Y61.539 E11.80331
G1 X84.472 Y61.527 E11.84085
G1 X115.156 Y61.528 E13.2186
G1 X115.987 Y61.54 E13.25592
G1 X118.628 Y61.54 E13.3745
G1 X119.475 Y61.527 E13.41254
G1 X120.673 Y61.528 E13.46633
G1 X121.371 Y61.538 E13.49767
G1 X122.307 Y61.592 E13.53977
G1 X123.235 Y61.724 E13.58186
G1 X124.149 Y61.936 E13.62399
G1 X125.041 Y62.225 E13.66609
G1 X125.906 Y62.588 E13.70821
G1 X126.736 Y63.024 E13.75031
G1 X127.527 Y63.529 E13.79244
G1 X128.271 Y64.1 E13.83456
G1 X128.964 Y64.732 E13.87667
G1 X129.601 Y65.42 E13.91877
G1 X130.176 Y66.161 E13.96088
G1 X130.687 Y66.947 E14.00298
G1 X131.129 Y67.775 E14.04512
G1 X131.498 Y68.637 E14.08722
G1 X131.793 Y69.527 E14.12932
G1 X132.011 Y70.439 E14.17143
G1 X132.151 Y71.367 E14.21357
G1 X132.208 Y72.22 E14.25195
G1 X132.222 Y72.849 E14.2802
G1 X132.221 Y106.141 E15.77505
G1 X132.213 Y106.559 E15.79383
G1 X132.176 Y107.531 E15.8375
G1 X132.136 Y108.138 E15.86481
G1 X132.074 Y108.726 E15.89136
G1 X132.004 Y109.228 E15.91412
G1 X131.87 Y110.001 E15.94935
G1 X131.752 Y110.586 E15.97614
G1 X131.534 Y111.475 E16.01724
G1 X131.351 Y112.08 E16.04562
G1 X131.123 Y112.773 E16.07838
G1 X130.781 Y113.677 E16.12178
G1 X130.54 Y114.238 E16.1492
G1 X130.313 Y114.735 E16.17373
G1 X130.145 Y115.077 E16.19084
G1 X129.796 Y115.758 E16.2252
G1 X129.683 Y115.972 E16.23606
G1 X128.046 Y119 E16.39062
G1 X124.315 Y125.917 E16.7435
G1 X122.634 Y129.022 E16.90204
G1 X122.529 Y129.212 E16.91179
G1 X122.111 Y129.949 E16.94983
G1 X121.829 Y130.423 E16.9746
G1 X121.487 Y130.953 E17.00292
G1 X121.083 Y131.517 E17.03407
G1 X120.787 Y131.904 E17.05595
G1 X120.328 Y132.465 E17.08849
G1 X119.798 Y133.051 E17.12397
G1 X119.326 Y133.535 E17.15433
G1 X118.956 Y133.891 E17.17738
G1 X118.079 Y134.636 E17.22905
G1 X117.492 Y135.084 E17.26221
G1 X116.947 Y135.474 E17.2923
G1 X116.713 Y135.631 E17.30495
G1 X116.188 Y135.963 E17.33284
G1 X115.987 Y136.082 E17.34333
G1 X115.232 Y136.49 E17.38186
G1 X114.784 Y136.71 E17.40427
G1 X114.101 Y137.017 E17.4379
G1 X113.622 Y137.213 E17.46114
G1 X112.884 Y137.484 E17.49644
G1 X112.39 Y137.646 E17.51978
G1 X111.63 Y137.866 E17.55531
G1 X111.538 Y137.889 E17.55956
G1 X110.861 Y138.035 E17.59066
G1 X110.236 Y138.15 E17.6192
G1 X109.512 Y138.259 E17.65207
G1 X109.167 Y138.299 E17.66767
G1 X108.446 Y138.358 E17.70015
G1 X107.745 Y138.387 E17.73165
G1 X106.559 Y138.406 E17.78491
G1 X105.053 Y138.405 E17.85253
G1 X104.339 Y138.395 E17.88459
G1 X101.31 Y138.308 E18.02065
G1 X98.809 Y138.308 E18.13295
G1 X95.48 Y138.401 E18.28249
G1 X95.17 Y138.405 E18.29641
G1 X93.5 Y138.405 E18.37139
G1 X93.298 Y138.403 E18.38046
G1 X92.099 Y138.381 E18.43431
G1 X91.387 Y138.345 E18.46632
G1 X90.991 Y138.312 E18.48416
G1 X90.265 Y138.227 E18.51698
G1 X89.834 Y138.162 E18.53655
G1 X89.05 Y138.015 E18.57237
G1 X88.625 Y137.919 E18.59193
G1 X87.974 Y137.75 E18.62213
G1 X87.658 Y137.658 E18.63691
G1 X86.96 Y137.43 E18.66988
G1 X86.541 Y137.277 E18.68991
G1 X85.829 Y136.988 E18.72441
G1 X85.464 Y136.825 E18.74236
G1 X84.823 Y136.514 E18.77435
G1 X84.485 Y136.336 E18.79151
G1 X83.817 Y135.954 E18.82606
G1 X83.378 Y135.682 E18.84925
G1 X82.804 Y135.3 E18.8802
G1 X82.504 Y135.087 E18.89672
G1 X81.816 Y134.556 E18.93575
G1 X81.529 Y134.316 E18.95255
G1 X80.997 Y133.842 E18.98454
G1 X80.701 Y133.56 E19.0029
G1 X80.247 Y133.102 E19.03185
G1 X79.69 Y132.49 E19.06901
G1 X79.575 Y132.356 E19.07694
G1 X79.216 Y131.915 E19.10247
G1 X78.852 Y131.433 E19.12959
G1 X78.742 Y131.28 E19.13805
G1 X78.313 Y130.637 E19.17276
G1 X78.042 Y130.198 E19.19593
G1 X77.829 Y129.838 E19.21471
G1 X77.413 Y129.103 E19.25263
G1 X77.308 Y128.913 E19.26238
G1 X70.159 Y115.679 E19.93776
G1 X69.784 Y114.942 E19.97489
G1 X69.533 Y114.405 E20.0015
G1 X69.282 Y113.827 E20.0298
G1 X69.082 Y113.335 E20.05364
G1 X68.923 Y112.909 E20.07406
G1 X68.735 Y112.368 E20.09978
G1 X68.476 Y111.511 E20.13998
G1 X68.294 Y110.771 E20.17419
G1 X68.178 Y110.237 E20.19873
G1 X68.029 Y109.441 E20.23509
G1 X67.955 Y108.953 E20.25725
G1 X67.893 Y108.404 E20.28206
G1 X67.841 Y107.815 E20.30861
G1 X67.802 Y107.135 E20.33919
G1 X67.782 Y106.37 E20.37356
G1 X67.778 Y106.083 E20.38644
G1 X67.778 Y73.052 E21.86957
G1 X67.787 Y72.387 E21.89944
G1 X67.84 Y71.451 E21.94153
G1 X67.972 Y70.522 E21.98366
G1 X68.183 Y69.608 E22.02578
G1 X68.471 Y68.716 E22.06787
G1 X68.834 Y67.851 E22.10999
G1 X69.269 Y67.02 E22.15211
G1 X69.773 Y66.23 E22.19418
G1 X70.343 Y65.485 E22.2363
G1 X70.975 Y64.791 E22.27845
G0 F3600 X71.366 Y64.966
G1 F1800 X72.051 Y64.35 E22.31981
G1 X72.787 Y63.797 E22.36115
G1 X73.568 Y63.309 E22.4025
G1 X74.388 Y62.891 E22.44383
G1 X75.242 Y62.546 E22.48518
G1 X76.122 Y62.276 E22.52651
G1 X77.022 Y62.084 E22.56784
G1 X77.936 Y61.97 E22.60919
G1 X78.522 Y61.939 E22.63554
G1 X79.188 Y61.926 E22.66545
G1 X80.028 Y61.926 E22.70317
G1 X81.022 Y61.939 E22.7478
G1 X83.644 Y61.939 E22.86553
G1 X84.475 Y61.927 E22.90285
G1 X115.15 Y61.928 E24.2802
G1 X115.981 Y61.94 E24.31751
G1 X118.591 Y61.94 E24.4347
G1 X119.105 Y61.93 E24.45779
G1 X119.478 Y61.927 E24.47454
G1 X120.667 Y61.928 E24.52792
G1 X121.365 Y61.938 E24.55927
G1 X122.284 Y61.991 E24.6006
G1 X123.195 Y62.124 E24.64194
G1 X124.091 Y62.335 E24.68327
G1 X124.965 Y62.623 E24.72459
G1 X125.812 Y62.986 E24.76597
G1 X126.623 Y63.421 E24.80729
G1 X127.393 Y63.925 E24.84861
G1 X128.117 Y64.494 E24.88996
G1 X128.789 Y65.124 E24.93132
G1 X129.404 Y65.809 E24.97265
G1 X129.957 Y66.545 E25.01399
G1 X130.444 Y67.326 E25.05532
G1 X130.861 Y68.147 E25.09666
G1 X131.206 Y69.001 E25.13802
G1 X131.475 Y69.881 E25.17934
G1 X131.667 Y70.782 E25.2207
G1 X131.78 Y71.695 E25.26201
G1 X131.809 Y72.231 E25.28611
G1 X131.822 Y72.849 E25.31387
G1 X131.821 Y106.141 E26.80872
G1 X131.813 Y106.544 E26.82681
G1 X131.776 Y107.516 E26.87049
G1 X131.738 Y108.101 E26.89681
G1 X131.678 Y108.675 E26.92273
G1 X131.55 Y109.527 E26.96141
G1 X131.478 Y109.922 E26.97944
G1 X131.36 Y110.507 E27.00624
G1 X131.149 Y111.364 E27.04587
G1 X130.971 Y111.955 E27.07358
G1 X130.743 Y112.648 E27.10634
G1 X130.413 Y113.519 E27.14816
G1 X130.172 Y114.08 E27.17557
G1 X129.951 Y114.565 E27.19951
G1 X129.789 Y114.894 E27.21597
G1 X129.332 Y115.782 E27.26081
G1 X127.694 Y118.81 E27.41539
G1 X123.964 Y125.727 E27.76825
G1 X122.283 Y128.832 E27.92679
G1 X121.763 Y129.751 E27.97421
G1 X121.487 Y130.215 E27.99845
G1 X121.155 Y130.731 E28.026
G1 X120.766 Y131.274 E28.05599
G1 X120.47 Y131.661 E28.07787
G1 X120.027 Y132.201 E28.10923
G1 X119.504 Y132.78 E28.14426
G1 X119.043 Y133.252 E28.17389
G1 X118.682 Y133.6 E28.1964
G1 X117.836 Y134.318 E28.24622
G1 X117.249 Y134.766 E28.27938
G1 X116.724 Y135.142 E28.30837
G1 X116.49 Y135.299 E28.32103
G1 X115.984 Y135.618 E28.34789
G1 X115.783 Y135.737 E28.35837
G1 X115.055 Y136.131 E28.39554
G1 X114.607 Y136.351 E28.41795
G1 X113.949 Y136.646 E28.45033
G1 X113.47 Y136.842 E28.47357
G1 X112.759 Y137.104 E28.50759
G1 X112.265 Y137.266 E28.53094
G1 X111.533 Y137.478 E28.56515
G1 X111.441 Y137.501 E28.56941
G1 X110.788 Y137.642 E28.59941
G1 X110.163 Y137.757 E28.62794
G1 X109.466 Y137.861 E28.65959
G1 X109.121 Y137.901 E28.67518
G1 X108.426 Y137.959 E28.7065
G1 X107.738 Y137.987 E28.73741
G1 X106.559 Y138.006 E28.79036
G1 X105.059 Y138.005 E28.85771
G1 X104.345 Y137.995 E28.88977
G1 X101.321 Y137.908 E29.02561
G1 X98.798 Y137.908 E29.1389
G1 X95.469 Y138.001 E29.28843
G1 X95.17 Y138.005 E29.30186
G1 X93.5 Y138.005 E29.37684
G1 X92.107 Y137.981 E29.4394
G1 X91.421 Y137.946 E29.47024
G1 X91.025 Y137.913 E29.48808
G1 X90.324 Y137.831 E29.51977
G1 X89.893 Y137.766 E29.53934
G1 X89.138 Y137.625 E29.57383
G1 X88.713 Y137.529 E29.59339
G1 X88.086 Y137.366 E29.62248
G1 X87.77 Y137.274 E29.63726
G1 X87.097 Y137.054 E29.66905
G1 X86.678 Y136.901 E29.68908
G1 X85.992 Y136.623 E29.72232
G1 X85.627 Y136.46 E29.74027
G1 X85.01 Y136.16 E29.77107
G1 X84.672 Y135.982 E29.78822
G1 X84.028 Y135.614 E29.82153
G1 X83.589 Y135.342 E29.84472
G1 X83.035 Y134.974 E29.87458
G1 X82.735 Y134.761 E29.8911
G1 X82.072 Y134.25 E29.92869
G1 X81.785 Y134.01 E29.94548
G1 X81.273 Y133.553 E29.9763
G1 X80.977 Y133.271 E29.99466
G1 X80.54 Y132.829 E30.02257
G1 X79.993 Y132.229 E30.05902
G1 X79.878 Y132.095 E30.06695
G1 X79.532 Y131.671 E30.09152
G1 X79.176 Y131.2 E30.11803
G1 X79.066 Y131.047 E30.12649
G1 X78.653 Y130.427 E30.15994
G1 X78.382 Y129.988 E30.18311
G1 X78.177 Y129.641 E30.20121
G1 X77.761 Y128.906 E30.23913
G1 X77.66 Y128.723 E30.24851
G1 X70.511 Y115.489 E30.92389
G1 X70.142 Y114.763 E30.96046
G1 X69.9 Y114.245 E30.98613
G1 X69.649 Y113.667 E31.01443
G1 X69.454 Y113.188 E31.03765
G1 X69.301 Y112.777 E31.05734
G1 X69.113 Y112.236 E31.08306
G1 X68.864 Y111.411 E31.12175
G1 X68.685 Y110.686 E31.15528
G1 X68.569 Y110.152 E31.17982
G1 X68.423 Y109.372 E31.21545
G1 X68.351 Y108.898 E31.23698
G1 X68.291 Y108.369 E31.26088
G1 X68.239 Y107.78 E31.28743
G1 X68.202 Y107.125 E31.31689
G1 X68.182 Y106.36 E31.35125
G1 X68.178 Y106.083 E31.36369
G1 X68.178 Y73.058 E32.84655
G1 X68.187 Y72.393 E32.87641
G1 X68.239 Y71.473 E32.91779
G1 X68.371 Y70.562 E32.95912
G1 X68.582 Y69.666 E33.00045
G1 X68.869 Y68.791 E33.0418
G1 X69.232 Y67.945 E33.08313
G1 X69.666 Y67.133 E33.12448
G1 X70.169 Y66.362 E33.16581
G1 X70.738 Y65.638 E33.20716
G1 X71.366 Y64.966 E33.24846
G0 F3600 X71.758 Y65.144
G1 F1800 X72.439 Y64.551 E33.289
G1 X73.171 Y64.021 E33.32958
G1 X73.946 Y63.558 E33.37011
G1 X74.759 Y63.165 E33.41066
G1 X75.604 Y62.845 E33.45123
G1 X76.473 Y62.602 E33.49175
G1 X77.361 Y62.436 E33.53231
G1 X78.532 Y62.339 E33.58507
G1 X79.188 Y62.326 E33.61453
G1 X80.028 Y62.326 E33.65225
G1 X81.016 Y62.339 E33.69661
G1 X83.653 Y62.339 E33.81502
G1 X84.478 Y62.327 E33.85207
G1 X115.144 Y62.328 E35.22901
G1 X115.975 Y62.34 E35.26632
G1 X118.599 Y62.34 E35.38414
G1 X119.108 Y62.33 E35.407
G1 X119.481 Y62.327 E35.42375
G1 X120.661 Y62.328 E35.47673
G1 X121.359 Y62.338 E35.50808
G1 X122.261 Y62.391 E35.54865
G1 X123.154 Y62.523 E35.58918
G1 X124.032 Y62.734 E35.62973
G1 X124.888 Y63.022 E35.67028
G1 X125.715 Y63.384 E35.71081
G1 X126.507 Y63.819 E35.75139
G1 X127.258 Y64.321 E35.79195
G1 X127.961 Y64.888 E35.8325
G1 X128.611 Y65.515 E35.87305
G1 X129.203 Y66.197 E35.9136
G1 X129.733 Y66.928 E35.95414
G1 X130.195 Y67.704 E35.9947
G1 X130.588 Y68.517 E36.03524
