;FLAVOR:Marlin
;TIME:1633
;Filament used: 2.07801m
;Layer height: 0.15
;MINX:67.378
;MINY:61.116
;MINZ:0.3
;MAXX:132.622
;MAXY:138.806
;MAXZ:9.6
;Generated with Cura_SteamEngine 4.13.0
M140 S90
M105
M190 S90
M104 S235
M105
M109 S235
M82 ;absolute extrusion mode
G21 ;metric values
G90 ;absolute positioning
M82 ;set extruder to absolute mode
M107 ;start with the fan off
G28 X0 Y0 ;move X/Y to min endstops
G28 Z0 ;move Z to min endstops
G1 Z15.0 F9000 ;move the platform down 15mm
G92 E0 ;zero the extruded length
G1 F200 E6 ;extrude 6 mm of feed stock
G92 E0 ;zero the extruded length again
G1 F9000
;Put printing message on LCD screen
M117 Printing...
G92 E0
G92 E0
G1 F3000 E-5
;LAYER_COUNT:63
;LAYER:0
M107
G0 F3600 X70.58 Y64.612 Z0.3
;TYPE:SKIRT
G1 F3000 E0
G1 F1800 X71.271 Y63.953 E0.04287
G1 X72.015 Y63.355 E0.08573
G1 X72.806 Y62.82 E0.12861
G1 X73.639 Y62.354 E0.17147
G1 X74.509 Y61.959 E0.21437
G1 X75.408 Y61.638 E0.25723
G1 X76.331 Y61.394 E0.3001
G1 X77.271 Y61.227 E0.34297
G1 X78.503 Y61.13 E0.39846
G1 X79.188 Y61.116 E0.42922
G1 X80.028 Y61.116 E0.46694
G1 X81.033 Y61.129 E0.51207
G1 X83.628 Y61.129 E0.62859
G1 X84.469 Y61.117 E0.66635
G1 X115.162 Y61.118 E2.04451
G1 X115.993 Y61.13 E2.08182
G1 X118.619 Y61.13 E2.19973
G1 X119.482 Y61.117 E2.23849
G1 X120.712 Y61.117 E2.29371
G1 X121.382 Y61.127 E2.3238
G1 X122.335 Y61.181 E2.36666
G1 X123.281 Y61.315 E2.40956
G1 X124.212 Y61.528 E2.45245
G1 X125.121 Y61.817 E2.49527
G1 X126.004 Y62.182 E2.53818
G1 X126.853 Y62.619 E2.58105
G1 X127.662 Y63.126 E2.62392
G1 X128.426 Y63.699 E2.6668
G1 X129.139 Y64.333 E2.70964
G1 X129.797 Y65.025 E2.75252
G1 X130.394 Y65.77 E2.79538
G1 X130.928 Y66.562 E2.83827
G1 X131.392 Y67.396 E2.88113
G1 X131.786 Y68.266 E2.92401
G1 X132.105 Y69.166 E2.96688
G1 X132.348 Y70.089 E3.00974
G1 X132.513 Y71.029 E3.05259
G1 X132.607 Y72.182 E3.10453
G1 X132.622 Y72.857 E3.13485
G1 X132.621 Y106.141 E4.62934
G1 X132.613 Y106.575 E4.64883
G1 X132.576 Y107.547 E4.69251
G1 X132.534 Y108.175 E4.72077
G1 X132.471 Y108.777 E4.74795
G1 X132.398 Y109.292 E4.7713
G1 X132.262 Y110.08 E4.80721
G1 X132.144 Y110.665 E4.834
G1 X131.918 Y111.587 E4.87663
G1 X131.731 Y112.205 E4.90562
G1 X131.503 Y112.898 E4.93838
G1 X131.148 Y113.835 E4.98337
G1 X130.907 Y114.396 E5.01078
G1 X130.675 Y114.905 E5.0359
G1 X130.501 Y115.259 E5.05361
G1 X130.152 Y115.94 E5.08797
G1 X130.035 Y116.163 E5.09928
G1 X128.398 Y119.191 E5.25384
G1 X124.667 Y126.107 E5.60668
G1 X122.986 Y129.212 E5.76522
G1 X122.877 Y129.409 E5.77533
G1 X122.459 Y130.146 E5.81337
G1 X122.171 Y130.631 E5.8387
G1 X121.9 Y131.055 E5.86129
G1 X121.819 Y131.176 E5.86783
G1 X121.401 Y131.76 E5.90008
G1 X121.105 Y132.147 E5.92195
G1 X120.629 Y132.728 E5.95568
G1 X120.092 Y133.323 E5.99167
G1 X119.609 Y133.818 E6.02272
G1 X119.231 Y134.182 E6.04628
G1 X118.321 Y134.954 E6.09987
G1 X117.734 Y135.402 E6.13302
G1 X117.17 Y135.807 E6.1642
G1 X116.936 Y135.964 E6.17685
G1 X116.392 Y136.307 E6.20573
G1 X116.191 Y136.426 E6.21622
G1 X115.408 Y136.849 E6.25618
G1 X114.96 Y137.069 E6.27859
G1 X114.252 Y137.387 E6.31344
G1 X113.773 Y137.583 E6.33667
G1 X113.008 Y137.864 E6.37327
G1 X112.514 Y138.026 E6.39661
G1 X111.727 Y138.254 E6.4334
G1 X111.635 Y138.277 E6.43766
G1 X110.933 Y138.429 E6.46991
G1 X110.308 Y138.544 E6.49844
G1 X109.558 Y138.656 E6.53249
G1 X109.213 Y138.696 E6.54809
G1 X108.466 Y138.758 E6.58175
G1 X107.752 Y138.787 E6.61383
G1 X106.559 Y138.806 E6.66741
G1 X105.047 Y138.805 E6.7353
G1 X104.333 Y138.795 E6.76736
G1 X101.335 Y138.708 E6.90203
G1 X98.82 Y138.708 E7.01496
G1 X95.491 Y138.8 E7.16449
G1 X95.17 Y138.805 E7.1789
G1 X93.5 Y138.805 E7.25389
G1 X93.291 Y138.803 E7.26327
G1 X92.092 Y138.781 E7.31712
G1 X91.354 Y138.744 E7.3503
G1 X90.958 Y138.711 E7.36814
G1 X90.205 Y138.623 E7.40218
G1 X89.774 Y138.558 E7.42175
G1 X88.962 Y138.405 E7.45885
G1 X88.537 Y138.309 E7.47842
G1 X87.862 Y138.135 E7.50972
G1 X87.546 Y138.043 E7.52449
G1 X86.823 Y137.805 E7.55867
G1 X86.404 Y137.652 E7.5787
G1 X85.666 Y137.353 E7.61445
G1 X85.301 Y137.19 E7.6324
G1 X84.637 Y136.868 E7.66554
G1 X84.299 Y136.69 E7.68269
G1 X83.607 Y136.294 E7.71849
G1 X83.168 Y136.022 E7.74168
G1 X82.572 Y135.626 E7.77381
G1 X82.272 Y135.413 E7.79033
G1 X81.559 Y134.863 E7.83076
G1 X81.272 Y134.623 E7.84756
G1 X80.722 Y134.132 E7.88066
G1 X80.426 Y133.85 E7.89902
G1 X79.955 Y133.374 E7.92909
G1 X79.386 Y132.75 E7.96701
G1 X79.271 Y132.616 E7.97493
G1 X78.899 Y132.16 E8.00136
G1 X78.527 Y131.667 E8.02909
G1 X78.417 Y131.514 E8.03755
G1 X77.972 Y130.847 E8.07355
G1 X77.701 Y130.408 E8.09672
G1 X77.481 Y130.035 E8.11616
G1 X77.065 Y129.3 E8.15408
G1 X76.956 Y129.103 E8.16419
G1 X69.807 Y115.869 E8.83958
G1 X69.427 Y115.121 E8.87725
G1 X69.166 Y114.564 E8.90487
G1 X68.915 Y113.986 E8.93316
G1 X68.71 Y113.482 E8.95759
G1 X68.546 Y113.04 E8.97876
G1 X68.358 Y112.499 E9.00448
G1 X68.089 Y111.611 E9.04614
G1 X67.903 Y110.856 E9.08105
G1 X67.787 Y110.322 E9.10559
G1 X67.635 Y109.509 E9.14273
G1 X67.559 Y109.008 E9.16548
G1 X67.494 Y108.44 E9.19115
G1 X67.442 Y107.851 E9.2177
G1 X67.402 Y107.146 E9.2494
G1 X67.382 Y106.381 E9.28377
G1 X67.378 Y106.083 E9.29715
G1 X67.378 Y73.051 E10.78032
G1 X67.387 Y72.374 E10.81072
G1 X67.44 Y71.421 E10.85358
G1 X67.572 Y70.476 E10.89642
G1 X67.783 Y69.544 E10.93933
G1 X68.071 Y68.634 E10.98219
G1 X68.434 Y67.751 E11.02506
G1 X68.87 Y66.902 E11.06791
G1 X69.375 Y66.092 E11.11077
G1 X69.947 Y65.327 E11.15366
G1 X70.58 Y64.612 E11.19654
G0 F3600 X70.973 Y64.783
G1 F1800 X71.661 Y64.146 E11.23864
G1 X72.4 Y63.569 E11.28074
G1 X73.187 Y63.058 E11.32287
G1 X74.014 Y62.615 E11.36499
G1 X74.875 Y62.245 E11.40707
G1 X75.765 Y61.949 E11.44919
G1 X76.677 Y61.73 E11.4913
G1 X77.604 Y61.59 E11.5334
G1 X78.512 Y61.529 E11.57426
G1 X79.188 Y61.516 E11.60462
G1 X80.028 Y61.516 E11.64233
G1 X81.028 Y61.529 E11.68724
G1 X83.636 Y61.529 E11.80434
G1 X84.472 Y61.517 E11.84188
G1 X115.156 Y61.518 E13.21963
G1 X115.987 Y61.53 E13.25695
G1 X118.628 Y61.53 E13.37553
G1 X119.486 Y61.517 E13.41406
G1 X120.706 Y61.517 E13.46884
G1 X121.376 Y61.527 E13.49893
G1 X122.312 Y61.581 E13.54102
G1 X123.241 Y61.715 E13.58317
G1 X124.154 Y61.927 E13.62525
G1 X125.047 Y62.216 E13.6674
G1 X125.911 Y62.58 E13.7095
G1 X126.741 Y63.017 E13.75161
G1 X127.531 Y63.522 E13.79371
G1 X128.275 Y64.093 E13.83583
G1 X128.968 Y64.725 E13.87794
G1 X129.604 Y65.414 E13.92004
G1 X130.179 Y66.155 E13.96215
G1 X130.689 Y66.942 E14.00426
G1 X131.131 Y67.77 E14.04641
G1 X131.5 Y68.632 E14.08851
G1 X131.794 Y69.522 E14.13059
G1 X132.011 Y70.435 E14.17273
G1 X132.15 Y71.362 E14.21482
G1 X132.207 Y72.194 E14.25227
G1 X132.222 Y72.857 E14.28204
G1 X132.221 Y106.141 E15.77653
G1 X132.213 Y106.559 E15.79531
G1 X132.176 Y107.531 E15.83898
G1 X132.136 Y108.138 E15.8663
G1 X132.074 Y108.726 E15.89284
G1 X132.004 Y109.228 E15.9156
G1 X131.87 Y110.001 E15.95083
G1 X131.752 Y110.586 E15.97762
G1 X131.534 Y111.475 E16.01872
G1 X131.351 Y112.08 E16.04711
G1 X131.123 Y112.773 E16.07986
G1 X130.781 Y113.677 E16.12326
G1 X130.54 Y114.238 E16.15068
G1 X130.313 Y114.735 E16.17521
G1 X130.145 Y115.077 E16.19232
G1 X129.796 Y115.758 E16.22668
G1 X129.683 Y115.972 E16.23754
G1 X128.046 Y119 E16.3921
G1 X124.315 Y125.917 E16.74498
G1 X122.634 Y129.022 E16.90352
G1 X122.529 Y129.212 E16.91327
G1 X122.111 Y129.949 E16.95131
G1 X121.829 Y130.423 E16.97608
G1 X121.487 Y130.953 E17.0044
G1 X121.083 Y131.517 E17.03555
G1 X120.787 Y131.904 E17.05743
G1 X120.328 Y132.465 E17.08998
G1 X119.798 Y133.051 E17.12545
G1 X119.326 Y133.535 E17.15581
G1 X118.956 Y133.891 E17.17886
G1 X118.079 Y134.636 E17.23053
G1 X117.492 Y135.084 E17.26369
G1 X116.947 Y135.474 E17.29378
G1 X116.713 Y135.631 E17.30643
G1 X116.188 Y135.963 E17.33432
G1 X115.987 Y136.082 E17.34481
G1 X115.232 Y136.49 E17.38334
G1 X114.784 Y136.71 E17.40576
G1 X114.101 Y137.017 E17.43938
G1 X113.622 Y137.213 E17.46262
G1 X112.884 Y137.484 E17.49792
G1 X112.39 Y137.646 E17.52126
G1 X111.63 Y137.866 E17.55679
G1 X111.538 Y137.889 E17.56104
G1 X110.861 Y138.035 E17.59214
G1 X110.236 Y138.15 E17.62068
G1 X109.512 Y138.259 E17.65355
G1 X109.167 Y138.299 E17.66915
G1 X108.446 Y138.358 E17.70163
G1 X107.745 Y138.387 E17.73313
G1 X106.559 Y138.406 E17.78639
G1 X105.053 Y138.405 E17.85401
G1 X104.339 Y138.395 E17.88607
G1 X101.31 Y138.308 E18.02214
G1 X98.809 Y138.308 E18.13443
G1 X95.48 Y138.401 E18.28397
G1 X95.17 Y138.405 E18.29789
G1 X93.5 Y138.405 E18.37287
G1 X93.298 Y138.403 E18.38194
G1 X92.099 Y138.381 E18.43579
G1 X91.387 Y138.345 E18.4678
G1 X90.991 Y138.312 E18.48564
G1 X90.265 Y138.227 E18.51846
G1 X89.834 Y138.162 E18.53803
G1 X89.05 Y138.015 E18.57385
G1 X88.625 Y137.919 E18.59341
G1 X87.974 Y137.75 E18.62361
G1 X87.658 Y137.658 E18.63839
G1 X86.96 Y137.43 E18.67136
G1 X86.541 Y137.277 E18.69139
G1 X85.829 Y136.988 E18.72589
G1 X85.464 Y136.825 E18.74384
G1 X84.823 Y136.514 E18.77583
G1 X84.485 Y136.336 E18.79299
G1 X83.817 Y135.954 E18.82754
G1 X83.378 Y135.682 E18.85073
G1 X82.804 Y135.3 E18.88169
G1 X82.504 Y135.087 E18.89821
G1 X81.816 Y134.556 E18.93723
G1 X81.529 Y134.316 E18.95403
G1 X80.997 Y133.842 E18.98602
G1 X80.701 Y133.56 E19.00438
G1 X80.247 Y133.102 E19.03333
G1 X79.69 Y132.49 E19.07049
G1 X79.575 Y132.356 E19.07842
G1 X79.216 Y131.915 E19.10395
G1 X78.852 Y131.433 E19.13107
G1 X78.742 Y131.28 E19.13953
G1 X78.313 Y130.637 E19.17424
G1 X78.042 Y130.198 E19.19741
G1 X77.829 Y129.838 E19.21619
G1 X77.413 Y129.103 E19.25411
G1 X77.308 Y128.913 E19.26386
G1 X70.159 Y115.679 E19.93924
G1 X69.784 Y114.942 E19.97637
G1 X69.533 Y114.405 E20.00298
G1 X69.282 Y113.827 E20.03128
G1 X69.082 Y113.335 E20.05512
G1 X68.923 Y112.909 E20.07554
G1 X68.735 Y112.368 E20.10126
G1 X68.476 Y111.511 E20.14146
G1 X68.294 Y110.771 E20.17567
G1 X68.178 Y110.237 E20.20021
G1 X68.029 Y109.441 E20.23657
G1 X67.955 Y108.953 E20.25874
G1 X67.893 Y108.404 E20.28354
G1 X67.841 Y107.815 E20.31009
G1 X67.802 Y107.135 E20.34068
G1 X67.782 Y106.37 E20.37504
G1 X67.778 Y106.083 E20.38792
G1 X67.778 Y73.057 E21.87083
G1 X67.787 Y72.38 E21.90123
G1 X67.839 Y71.443 E21.94337
G1 X67.971 Y70.515 E21.98546
G1 X68.182 Y69.601 E22.02758
G1 X68.47 Y68.708 E22.06971
G1 X68.832 Y67.843 E22.11181
G1 X69.268 Y67.013 E22.15391
G1 X69.772 Y66.222 E22.19602
G1 X70.342 Y65.477 E22.23814
G1 X70.973 Y64.783 E22.28026
G0 F3600 X71.365 Y64.957
G1 F1800 X72.049 Y64.342 E22.32156
G1 X72.785 Y63.788 E22.36292
G1 X73.566 Y63.301 E22.40425
G1 X74.386 Y62.882 E22.44559
G1 X75.239 Y62.537 E22.48691
G1 X76.12 Y62.267 E22.52828
G1 X77.02 Y62.074 E22.56961
G1 X77.933 Y61.96 E22.61093
G1 X78.522 Y61.929 E22.63741
G1 X79.188 Y61.916 E22.66732
G1 X80.028 Y61.916 E22.70504
G1 X81.022 Y61.929 E22.74967
G1 X83.644 Y61.929 E22.8674
G1 X84.475 Y61.917 E22.90472
G1 X115.15 Y61.918 E24.28206
G1 X115.981 Y61.93 E24.31938
G1 X118.591 Y61.93 E24.43657
G1 X119.107 Y61.92 E24.45975
G1 X119.561 Y61.917 E24.48013
G1 X120.7 Y61.917 E24.53127
G1 X121.37 Y61.927 E24.56136
G1 X122.289 Y61.981 E24.6027
G1 X123.2 Y62.114 E24.64403
G1 X124.096 Y62.326 E24.68538
G1 X124.97 Y62.615 E24.72671
G1 X125.816 Y62.978 E24.76805
G1 X126.627 Y63.414 E24.80939
G1 X127.398 Y63.918 E24.85075
G1 X128.121 Y64.487 E24.89206
G1 X128.793 Y65.117 E24.93342
G1 X129.407 Y65.803 E24.97476
G1 X129.959 Y66.539 E25.01607
G1 X130.446 Y67.321 E25.05743
G1 X130.863 Y68.142 E25.09878
G1 X131.207 Y68.996 E25.14012
G1 X131.475 Y69.876 E25.18142
G1 X131.667 Y70.777 E25.22279
G1 X131.779 Y71.691 E25.26413
G1 X131.807 Y72.206 E25.28729
G1 X131.822 Y72.857 E25.31653
G1 X131.821 Y106.141 E26.81102
G1 X131.813 Y106.544 E26.82912
G1 X131.776 Y107.516 E26.8728
G1 X131.738 Y108.101 E26.89912
G1 X131.678 Y108.675 E26.92503
G1 X131.55 Y109.527 E26.96372
G1 X131.478 Y109.922 E26.98175
G1 X131.36 Y110.507 E27.00854
G1 X131.149 Y111.364 E27.04817
G1 X130.971 Y111.955 E27.07588
G1 X130.743 Y112.648 E27.10864
G1 X130.413 Y113.519 E27.15046
G1 X130.172 Y114.08 E27.17788
G1 X129.951 Y114.565 E27.20181
G1 X129.789 Y114.894 E27.21828
G1 X129.332 Y115.782 E27.26312
G1 X127.694 Y118.81 E27.4177
G1 X123.964 Y125.727 E27.77056
G1 X122.283 Y128.832 E27.9291
G1 X121.763 Y129.751 E27.97651
G1 X121.487 Y130.215 E28.00075
G1 X121.155 Y130.731 E28.0283
G1 X120.766 Y131.274 E28.05829
G1 X120.47 Y131.661 E28.08017
G1 X120.027 Y132.201 E28.11153
G1 X119.504 Y132.78 E28.14657
G1 X119.043 Y133.252 E28.17619
G1 X118.682 Y133.6 E28.19871
G1 X117.836 Y134.318 E28.24853
G1 X117.249 Y134.766 E28.28168
G1 X116.724 Y135.142 E28.31068
G1 X116.49 Y135.299 E28.32333
G1 X115.984 Y135.618 E28.35019
G1 X115.783 Y135.737 E28.36068
G1 X115.055 Y136.131 E28.39785
G1 X114.607 Y136.351 E28.42026
G1 X113.949 Y136.646 E28.45264
G1 X113.47 Y136.842 E28.47587
G1 X112.759 Y137.104 E28.5099
G1 X112.265 Y137.266 E28.53324
G1 X111.533 Y137.478 E28.56746
G1 X111.441 Y137.501 E28.57172
G1 X110.788 Y137.642 E28.60171
G1 X110.163 Y137.757 E28.63025
G1 X109.466 Y137.861 E28.66189
G1 X109.121 Y137.901 E28.67749
G1 X108.426 Y137.959 E28.7088
G1 X107.738 Y137.987 E28.73972
G1 X106.559 Y138.006 E28.79266
G1 X105.059 Y138.005 E28.86002
G1 X104.345 Y137.995 E28.89208
G1 X101.321 Y137.908 E29.02792
G1 X98.798 Y137.908 E29.1412
G1 X95.469 Y138.001 E29.29074
G1 X95.17 Y138.005 E29.30416
G1 X93.5 Y138.005 E29.37915
G1 X92.107 Y137.981 E29.4417
G1 X91.421 Y137.946 E29.47255
G1 X91.025 Y137.913 E29.49039
G1 X90.324 Y137.831 E29.52208
G1 X89.893 Y137.766 E29.54165
G1 X89.138 Y137.625 E29.57614
G1 X88.713 Y137.529 E29.5957
G1 X88.086 Y137.366 E29.62479
G1 X87.77 Y137.274 E29.63957
G1 X87.097 Y137.054 E29.67136
G1 X86.678 Y136.901 E29.69139
G1 X85.992 Y136.623 E29.72462
G1 X85.627 Y136.46 E29.74257
G1 X85.01 Y136.16 E29.77338
G1 X84.672 Y135.982 E29.79053
G1 X84.028 Y135.614 E29.82383
G1 X83.589 Y135.342 E29.84702
G1 X83.035 Y134.974 E29.87689
G1 X82.735 Y134.761 E29.89341
G1 X82.072 Y134.25 E29.93099
G1 X81.785 Y134.01 E29.94779
G1 X81.273 Y133.553 E29.97861
G1 X80.977 Y133.271 E29.99696
G1 X80.54 Y132.829 E30.02487
G1 X79.993 Y132.229 E30.06133
G1 X79.878 Y132.095 E30.06926
G1 X79.532 Y131.671 E30.09383
G1 X79.176 Y131.2 E30.12034
G1 X79.066 Y131.047 E30.1288
G1 X78.653 Y130.427 E30.16225
G1 X78.382 Y129.988 E30.18541
G1 X78.177 Y129.641 E30.20351
G1 X77.761 Y128.906 E30.24143
G1 X77.66 Y128.723 E30.25082
G1 X70.511 Y115.489 E30.9262
G1 X70.142 Y114.763 E30.96277
G1 X69.9 Y114.245 E30.98844
G1 X69.649 Y113.667 E31.01673
G1 X69.454 Y113.188 E31.03995
G1 X69.301 Y112.777 E31.05965
G1 X69.113 Y112.236 E31.08536
G1 X68.864 Y111.411 E31.12406
G1 X68.685 Y110.686 E31.15759
G1 X68.569 Y110.152 E31.18212
G1 X68.423 Y109.372 E31.21775
G1 X68.351 Y108.898 E31.23928
G1 X68.291 Y108.369 E31.26319
G1 X68.239 Y107.78 E31.28974
G1 X68.202 Y107.125 E31.31919
G1 X68.182 Y106.36 E31.35355
G1 X68.178 Y106.083 E31.36599
G1 X68.178 Y73.062 E32.84868
G1 X68.187 Y72.385 E32.87908
G1 X68.239 Y71.466 E32.92041
G1 X68.371 Y70.555 E32.96174
G1 X68.581 Y69.658 E33.0031
G1 X68.869 Y68.784 E33.04442
G1 X69.231 Y67.937 E33.08578
G1 X69.665 Y67.126 E33.12708
G1 X70.168 Y66.354 E33.16846
G1 X70.736 Y65.63 E33.20977
G1 X71.365 Y64.957 E33.25114
G0 F3600 X71.756 Y65.135
G1 F1800 X72.437 Y64.543 E33.29165
G1 X73.168 Y64.012 E33.33222
G1 X73.944 Y63.549 E33.3728
G1 X74.757 Y63.156 E33.41334
G1 X75.601 Y62.836 E33.45387
G1 X76.471 Y62.592 E33.49444
G1 X77.359 Y62.426 E33.535
G1 X78.532 Y62.329 E33.58785
G1 X79.188 Y62.316 E33.61731
G1 X80.028 Y62.316 E33.65503
G1 X81.016 Y62.329 E33.6994
G1 X83.653 Y62.329 E33.8178
G1 X84.478 Y62.317 E33.85485
G1 X115.144 Y62.318 E35.23179
G1 X115.975 Y62.33 E35.26911
G1 X118.599 Y62.33 E35.38693
G1 X119.11 Y62.32 E35.40988
G1 X119.561 Y62.317 E35.43013
G1 X120.694 Y62.317 E35.481
G1 X121.364 Y62.327 E35.51109
G1 X122.266 Y62.381 E35.55166
G1 X123.159 Y62.514 E35.5922
G1 X124.037 Y62.725 E35.63274
G1 X124.893 Y63.013 E35.6733
G1 X125.72 Y63.376 E35.71385
G1 X126.512 Y63.811 E35.75442
G1 X127.262 Y64.314 E35.79497
G1 X127.964 Y64.881 E35.83549
G1 X128.614 Y65.508 E35.87604
G1 X129.206 Y66.19 E35.91659
G1 X129.735 Y66.922 E35.95714
G1 X130.197 Y67.698 E35.99769
G1 X130.589 Y68.512 E36.03826
