;FLAVOR:Marlin
;TIME:2917
;Filament used: 2.76315m
;Layer height: 0.15
;MINX:67.778
;MINY:61.5
;MINZ:0.3
;MAXX:132.222
;MAXY:138.406
;MAXZ:9.6
;Generated with Cura_SteamEngine 4.13.0
M140 S90
M105
M190 S90
M104 S235
M105
M109 S235
M82 ;absolute extrusion mode
G21 ;metric values
G90 ;absolute positioning
M82 ;set extruder to absolute mode
M107 ;start with the fan off
G28 X0 Y0 ;move X/Y to min endstops
G28 Z0 ;move Z to min endstops
G1 Z15.0 F9000 ;move the platform down 15mm
G92 E0 ;zero the extruded length
G1 F200 E6 ;extrude 6 mm of feed stock
G92 E0 ;zero the extruded length again
G1 F9000
;Put printing message on LCD screen
M117 Printing...
G92 E0
G92 E0
G1 F3000 E-5
;LAYER_COUNT:63
;LAYER:0
M107
G1 F600 Z1.3
G0 F3600 X70.97 Y64.77 Z1.3
;TYPE:SKIRT
G1 F600 Z0.3
G1 F3000 E0
G1 F1800 X71.657 Y64.132 E0.0421
G1 X72.397 Y63.556 E0.0842
G1 X73.183 Y63.044 E0.12632
G1 X74.01 Y62.601 E0.16845
G1 X74.871 Y62.23 E0.21054
G1 X75.761 Y61.934 E0.25266
G1 X76.673 Y61.715 E0.29477
G1 X77.6 Y61.574 E0.33687
G1 X78.512 Y61.513 E0.37792
G1 X79.188 Y61.5 E0.40828
G1 X80.04 Y61.5 E0.44653
G1 X80.337 Y61.503 E0.45987
G1 X82.461 Y61.503 E0.55524
G1 X82.548 Y61.507 E0.55915
G1 X83.302 Y61.501 E0.593
G1 X83.547 Y61.502 E0.60401
G1 X84.159 Y61.511 E0.63149
G1 X85.095 Y61.565 E0.67359
G1 X85.708 Y61.644 E0.70134
G1 X86.088 Y61.704 E0.71861
G1 X88.667 Y62.071 E0.83558
G1 X91.17 Y62.357 E0.9487
G1 X93.692 Y62.573 E1.06235
G1 X96.192 Y62.714 E1.17478
G1 X98.691 Y62.786 E1.28704
G1 X101.214 Y62.788 E1.40032
G1 X103.734 Y62.717 E1.51352
G1 X106.256 Y62.575 E1.62694
G1 X108.779 Y62.362 E1.74063
G1 X111.234 Y62.084 E1.85157
G1 X113.106 Y61.807 E1.93654
G1 X114.402 Y61.627 E1.99529
G1 X115.697 Y61.524 E2.05362
G1 X116.654 Y61.505 E2.0966
G1 X116.872 Y61.503 E2.10638
G1 X118.461 Y61.503 E2.17773
G1 X118.549 Y61.507 E2.18169
G1 X119.483 Y61.5 E2.22363
G1 X120.673 Y61.501 E2.27706
G1 X121.371 Y61.511 E2.3084
G1 X122.307 Y61.565 E2.3505
G1 X123.235 Y61.697 E2.39259
G1 X124.149 Y61.909 E2.43472
G1 X125.041 Y62.198 E2.47682
G1 X125.906 Y62.561 E2.51894
G1 X126.736 Y62.997 E2.56104
G1 X127.527 Y63.502 E2.60318
G1 X128.271 Y64.073 E2.64529
G1 X128.964 Y64.705 E2.6874
G1 X129.601 Y65.393 E2.7295
G1 X130.176 Y66.134 E2.77161
G1 X130.687 Y66.92 E2.81371
G1 X131.129 Y67.748 E2.85585
G1 X131.498 Y68.61 E2.89795
G1 X131.793 Y69.5 E2.94005
G1 X132.011 Y70.412 E2.98216
G1 X132.151 Y71.34 E3.0243
G1 X132.208 Y72.194 E3.06273
G1 X132.222 Y72.823 E3.09098
G1 X132.221 Y106.141 E4.587
G1 X132.213 Y106.559 E4.60577
G1 X132.176 Y107.531 E4.64944
G1 X132.136 Y108.138 E4.67676
G1 X132.074 Y108.726 E4.70331
G1 X132.004 Y109.228 E4.72606
G1 X131.87 Y110.001 E4.76129
G1 X131.752 Y110.586 E4.78809
G1 X131.534 Y111.475 E4.82919
G1 X131.351 Y112.08 E4.85757
G1 X131.123 Y112.773 E4.89032
G1 X130.781 Y113.677 E4.93372
G1 X130.54 Y114.238 E4.96114
G1 X130.313 Y114.735 E4.98567
G1 X130.145 Y115.077 E5.00278
G1 X129.796 Y115.758 E5.03714
G1 X129.683 Y115.972 E5.04801
G1 X128.046 Y119 E5.20256
G1 X124.315 Y125.917 E5.55545
G1 X122.634 Y129.022 E5.71398
G1 X122.529 Y129.212 E5.72373
G1 X122.111 Y129.949 E5.76178
G1 X121.829 Y130.423 E5.78654
G1 X121.487 Y130.953 E5.81486
G1 X121.083 Y131.517 E5.84601
G1 X120.787 Y131.904 E5.86789
G1 X120.328 Y132.465 E5.90044
G1 X119.798 Y133.051 E5.93592
G1 X119.326 Y133.535 E5.96627
G1 X118.956 Y133.891 E5.98933
G1 X118.079 Y134.636 E6.04099
G1 X117.492 Y135.084 E6.07415
G1 X116.947 Y135.474 E6.10424
G1 X116.713 Y135.631 E6.11689
G1 X116.188 Y135.963 E6.14479
G1 X115.987 Y136.082 E6.15527
G1 X115.232 Y136.49 E6.19381
G1 X114.784 Y136.71 E6.21622
G1 X114.101 Y137.017 E6.24984
G1 X113.622 Y137.213 E6.27308
G1 X112.884 Y137.484 E6.30838
G1 X112.39 Y137.646 E6.33172
G1 X111.63 Y137.866 E6.36725
G1 X111.538 Y137.889 E6.37151
G1 X110.861 Y138.035 E6.4026
G1 X110.236 Y138.15 E6.43114
G1 X109.512 Y138.259 E6.46401
G1 X109.167 Y138.299 E6.47961
G1 X108.445 Y138.359 E6.51214
G1 X107.746 Y138.387 E6.54355
G1 X106.559 Y138.406 E6.59685
G1 X105.017 Y138.404 E6.66609
G1 X104.384 Y138.395 E6.69452
G1 X101.405 Y138.308 E6.82833
G1 X98.875 Y138.306 E6.94193
G1 X95.48 Y138.401 E7.09443
G1 X95.17 Y138.405 E7.10835
G1 X93.5 Y138.405 E7.18334
G1 X93.298 Y138.403 E7.19241
G1 X92.099 Y138.381 E7.24626
G1 X91.387 Y138.345 E7.27827
G1 X90.991 Y138.312 E7.29611
G1 X90.265 Y138.227 E7.32893
G1 X89.834 Y138.162 E7.3485
G1 X89.05 Y138.015 E7.38432
G1 X88.625 Y137.919 E7.40388
G1 X87.974 Y137.75 E7.43408
G1 X87.658 Y137.658 E7.44886
G1 X86.96 Y137.43 E7.48183
G1 X86.541 Y137.277 E7.50186
G1 X85.829 Y136.988 E7.53636
G1 X85.464 Y136.825 E7.55431
G1 X84.823 Y136.514 E7.5863
G1 X84.485 Y136.336 E7.60345
G1 X83.817 Y135.954 E7.638
G1 X83.378 Y135.682 E7.66119
G1 X82.804 Y135.3 E7.69215
G1 X82.504 Y135.087 E7.70867
G1 X81.816 Y134.556 E7.74769
G1 X81.529 Y134.316 E7.76449
G1 X80.997 Y133.842 E7.79649
G1 X80.701 Y133.56 E7.81484
G1 X80.247 Y133.102 E7.8438
G1 X79.69 Y132.49 E7.88096
G1 X79.575 Y132.356 E7.88888
G1 X79.216 Y131.915 E7.91442
G1 X78.902 Y131.502 E7.93771
G1 X78.826 Y131.398 E7.9435
G1 X78.34 Y130.676 E7.98258
G1 X77.973 Y130.08 E8.014
G1 X77.749 Y129.698 E8.03389
G1 X77.348 Y128.984 E8.07066
G1 X70.965 Y117.176 E8.67336
G1 X70.2 Y115.754 E8.74586
G1 X69.936 Y115.247 E8.77153
G1 X69.789 Y114.954 E8.78624
G1 X69.524 Y114.386 E8.81439
G1 X69.275 Y113.81 E8.84256
G1 X69.082 Y113.335 E8.86558
G1 X68.923 Y112.909 E8.886
G1 X68.735 Y112.368 E8.91172
G1 X68.476 Y111.511 E8.95192
G1 X68.294 Y110.771 E8.98613
G1 X68.178 Y110.237 E9.01067
G1 X68.029 Y109.441 E9.04703
G1 X67.955 Y108.953 E9.0692
G1 X67.893 Y108.404 E9.094
G1 X67.841 Y107.815 E9.12055
G1 X67.802 Y107.135 E9.15114
G1 X67.782 Y106.37 E9.1855
G1 X67.778 Y106.083 E9.19838
G1 X67.778 Y73.065 E10.68093
G1 X67.787 Y72.368 E10.71223
G1 X67.839 Y71.432 E10.75432
G1 X67.971 Y70.503 E10.79645
G1 X68.181 Y69.589 E10.83856
G1 X68.468 Y68.696 E10.88068
G1 X68.831 Y67.831 E10.9228
G1 X69.265 Y67 E10.9649
G1 X69.769 Y66.209 E11.00701
G1 X70.339 Y65.464 E11.04913
G1 X70.97 Y64.77 E11.09125
G0 F3600 X71.362 Y64.944
G1 F1800 X72.046 Y64.329 E11.13255
G1 X72.782 Y63.775 E11.17391
G1 X73.562 Y63.287 E11.21522
G1 X74.382 Y62.868 E11.25657
G1 X75.236 Y62.522 E11.29794
G1 X76.116 Y62.252 E11.33927
G1 X77.016 Y62.059 E11.3806
G1 X77.929 Y61.945 E11.42192
G1 X78.522 Y61.913 E11.44858
G1 X79.188 Y61.9 E11.47849
G1 X80.04 Y61.9 E11.51675
G1 X80.331 Y61.903 E11.52981
G1 X82.461 Y61.903 E11.62545
G1 X82.547 Y61.907 E11.62932
G1 X83.305 Y61.901 E11.66336
G1 X83.541 Y61.902 E11.67395
G1 X84.153 Y61.911 E11.70144
G1 X85.072 Y61.965 E11.74277
G1 X85.646 Y62.039 E11.76876
G1 X86.045 Y62.102 E11.78689
G1 X88.601 Y62.466 E11.90282
G1 X91.158 Y62.758 E12.01838
G1 X93.635 Y62.97 E12.13001
G1 X96.159 Y63.113 E12.24352
G1 X98.715 Y63.186 E12.35833
G1 X101.225 Y63.188 E12.47103
G1 X103.769 Y63.117 E12.58531
G1 X106.276 Y62.976 E12.69805
G1 X108.787 Y62.763 E12.8112
G1 X111.277 Y62.481 E12.92372
G1 X113.161 Y62.203 E13.00923
G1 X114.457 Y62.023 E13.06798
G1 X115.705 Y61.924 E13.1242
G1 X116.662 Y61.905 E13.16717
G1 X116.872 Y61.903 E13.1766
G1 X118.461 Y61.903 E13.24795
G1 X118.549 Y61.907 E13.25191
G1 X119.486 Y61.9 E13.29398
G1 X120.667 Y61.901 E13.34701
G1 X121.365 Y61.911 E13.37835
G1 X122.284 Y61.964 E13.41969
G1 X123.195 Y62.097 E13.46103
G1 X124.091 Y62.308 E13.50236
G1 X124.965 Y62.596 E13.54368
G1 X125.812 Y62.959 E13.58505
G1 X126.623 Y63.394 E13.62638
G1 X127.393 Y63.898 E13.6677
G1 X128.117 Y64.467 E13.70904
G1 X128.789 Y65.097 E13.7504
G1 X129.404 Y65.782 E13.79174
G1 X129.957 Y66.518 E13.83307
G1 X130.444 Y67.299 E13.8744
G1 X130.861 Y68.12 E13.91575
G1 X131.206 Y68.974 E13.9571
G1 X131.475 Y69.854 E13.99842
G1 X131.667 Y70.755 E14.03979
G1 X131.78 Y71.668 E14.08109
G1 X131.809 Y72.205 E14.10524
G1 X131.822 Y72.823 E14.133
G1 X131.821 Y106.141 E15.62901
G1 X131.813 Y106.544 E15.64711
G1 X131.776 Y107.516 E15.69079
G1 X131.738 Y108.101 E15.71711
G1 X131.678 Y108.675 E15.74302
G1 X131.55 Y109.527 E15.78171
G1 X131.478 Y109.922 E15.79974
G1 X131.36 Y110.507 E15.82653
G1 X131.149 Y111.364 E15.86616
G1 X130.971 Y111.955 E15.89388
G1 X130.743 Y112.648 E15.92664
G1 X130.413 Y113.519 E15.96846
G1 X130.172 Y114.08 E15.99587
G1 X129.951 Y114.565 E16.0198
G1 X129.789 Y114.894 E16.03627
G1 X129.332 Y115.782 E16.08111
G1 X127.694 Y118.81 E16.23569
G1 X123.964 Y125.727 E16.58855
G1 X122.283 Y128.832 E16.74709
G1 X121.763 Y129.751 E16.7945
G1 X121.487 Y130.215 E16.81874
G1 X121.155 Y130.731 E16.84629
G1 X120.766 Y131.274 E16.87629
G1 X120.47 Y131.661 E16.89816
G1 X120.027 Y132.201 E16.92953
G1 X119.504 Y132.78 E16.96456
G1 X119.043 Y133.252 E16.99418
G1 X118.682 Y133.6 E17.0167
G1 X117.836 Y134.318 E17.06652
G1 X117.249 Y134.766 E17.09968
G1 X116.724 Y135.142 E17.12867
G1 X116.49 Y135.299 E17.14133
G1 X115.984 Y135.618 E17.16818
G1 X115.783 Y135.737 E17.17867
G1 X115.055 Y136.131 E17.21584
G1 X114.607 Y136.351 E17.23825
G1 X113.949 Y136.646 E17.27063
G1 X113.47 Y136.842 E17.29387
G1 X112.759 Y137.104 E17.32789
G1 X112.265 Y137.266 E17.35123
G1 X111.533 Y137.478 E17.38545
G1 X111.441 Y137.501 E17.38971
G1 X110.788 Y137.642 E17.41971
G1 X110.163 Y137.757 E17.44824
G1 X109.466 Y137.861 E17.47988
G1 X109.121 Y137.901 E17.49548
G1 X108.425 Y137.959 E17.52684
G1 X107.739 Y137.987 E17.55767
G1 X106.559 Y138.006 E17.61066
G1 X105.022 Y138.004 E17.67967
G1 X104.389 Y137.995 E17.70809
G1 X101.381 Y137.908 E17.84321
G1 X98.864 Y137.906 E17.95623
G1 X95.469 Y138.001 E18.10873
G1 X95.17 Y138.005 E18.12216
G1 X93.5 Y138.005 E18.19714
G1 X92.107 Y137.981 E18.2597
G1 X91.421 Y137.946 E18.29054
G1 X91.025 Y137.913 E18.30838
G1 X90.324 Y137.831 E18.34007
G1 X89.893 Y137.766 E18.35964
G1 X89.138 Y137.625 E18.39413
G1 X88.713 Y137.529 E18.41369
G1 X88.086 Y137.366 E18.44278
G1 X87.77 Y137.274 E18.45756
G1 X87.097 Y137.054 E18.48935
G1 X86.678 Y136.901 E18.50938
G1 X85.992 Y136.623 E18.54262
G1 X85.627 Y136.46 E18.56057
G1 X85.01 Y136.16 E18.59137
G1 X84.672 Y135.982 E18.60852
G1 X84.028 Y135.614 E18.64183
G1 X83.589 Y135.342 E18.66502
G1 X83.035 Y134.974 E18.69488
G1 X82.735 Y134.761 E18.7114
G1 X82.072 Y134.25 E18.74899
G1 X81.785 Y134.01 E18.76578
G1 X81.273 Y133.553 E18.7966
G1 X80.977 Y133.271 E18.81496
G1 X80.54 Y132.829 E18.84286
G1 X79.993 Y132.229 E18.87932
G1 X79.878 Y132.095 E18.88725
G1 X79.532 Y131.671 E18.91182
G1 X79.225 Y131.266 E18.93464
G1 X79.149 Y131.162 E18.94043
G1 X78.681 Y130.466 E18.97808
G1 X78.314 Y129.87 E19.00951
G1 X78.098 Y129.503 E19.02863
G1 X77.613 Y128.637 E19.0732
G1 X70.613 Y115.68 E19.73446
G1 X70.378 Y115.232 E19.75717
G1 X70.147 Y114.774 E19.78021
G1 X69.891 Y114.227 E19.80732
G1 X69.642 Y113.651 E19.8355
G1 X69.301 Y112.777 E19.87763
G1 X69.113 Y112.236 E19.90334
G1 X68.864 Y111.411 E19.94204
G1 X68.685 Y110.686 E19.97557
G1 X68.569 Y110.152 E20.0001
G1 X68.423 Y109.372 E20.03573
G1 X68.351 Y108.898 E20.05726
G1 X68.291 Y108.369 E20.08117
G1 X68.239 Y107.78 E20.10772
G1 X68.202 Y107.125 E20.13717
G1 X68.182 Y106.36 E20.17153
G1 X68.178 Y106.083 E20.18397
G1 X68.178 Y73.07 E21.6663
G1 X68.187 Y72.373 E21.69759
G1 X68.239 Y71.454 E21.73893
G1 X68.37 Y70.543 E21.78025
G1 X68.58 Y69.646 E21.82162
G1 X68.867 Y68.772 E21.86292
G1 X69.229 Y67.925 E21.90428
G1 X69.663 Y67.113 E21.94562
G1 X70.166 Y66.342 E21.98696
G1 X70.733 Y65.617 E22.02828
G1 X71.362 Y64.944 E22.06964
G0 F3600 X71.753 Y65.122
G1 F1800 X72.434 Y64.529 E22.11019
G1 X73.165 Y63.998 E22.15076
G1 X73.94 Y63.535 E22.19129
G1 X74.753 Y63.141 E22.23186
G1 X75.598 Y62.821 E22.27243
G1 X76.467 Y62.577 E22.31296
G1 X77.355 Y62.411 E22.35352
G1 X78.532 Y62.313 E22.40655
G1 X79.188 Y62.3 E22.43601
G1 X80.04 Y62.3 E22.47427
G1 X80.325 Y62.303 E22.48707
G1 X82.461 Y62.303 E22.58298
G1 X82.546 Y62.307 E22.5868
G1 X83.308 Y62.301 E22.62101
G1 X83.535 Y62.302 E22.63121
G1 X84.147 Y62.311 E22.65869
G1 X85.049 Y62.364 E22.69926
G1 X85.583 Y62.434 E22.72344
G1 X85.983 Y62.497 E22.74162
G1 X88.572 Y62.866 E22.85905
G1 X91.084 Y63.153 E22.97257
G1 X93.611 Y63.369 E23.08645
G1 X96.16 Y63.513 E23.20109
G1 X98.703 Y63.586 E23.31532
G1 X101.236 Y63.588 E23.42905
G1 X103.766 Y63.517 E23.5427
G1 X106.296 Y63.375 E23.65648
G1 X108.867 Y63.157 E23.77233
G1 X111.324 Y62.879 E23.88336
G1 X113.216 Y62.599 E23.96924
G1 X114.512 Y62.419 E24.02799
G1 X115.713 Y62.324 E24.08208
G1 X116.67 Y62.305 E24.12506
G1 X116.872 Y62.303 E24.13413
G1 X118.461 Y62.303 E24.20548
G1 X118.547 Y62.307 E24.20934
G1 X119.489 Y62.3 E24.25164
G1 X120.661 Y62.301 E24.30427
G1 X121.359 Y62.311 E24.33561
G1 X122.261 Y62.364 E24.37618
G1 X123.154 Y62.496 E24.41671
G1 X124.032 Y62.707 E24.45726
G1 X124.888 Y62.995 E24.49781
G1 X125.715 Y63.357 E24.53835
G1 X126.507 Y63.792 E24.57892
G1 X127.258 Y64.294 E24.61948
G1 X127.961 Y64.861 E24.66003
G1 X128.611 Y65.488 E24.70058
G1 X129.203 Y66.17 E24.74113
G1 X129.733 Y66.901 E24.78168
G1 X130.195 Y67.677 E24.82223
G1 X130.588 Y68.49 E24.86277
G1 X130.906 Y69.335 E24.90331
G1 X131.149 Y70.205 E24.94387
G1 X131.314 Y71.093 E24.98443
G1 X131.409 Y72.217 E25.03508
G1 X131.422 Y72.823 E25.06229
G1 X131.421 Y106.141 E26.55831
G1 X131.414 Y106.529 E26.57573
G1 X131.377 Y107.501 E26.61941
G1 X131.34 Y108.064 E26.64474
G1 X131.281 Y108.623 E26.66998
G1 X131.155 Y109.462 E26.70808
G1 X131.086 Y109.843 E26.72546
G1 X130.968 Y110.428 E26.75226
G1 X130.765 Y111.252 E26.79036
G1 X130.591 Y111.83 E26.81747
G1 X130.363 Y112.523 E26.85023
G1 X130.046 Y113.361 E26.89045
G1 X129.805 Y113.922 E26.91787
G1 X129.589 Y114.395 E26.94122
G1 X129.433 Y114.712 E26.95708
G1 X128.98 Y115.592 E27.00152
G1 X127.343 Y118.62 E27.15608
G1 X123.612 Y125.536 E27.50892
G1 X121.931 Y128.641 E27.66746
G1 X121.415 Y129.554 E27.71455
G1 X121.145 Y130.008 E27.73827
G1 X120.822 Y130.508 E27.765
G1 X120.448 Y131.031 E27.79387
G1 X120.152 Y131.418 E27.81574
G1 X119.726 Y131.938 E27.84593
G1 X119.21 Y132.508 E27.88045
G1 X118.76 Y132.969 E27.90938
G1 X118.407 Y133.309 E27.93138
G1 X117.593 Y134 E27.97933
G1 X117.006 Y134.448 E28.01248
G1 X116.501 Y134.81 E28.04038
G1 X116.267 Y134.967 E28.05303
G1 X115.78 Y135.274 E28.07888
G1 X115.579 Y135.393 E28.08937
G1 X114.879 Y135.772 E28.12511
G1 X114.431 Y135.992 E28.14752
G1 X113.798 Y136.276 E28.17867
G1 X113.319 Y136.472 E28.20191
G1 X112.634 Y136.724 E28.23469
G1 X112.14 Y136.886 E28.25803
G1 X111.436 Y137.089 E28.29093
G1 X111.344 Y137.112 E28.29519
G1 X110.716 Y137.249 E28.32405
G1 X110.091 Y137.364 E28.35258
G1 X109.42 Y137.464 E28.38304
G1 X109.075 Y137.504 E28.39864
G1 X108.405 Y137.559 E28.42882
G1 X107.732 Y137.587 E28.45907
G1 X106.56 Y137.606 E28.5117
G1 X105.028 Y137.604 E28.58049
G1 X104.395 Y137.595 E28.60891
G1 X101.393 Y137.508 E28.74376
G1 X98.853 Y137.506 E28.85781
G1 X95.458 Y137.601 E29.01031
G1 X95.17 Y137.605 E29.02324
G1 X93.5 Y137.605 E29.09823
G1 X92.114 Y137.581 E29.16047
G1 X91.454 Y137.548 E29.19014
G1 X91.058 Y137.515 E29.20798
G1 X90.384 Y137.436 E29.23846
G1 X89.953 Y137.371 E29.25803
G1 X89.227 Y137.234 E29.2912
G1 X88.802 Y137.138 E29.31076
G1 X88.198 Y136.982 E29.33877
G1 X87.882 Y136.89 E29.35355
G1 X87.234 Y136.678 E29.38417
G1 X86.815 Y136.525 E29.40419
G1 X86.155 Y136.257 E29.43618
G1 X85.79 Y136.094 E29.45413
G1 X85.196 Y135.806 E29.48377
G1 X84.858 Y135.628 E29.50092
G1 X84.239 Y135.274 E29.53294
G1 X83.8 Y135.002 E29.55613
G1 X83.267 Y134.648 E29.58486
G1 X82.967 Y134.435 E29.60138
G1 X82.329 Y133.943 E29.63755
G1 X82.042 Y133.703 E29.65435
G1 X81.549 Y133.263 E29.68402
G1 X81.253 Y132.981 E29.70238
G1 X80.832 Y132.556 E29.72924
G1 X80.297 Y131.969 E29.7649
G1 X80.182 Y131.835 E29.77283
G1 X79.849 Y131.426 E29.79651
G1 X79.472 Y130.926 E29.82463
G1 X79.022 Y130.256 E29.86087
G1 X78.655 Y129.66 E29.8923
G1 X78.447 Y129.307 E29.91069
G1 X77.965 Y128.447 E29.95496
G1 X70.965 Y115.49 E30.61622
G1 X70.651 Y114.888 E30.64671
G1 X70.504 Y114.595 E30.66142
G1 X70.258 Y114.068 E30.68754
G1 X70.009 Y113.492 E30.71571
G1 X69.679 Y112.646 E30.75649
G1 X69.491 Y112.105 E30.78221
G1 X69.251 Y111.31 E30.81949
G1 X69.075 Y110.601 E30.85229
G1 X68.959 Y110.067 E30.87683
G1 X68.817 Y109.303 E30.91172
G1 X68.747 Y108.843 E30.93261
