;FLAVOR:Marlin
;TIME:822
;Filament used: 0.491853m
;Layer height: 0.15
;MINX:80.35
;MINY:76.316
;MINZ:0.3
;MAXX:119.65
;MAXY:121.608
;MAXZ:8.95
;Generated with Cura_SteamEngine 4.13.0
M140 S90
M105
M190 S90
M104 S235
M105
M109 S235
M82 ;absolute extrusion mode
G21 ;metric values
G90 ;absolute positioning
M82 ;set extruder to absolute mode
M107 ;start with the fan off
G28 X0 Y0 ;move X/Y to min endstops
G28 Z0 ;move Z to min endstops
G1 Z15.0 F9000 ;move the platform down 15mm
G92 E0 ;zero the extruded length
G1 F200 E6 ;extrude 6 mm of feed stock
G92 E0 ;zero the extruded length again
G1 F9000
;Put printing message on LCD screen
M117 Printing...
G92 E0
G92 E0
G1 F3000 E-5
;LAYER_COUNT:52
;LAYER:0
M107
G1 F600 Z1.3
G0 F3600 X83.557 Y79.572 Z1.3
;TYPE:SKIRT
G1 F600 Z0.3
G1 F3000 E0
G1 F1800 X84.246 Y78.935 E0.04213
G1 X84.987 Y78.36 E0.08425
G1 X85.773 Y77.849 E0.12634
G1 X86.601 Y77.408 E0.16846
G1 X87.463 Y77.038 E0.21058
G1 X88.353 Y76.744 E0.25267
G1 X89.266 Y76.526 E0.29482
G1 X90.193 Y76.387 E0.33691
G1 X91.05 Y76.329 E0.37547
G1 X91.68 Y76.316 E0.40377
G1 X108.104 Y76.318 E1.14123
G1 X108.798 Y76.328 E1.17239
G1 X109.735 Y76.382 E1.21453
G1 X110.663 Y76.515 E1.25663
G1 X111.577 Y76.726 E1.29875
G1 X112.469 Y77.015 E1.34085
G1 X113.334 Y77.379 E1.38299
G1 X114.164 Y77.815 E1.42508
G1 X114.954 Y78.32 E1.46718
G1 X115.699 Y78.89 E1.5093
G1 X116.392 Y79.522 E1.55141
G1 X117.028 Y80.211 E1.59352
G1 X117.604 Y80.951 E1.63562
G1 X118.114 Y81.738 E1.67773
G1 X118.556 Y82.566 E1.71988
G1 X118.926 Y83.428 E1.76199
G1 X119.22 Y84.318 E1.80408
G1 X119.438 Y85.23 E1.84618
G1 X119.578 Y86.158 E1.88832
G1 X119.635 Y86.983 E1.92546
G1 X119.65 Y87.648 E1.95532
G1 X119.648 Y109.367 E2.93053
G1 X119.641 Y109.885 E2.95379
G1 X119.615 Y110.569 E2.98453
G1 X119.532 Y111.503 E3.02663
G1 X119.369 Y112.427 E3.06876
G1 X119.128 Y113.334 E3.1109
G1 X118.964 Y113.821 E3.13397
G1 X118.865 Y114.093 E3.14697
G1 X118.507 Y114.96 E3.18909
G1 X118.076 Y115.793 E3.2312
G1 X117.576 Y116.587 E3.27333
G1 X116.86 Y117.513 E3.32589
G1 X116.685 Y117.716 E3.33792
G1 X116.042 Y118.4 E3.38007
G1 X115.344 Y119.026 E3.42217
G1 X114.596 Y119.591 E3.46426
G1 X113.801 Y120.09 E3.50641
G1 X112.968 Y120.519 E3.54848
G1 X112.1 Y120.876 E3.59062
G1 X110.92 Y121.23 E3.64594
G1 X110.645 Y121.296 E3.65864
G1 X109.725 Y121.476 E3.70073
G1 X108.397 Y121.595 E3.7606
G1 X107.802 Y121.608 E3.78732
G1 X104.733 Y121.607 E3.92512
G1 X103.551 Y121.59 E3.9782
G1 X100.95 Y121.59 E4.09499
G1 X100.146 Y121.606 E4.1311
G1 X99.9 Y121.608 E4.14214
G1 X98.733 Y121.607 E4.19454
G1 X97.551 Y121.59 E4.24762
G1 X94.95 Y121.59 E4.36441
G1 X94.146 Y121.606 E4.40052
G1 X93.9 Y121.608 E4.41156
G1 X92.398 Y121.607 E4.479
G1 X91.775 Y121.598 E4.50698
G1 X90.393 Y121.491 E4.56922
G1 X90.188 Y121.462 E4.57852
G1 X89.266 Y121.291 E4.62062
G1 X88.362 Y121.042 E4.66272
G1 X87.482 Y120.717 E4.70485
G1 X86.633 Y120.318 E4.74697
G1 X85.821 Y119.849 E4.78907
G1 X84.792 Y119.107 E4.84603
G1 X84.584 Y118.938 E4.85807
G1 X83.882 Y118.316 E4.90018
G1 X83.236 Y117.637 E4.94226
G1 X82.65 Y116.905 E4.98436
G1 X82.065 Y116.022 E5.03192
G1 X81.958 Y115.842 E5.04133
G1 X81.514 Y115.016 E5.08343
G1 X81.142 Y114.155 E5.12555
G1 X80.844 Y113.266 E5.16765
G1 X80.65 Y112.487 E5.20369
G1 X80.61 Y112.297 E5.21241
G1 X80.456 Y111.372 E5.25452
G1 X80.389 Y110.602 E5.28922
G1 X80.362 Y109.954 E5.31834
G1 X80.35 Y109.08 E5.35759
G1 X80.351 Y87.847 E6.31098
G1 X80.361 Y87.164 E6.34165
G1 X80.415 Y86.228 E6.38375
G1 X80.548 Y85.299 E6.42588
G1 X80.76 Y84.386 E6.46797
G1 X81.049 Y83.493 E6.51011
G1 X81.413 Y82.629 E6.55221
G1 X81.849 Y81.799 E6.59431
G1 X82.354 Y81.009 E6.63641
G1 X82.925 Y80.264 E6.67855
G1 X83.557 Y79.572 E6.72063
G0 F3600 X83.949 Y79.746
G1 F1800 X84.634 Y79.132 E6.76194
G1 X85.371 Y78.579 E6.80331
G1 X86.152 Y78.092 E6.84464
G1 X86.973 Y77.675 E6.88598
G1 X87.827 Y77.331 E6.92732
G1 X88.707 Y77.062 E6.96864
G1 X89.608 Y76.871 E7.01
G1 X90.522 Y76.758 E7.05135
G1 X91.061 Y76.729 E7.07559
G1 X91.68 Y76.716 E7.10339
G1 X108.099 Y76.718 E7.84062
G1 X108.793 Y76.728 E7.87178
G1 X109.712 Y76.781 E7.91312
G1 X110.623 Y76.914 E7.95445
G1 X111.519 Y77.125 E7.99579
G1 X112.393 Y77.414 E8.03712
G1 X113.239 Y77.777 E8.07846
G1 X114.051 Y78.212 E8.11982
G1 X114.821 Y78.716 E8.16114
G1 X115.545 Y79.285 E8.20249
G1 X116.217 Y79.914 E8.24381
G1 X116.832 Y80.6 E8.28518
G1 X117.384 Y81.336 E8.32649
G1 X117.871 Y82.117 E8.36782
G1 X118.289 Y82.938 E8.40919
G1 X118.633 Y83.792 E8.45052
G1 X118.902 Y84.672 E8.49184
G1 X119.094 Y85.572 E8.53316
G1 X119.207 Y86.486 E8.57452
G1 X119.235 Y86.996 E8.59745
G1 X119.25 Y87.647 E8.62669
G1 X119.248 Y109.361 E9.60167
G1 X119.241 Y109.879 E9.62493
G1 X119.216 Y110.551 E9.65513
G1 X119.133 Y111.468 E9.69647
G1 X118.971 Y112.374 E9.7378
G1 X118.588 Y113.684 E9.79908
G1 X118.489 Y113.956 E9.81208
G1 X118.137 Y114.807 E9.85343
G1 X117.712 Y115.624 E9.89478
G1 X117.218 Y116.401 E9.93612
G1 X116.557 Y117.252 E9.9845
G1 X116.382 Y117.455 E9.99654
G1 X115.751 Y118.126 E10.0379
G1 X115.064 Y118.739 E10.07924
G1 X114.327 Y119.29 E10.12056
G1 X113.544 Y119.776 E10.16193
G1 X112.723 Y120.191 E10.20324
G1 X111.868 Y120.534 E10.24461
G1 X110.827 Y120.841 E10.29334
G1 X110.552 Y120.907 E10.30604
G1 X109.648 Y121.083 E10.34739
G1 X108.385 Y121.196 E10.40433
G1 X107.802 Y121.208 E10.43051
G1 X104.739 Y121.207 E10.56804
G1 X103.557 Y121.19 E10.62112
G1 X100.942 Y121.19 E10.73854
G1 X100.143 Y121.206 E10.77442
G1 X99.897 Y121.208 E10.78547
G1 X98.739 Y121.207 E10.83746
G1 X97.557 Y121.19 E10.89054
G1 X94.942 Y121.19 E11.00796
G1 X94.143 Y121.206 E11.04384
G1 X93.897 Y121.208 E11.05489
G1 X92.404 Y121.207 E11.12192
G1 X91.781 Y121.198 E11.1499
G1 X90.449 Y121.095 E11.20989
G1 X90.244 Y121.066 E11.21918
G1 X89.339 Y120.897 E11.26052
G1 X88.452 Y120.651 E11.30185
G1 X87.59 Y120.328 E11.34318
G1 X86.759 Y119.932 E11.38452
G1 X85.965 Y119.466 E11.42586
G1 X85.045 Y118.797 E11.47693
G1 X84.837 Y118.628 E11.48897
G1 X84.148 Y118.017 E11.53031
G1 X83.515 Y117.348 E11.57167
G1 X82.942 Y116.627 E11.61302
G1 X82.409 Y115.817 E11.65656
G1 X82.302 Y115.637 E11.66596
G1 X81.867 Y114.826 E11.70728
G1 X81.503 Y113.981 E11.7486
G1 X81.214 Y113.106 E11.78997
G1 X81.041 Y112.405 E11.82239
G1 X81.001 Y112.215 E11.83111
G1 X80.851 Y111.306 E11.87248
G1 X80.788 Y110.581 E11.90515
G1 X80.762 Y109.947 E11.93364
G1 X80.75 Y109.08 E11.97258
G1 X80.751 Y87.853 E12.92569
G1 X80.761 Y87.17 E12.95637
G1 X80.815 Y86.251 E12.9977
G1 X80.948 Y85.34 E13.03904
G1 X81.159 Y84.444 E13.08037
G1 X81.448 Y83.569 E13.12175
G1 X81.811 Y82.723 E13.16308
G1 X82.246 Y81.912 E13.20441
G1 X82.75 Y81.142 E13.24573
G1 X83.319 Y80.418 E13.28707
G1 X83.949 Y79.746 E13.32843
G0 F3600 X84.34 Y79.925
G1 F1800 X85.022 Y79.333 E13.36898
G1 X85.754 Y78.804 E13.40954
G1 X86.53 Y78.341 E13.45011
G1 X87.343 Y77.949 E13.49064
G1 X88.188 Y77.631 E13.53118
G1 X89.058 Y77.388 E13.57173
G1 X89.946 Y77.223 E13.61229
G1 X91.072 Y77.129 E13.66302
G1 X91.68 Y77.116 E13.69033
G1 X108.093 Y77.118 E14.42729
G1 X108.787 Y77.128 E14.45846
G1 X109.689 Y77.181 E14.49903
G1 X110.582 Y77.314 E14.53957
G1 X111.46 Y77.525 E14.58011
G1 X112.316 Y77.812 E14.62065
G1 X113.143 Y78.175 E14.6612
G1 X113.935 Y78.609 E14.70176
G1 X114.685 Y79.112 E14.7423
G1 X115.388 Y79.679 E14.78286
G1 X116.038 Y80.305 E14.82338
G1 X116.631 Y80.987 E14.86396
G1 X117.16 Y81.719 E14.90451
G1 X117.623 Y82.495 E14.94508
G1 X118.015 Y83.308 E14.98561
G1 X118.334 Y84.153 E15.02616
G1 X118.576 Y85.023 E15.06671
G1 X118.741 Y85.911 E15.10727
G1 X118.835 Y87.008 E15.1567
G1 X118.85 Y87.647 E15.1854
G1 X118.848 Y109.356 E16.16016
G1 X118.841 Y109.874 E16.18342
G1 X118.816 Y110.532 E16.21299
G1 X118.734 Y111.432 E16.25357
G1 X118.573 Y112.32 E16.29409
G1 X118.212 Y113.548 E16.35156
G1 X118.113 Y113.82 E16.36456
G1 X117.767 Y114.654 E16.4051
G1 X117.348 Y115.454 E16.44565
G1 X116.86 Y116.214 E16.48621
G1 X116.254 Y116.991 E16.53045
G1 X116.079 Y117.194 E16.54248
G1 X115.459 Y117.851 E16.58305
G1 X114.784 Y118.451 E16.6236
G1 X114.059 Y118.989 E16.66413
G1 X113.288 Y119.46 E16.7047
G1 X112.479 Y119.862 E16.74526
G1 X111.638 Y120.19 E16.7858
G1 X110.733 Y120.452 E16.8281
G1 X110.458 Y120.518 E16.8408
G1 X109.572 Y120.69 E16.88132
G1 X108.374 Y120.796 E16.93533
G1 X107.802 Y120.808 E16.96102
G1 X104.744 Y120.807 E17.09832
G1 X103.562 Y120.79 E17.1514
G1 X100.933 Y120.79 E17.26945
G1 X100.14 Y120.806 E17.30506
G1 X99.894 Y120.808 E17.31611
G1 X98.744 Y120.807 E17.36774
G1 X97.562 Y120.79 E17.42082
G1 X94.933 Y120.79 E17.53887
G1 X94.14 Y120.806 E17.57448
G1 X93.894 Y120.808 E17.58553
G1 X92.41 Y120.807 E17.65216
G1 X91.787 Y120.798 E17.68014
G1 X90.505 Y120.698 E17.73788
G1 X90.3 Y120.669 E17.74717
G1 X89.413 Y120.503 E17.78769
G1 X88.543 Y120.26 E17.82825
G1 X87.698 Y119.94 E17.86882
G1 X86.885 Y119.547 E17.90937
G1 X86.11 Y119.083 E17.94993
G1 X85.297 Y118.486 E17.99521
G1 X85.089 Y118.317 E18.00725
G1 X84.414 Y117.717 E18.0478
G1 X83.795 Y117.06 E18.08833
G1 X83.236 Y116.351 E18.12887
G1 X82.753 Y115.613 E18.16847
G1 X82.646 Y115.433 E18.17788
G1 X82.22 Y114.637 E18.21841
G1 X81.865 Y113.806 E18.25899
G1 X81.585 Y112.948 E18.29951
G1 X81.433 Y112.322 E18.32844
G1 X81.393 Y112.132 E18.33716
G1 X81.246 Y111.241 E18.3777
G1 X81.188 Y110.561 E18.40835
G1 X81.162 Y109.941 E18.43621
G1 X81.15 Y109.08 E18.47487
G1 X81.151 Y87.859 E19.42772
G1 X81.161 Y87.176 E19.45839
G1 X81.214 Y86.274 E19.49896
G1 X81.347 Y85.381 E19.5395
G1 X81.558 Y84.503 E19.58005
G1 X81.846 Y83.647 E19.6206
G1 X82.209 Y82.82 E19.66115
G1 X82.643 Y82.028 E19.70171
G1 X83.146 Y81.278 E19.74225
G1 X83.713 Y80.575 E19.78281
G1 X84.34 Y79.925 E19.82336
G1 F3000 E14.82336
G1 F600 Z1.3
;MESH:gopro.stl
G0 F3600 X98.955 Y99.05 Z1.3
;TYPE:WALL-INNER
G1 F600 Z0.3
G1 F3000 E19.82336
G1 F1800 X99.651 Y99.185 E19.85519
G1 X100.363 Y99.184 E19.88716
G1 X101.06 Y99.047 E19.91906
G1 X101.72 Y98.778 E19.95106
G1 X102.314 Y98.39 E19.98291
G1 X102.824 Y97.894 E20.01486
G1 X103.23 Y97.31 E20.04679
G1 X103.516 Y96.66 E20.07868
G1 X103.673 Y95.966 E20.11063
G1 X103.695 Y95.255 E20.14257
G1 X103.578 Y94.554 E20.17448
G1 X103.332 Y93.887 E20.2064
G1 X102.962 Y93.28 E20.23832
G1 X102.484 Y92.755 E20.2702
G1 X101.912 Y92.331 E20.30217
G1 X101.272 Y92.024 E20.33404
G1 X100.59 Y91.846 E20.36569
G1 X100.104 Y91.801 E20.38761
G1 X99.402 Y91.847 E20.4192
G1 X98.715 Y92.028 E20.45109
G1 X98.075 Y92.338 E20.48303
G1 X97.505 Y92.764 E20.51498
G1 X97.028 Y93.293 E20.54696
G1 X96.662 Y93.901 E20.57882
G1 X96.417 Y94.569 E20.61077
G1 X96.305 Y95.269 E20.6426
G1 X96.33 Y95.98 E20.67455
G1 X96.489 Y96.673 E20.70647
G1 X96.778 Y97.323 E20.73841
G1 X97.186 Y97.906 E20.77036
G1 X97.697 Y98.4 E20.80228
G1 X98.295 Y98.786 E20.83424
G1 X98.955 Y99.05 E20.86615
G0 F3600 X98.927 Y99.145
G0 X93.98 Y103.13
G0 X94.05 Y103.2
G1 F1800 X94.049 Y109.865 E21.16542
G1 X94.018 Y110.008 E21.17199
G1 X91.975 Y110.008 E21.26372
G1 X91.95 Y109.866 E21.2702
G1 X91.95 Y87.916 E22.25578
G1 X108.05 Y87.917 E22.97869
G1 X108.049 Y109.865 E23.96418
G1 X108.018 Y110.008 E23.97075
G1 X104.275 Y110.008 E24.13881
G1 X104.25 Y109.866 E24.14529
G1 X104.25 Y103.2 E24.4446
G1 X100.05 Y103.2 E24.63318
G1 X100.049 Y109.865 E24.93245
G1 X100.018 Y110.008 E24.93902
G1 X98.275 Y110.008 E25.01728
G1 X98.25 Y109.866 E25.02376
G1 X98.25 Y103.2 E25.32307
G1 X94.05 Y103.2 E25.51165
G0 F3600 X94.45 Y103.6
;TYPE:WALL-OUTER
G1 F1800 X94.449 Y109.91 E25.79498
G1 X94.383 Y110.211 E25.80882
G1 X94.245 Y110.377 E25.81851
G1 X94.14 Y110.408 E25.82342
G1 X91.866 Y110.408 E25.92553
G1 X91.71 Y110.341 E25.93315
G1 X91.596 Y110.163 E25.94264
G1 X91.55 Y109.901 E25.95459
G1 X91.55 Y87.516 E26.9597
G1 X108.45 Y87.517 E27.71853
G1 X108.449 Y109.91 E28.724
G1 X108.383 Y110.211 E28.73784
G1 X108.245 Y110.377 E28.74753
G1 X108.14 Y110.408 E28.75245
G1 X104.166 Y110.408 E28.93089
G1 X104.01 Y110.341 E28.93851
G1 X103.896 Y110.163 E28.948
G1 X103.85 Y109.901 E28.95994
G1 X103.85 Y103.6 E29.24287
G1 X100.45 Y103.6 E29.39553
G1 X100.449 Y109.91 E29.67886
G1 X100.383 Y110.211 E29.69269
G1 X100.245 Y110.377 E29.70239
G1 X100.14 Y110.408 E29.7073
G1 X98.166 Y110.408 E29.79594
G1 X98.01 Y110.341 E29.80356
G1 X97.896 Y110.163 E29.81305
G1 X97.85 Y109.901 E29.825
G1 X97.85 Y103.6 E30.10792
G1 X94.45 Y103.6 E30.26058
G0 F3600 X94.45 Y103.8
G0 X93.95 Y103.799
G0 X98.882 Y99.127
G0 X99.068 Y98.665
G1 F1800 X99.689 Y98.785 E30.28898
G1 X100.324 Y98.784 E30.31749
G1 X100.945 Y98.662 E30.34591
G1 X101.533 Y98.422 E30.37443
G1 X102.063 Y98.076 E30.40285
G1 X102.517 Y97.634 E30.4313
G1 X102.879 Y97.113 E30.45978
G1 X103.134 Y96.534 E30.48819
G1 X103.274 Y95.915 E30.51669
G1 X103.294 Y95.282 E30.54512
G1 X103.19 Y94.657 E30.57357
G1 X102.97 Y94.062 E30.60206
G1 X102.64 Y93.521 E30.63051
G1 X102.214 Y93.053 E30.65893
G1 X101.704 Y92.675 E30.68743
G1 X101.134 Y92.401 E30.71583
G1 X100.521 Y92.241 E30.74427
G1 X100.099 Y92.202 E30.7633
G1 X99.467 Y92.244 E30.79174
G1 X98.854 Y92.405 E30.8202
G1 X98.284 Y92.681 E30.84864
G1 X97.776 Y93.061 E30.87712
G1 X97.351 Y93.532 E30.90561
G1 X97.024 Y94.075 E30.93407
G1 X96.806 Y94.67 E30.96252
G1 X96.706 Y95.294 E30.9909
G1 X96.728 Y95.928 E31.01938
G1 X96.87 Y96.546 E31.04785
G1 X97.128 Y97.125 E31.07632
G1 X97.492 Y97.645 E31.10482
G1 X97.947 Y98.085 E31.13324
G1 X98.48 Y98.429 E31.16172
G1 X99.068 Y98.665 E31.19017
G0 F3600 X99.264 Y98.702
G0 X98.844 Y99.426
;TYPE:SKIN
G1 F1800 X99.614 Y99.575 E31.22538
G1 X100.402 Y99.574 E31.26077
G1 X101.173 Y99.423 E31.29604
G1 X101.902 Y99.125 E31.33141
G1 X102.559 Y98.696 E31.36664
G1 X103.123 Y98.147 E31.40198
G1 X103.571 Y97.501 E31.43728
G1 X103.888 Y96.783 E31.47252
G1 X104.061 Y96.015 E31.50787
G1 X104.087 Y95.229 E31.54318
G1 X103.956 Y94.453 E31.57851
G1 X103.685 Y93.717 E31.61373
G1 X103.276 Y93.046 E31.64902
G1 X102.747 Y92.464 E31.68433
G1 X102.115 Y91.996 E31.71964
G1 X101.407 Y91.656 E31.75491
G1 X100.658 Y91.46 E31.78967
G1 X100.109 Y91.409 E31.81443
G1 X99.339 Y91.461 E31.84908
G1 X98.579 Y91.661 E31.88437
G1 X97.872 Y92.003 E31.91963
G1 X97.241 Y92.475 E31.95501
G1 X96.714 Y93.059 E31.99033
G1 X96.309 Y93.732 E32.0256
G1 X96.038 Y94.47 E32.0609
G1 X95.913 Y95.245 E32.09615
G1 X95.942 Y96.031 E32.13147
G1 X96.117 Y96.797 E32.16675
G1 X96.437 Y97.516 E32.20208
G1 X96.888 Y98.16 E32.23739
G1 X97.453 Y98.706 E32.27267
G1 X98.115 Y99.135 E32.30809
G1 X98.844 Y99.426 E32.34333
G0 F3600 X99.66 Y102.81
G1 F1800 X99.659 Y109.618 E32.64902
G1 X98.64 Y109.618 E32.69477
G1 X98.64 Y102.81 E33.00046
G1 X93.66 Y102.81 E33.22407
G1 X93.659 Y109.618 E33.52975
G1 X92.34 Y109.618 E33.58898
G1 X92.34 Y88.306 E34.54591
G1 X107.66 Y88.307 E35.2338
G1 X107.659 Y109.618 E36.19069
G1 X104.64 Y109.618 E36.32624
G1 X104.64 Y102.81 E36.63193
G1 X99.66 Y102.81 E36.85554
G0 F3600 X94.022 Y103.172
G0 X93.031 Y109.436
G1 F1800 X92.519 Y108.924 E36.88805
G0 F3600 X92.519 Y108.358
G1 F1800 X93.479 Y109.318 E36.94901
G0 F3600 X93.479 Y108.753
G1 F1800 X92.519 Y107.792 E37.01
G0 F3600 X92.519 Y107.227
G1 F1800 X93.479 Y108.187 E37.07096
G0 F3600 X93.479 Y107.621
G1 F1800 X92.519 Y106.661 E37.13192
G0 F3600 X92.519 Y106.095
G1 F1800 X93.479 Y107.055 E37.19288
G0 F3600 X93.479 Y106.49
G1 F1800 X92.519 Y105.53 E37.25384
G0 F3600 X92.519 Y104.964
G1 F1800 X93.479 Y105.924 E37.3148
G0 F3600 X93.479 Y105.358
G1 F1800 X92.519 Y104.398 E37.37576
G0 F3600 X92.519 Y103.832
G1 F1800 X93.479 Y104.793 E37.43675
G0 F3600 X93.479 Y104.227
G1 F1800 X92.519 Y103.267 E37.49771
G0 F3600 X92.519 Y102.701
G1 F1800 X93.479 Y103.661 E37.55867
G0 F3600 X93.479 Y103.096
G1 F1800 X92.519 Y102.135 E37.61967
G0 F3600 X92.519 Y101.57
G1 F1800 X93.578 Y102.629 E37.68691
G0 F3600 X94.144 Y102.629
G1 F1800 X92.519 Y101.004 E37.7901
G0 F3600 X92.519 Y100.438
G1 F1800 X94.709 Y102.629 E37.9292
G0 F3600 X95.275 Y102.629
G1 F1800 X92.519 Y99.873 E38.1042
G0 F3600 X92.519 Y99.307
G1 F1800 X95.841 Y102.629 E38.31515
G0 F3600 X96.406 Y102.629
G1 F1800 X92.519 Y98.741 E38.562
G0 F3600 X92.519 Y98.176
G1 F1800 X96.972 Y102.629 E38.84477
G0 F3600 X97.538 Y102.629
G1 F1800 X92.519 Y97.61 E39.16347
G0 F3600 X92.519 Y97.044
