;FLAVOR:Marlin
;TIME:855
;Filament used: 0.539374m
;Layer height: 0.15
;MINX:80.35
;MINY:75.617
;MINZ:0.3
;MAXX:119.65
;MAXY:122.308
;MAXZ:8.95
;Generated with Cura_SteamEngine 4.13.0
M140 S90
M105
M190 S90
M104 S235
M105
M109 S235
M82 ;absolute extrusion mode
G21 ;metric values
G90 ;absolute positioning
M82 ;set extruder to absolute mode
M107 ;start with the fan off
G28 X0 Y0 ;move X/Y to min endstops
G28 Z0 ;move Z to min endstops
G1 Z15.0 F9000 ;move the platform down 15mm
G92 E0 ;zero the extruded length
G1 F200 E6 ;extrude 6 mm of feed stock
G92 E0 ;zero the extruded length again
G1 F9000
;Put printing message on LCD screen
M117 Printing...
G92 E0
G92 E0
G1 F3000 E-5
;LAYER_COUNT:52
;LAYER:0
M107
G1 F600 Z1.3
G0 F3600 X83.557 Y78.873 Z1.3
;TYPE:SKIRT
G1 F600 Z0.3
G1 F3000 E0
G1 F1800 X84.246 Y78.236 E0.04213
G1 X84.987 Y77.661 E0.08425
G1 X85.773 Y77.15 E0.12634
G1 X86.601 Y76.709 E0.16846
G1 X87.463 Y76.339 E0.21058
G1 X88.353 Y76.045 E0.25267
G1 X89.266 Y75.827 E0.29482
G1 X90.193 Y75.688 E0.33691
G1 X91.05 Y75.63 E0.37547
G1 X91.68 Y75.617 E0.40377
G1 X108.104 Y75.619 E1.14123
G1 X108.798 Y75.629 E1.17239
G1 X109.735 Y75.683 E1.21453
G1 X110.663 Y75.816 E1.25663
G1 X111.577 Y76.027 E1.29875
G1 X112.469 Y76.316 E1.34085
G1 X113.334 Y76.68 E1.38299
G1 X114.164 Y77.116 E1.42508
G1 X114.954 Y77.621 E1.46718
G1 X115.699 Y78.191 E1.5093
G1 X116.392 Y78.823 E1.55141
G1 X117.028 Y79.512 E1.59352
G1 X117.604 Y80.252 E1.63562
G1 X118.114 Y81.039 E1.67773
G1 X118.556 Y81.867 E1.71988
G1 X118.926 Y82.729 E1.76199
G1 X119.22 Y83.619 E1.80408
G1 X119.438 Y84.531 E1.84618
G1 X119.578 Y85.459 E1.88832
G1 X119.635 Y86.284 E1.92546
G1 X119.65 Y86.948 E1.95528
G1 X119.648 Y110.067 E2.99335
G1 X119.641 Y110.585 E3.01661
G1 X119.615 Y111.268 E3.0473
G1 X119.532 Y112.202 E3.0894
G1 X119.37 Y113.126 E3.13152
G1 X119.174 Y113.885 E3.16672
G1 X119.113 Y114.091 E3.17637
G1 X118.809 Y114.978 E3.21847
G1 X118.43 Y115.836 E3.26059
G1 X117.846 Y116.874 E3.31406
G1 X117.727 Y117.061 E3.32402
G1 X117.19 Y117.83 E3.36613
G1 X116.59 Y118.55 E3.40821
G1 X115.931 Y119.217 E3.45031
G1 X115.217 Y119.825 E3.49242
G1 X114.365 Y120.428 E3.53929
G1 X114.166 Y120.555 E3.54989
G1 X113.354 Y121.025 E3.59202
G1 X112.506 Y121.425 E3.63412
G1 X111.626 Y121.75 E3.67624
G1 X110.722 Y122 E3.71835
G1 X109.712 Y122.184 E3.76445
G1 X109.578 Y122.202 E3.77052
G1 X108.261 Y122.299 E3.82982
G1 X107.515 Y122.308 E3.86331
G1 X104.682 Y122.307 E3.99052
G1 X103.534 Y122.291 E4.04207
G1 X100.979 Y122.289 E4.15679
G1 X99.46 Y122.308 E4.225
G1 X98.682 Y122.307 E4.25994
G1 X97.534 Y122.291 E4.31149
G1 X94.979 Y122.289 E4.42621
G1 X93.46 Y122.308 E4.49442
G1 X92.399 Y122.307 E4.54206
G1 X91.701 Y122.297 E4.57341
G1 X90.765 Y122.243 E4.6155
G1 X89.837 Y122.111 E4.65759
G1 X88.873 Y121.885 E4.70205
G1 X88.678 Y121.83 E4.71115
G1 X87.787 Y121.537 E4.75326
G1 X86.924 Y121.169 E4.79539
G1 X86.096 Y120.73 E4.83747
G1 X85.308 Y120.221 E4.87959
G1 X84.566 Y119.647 E4.92171
G1 X83.941 Y119.076 E4.95972
G1 X83.798 Y118.935 E4.96874
G1 X83.159 Y118.248 E5.01087
G1 X82.58 Y117.51 E5.05299
G1 X82.005 Y116.619 E5.1006
G1 X81.896 Y116.431 E5.11036
G1 X81.46 Y115.601 E5.15245
G1 X81.097 Y114.736 E5.19458
G1 X80.759 Y113.653 E5.24552
G1 X80.723 Y113.513 E5.25201
G1 X80.528 Y112.596 E5.2941
G1 X80.39 Y111.336 E5.35102
G1 X80.362 Y110.655 E5.38162
G1 X80.35 Y109.785 E5.42069
G1 X80.351 Y87.148 E6.43712
G1 X80.361 Y86.465 E6.46779
G1 X80.415 Y85.529 E6.50988
G1 X80.548 Y84.6 E6.55202
G1 X80.76 Y83.687 E6.59411
G1 X81.049 Y82.794 E6.63625
G1 X81.413 Y81.93 E6.67835
G1 X81.849 Y81.1 E6.72045
G1 X82.354 Y80.31 E6.76255
G1 X82.925 Y79.565 E6.80469
G1 X83.557 Y78.873 E6.84677
G0 F3600 X83.949 Y79.047
G1 F1800 X84.634 Y78.433 E6.88808
G1 X85.371 Y77.88 E6.92945
G1 X86.152 Y77.393 E6.97078
G1 X86.973 Y76.976 E7.01212
G1 X87.827 Y76.632 E7.05346
G1 X88.707 Y76.363 E7.09478
G1 X89.608 Y76.172 E7.13613
G1 X90.522 Y76.059 E7.17749
G1 X91.061 Y76.03 E7.20172
G1 X91.68 Y76.017 E7.22952
G1 X108.099 Y76.019 E7.96676
G1 X108.793 Y76.029 E7.99792
G1 X109.712 Y76.082 E8.03925
G1 X110.623 Y76.215 E8.08059
G1 X111.519 Y76.426 E8.12192
G1 X112.393 Y76.715 E8.16326
G1 X113.239 Y77.078 E8.20459
G1 X114.051 Y77.513 E8.24596
G1 X114.821 Y78.017 E8.28728
G1 X115.545 Y78.586 E8.32862
G1 X116.217 Y79.215 E8.36995
G1 X116.832 Y79.901 E8.41132
G1 X117.384 Y80.637 E8.45263
G1 X117.871 Y81.418 E8.49396
G1 X118.289 Y82.239 E8.53532
G1 X118.633 Y83.093 E8.57666
G1 X118.902 Y83.973 E8.61798
G1 X119.094 Y84.873 E8.6593
G1 X119.207 Y85.787 E8.70065
G1 X119.235 Y86.297 E8.72359
G1 X119.25 Y86.948 E8.75283
G1 X119.248 Y110.061 E9.79063
G1 X119.241 Y110.579 E9.81389
G1 X119.216 Y111.249 E9.84399
G1 X119.134 Y112.166 E9.88533
G1 X118.972 Y113.073 E9.9267
G1 X118.791 Y113.772 E9.95912
G1 X118.73 Y113.978 E9.96877
G1 X118.43 Y114.848 E10.01009
G1 X118.056 Y115.69 E10.05146
G1 X117.509 Y116.659 E10.10142
G1 X117.39 Y116.846 E10.11137
G1 X116.862 Y117.6 E10.15271
G1 X116.271 Y118.306 E10.19405
G1 X115.621 Y118.958 E10.23539
G1 X114.917 Y119.551 E10.27672
G1 X114.149 Y120.09 E10.31884
G1 X113.95 Y120.217 E10.32944
G1 X113.154 Y120.679 E10.37077
G1 X112.32 Y121.069 E10.41211
G1 X111.455 Y121.385 E10.45346
G1 X110.566 Y121.625 E10.49481
G1 X109.659 Y121.788 E10.53618
G1 X109.525 Y121.806 E10.54225
G1 X108.256 Y121.899 E10.59939
G1 X107.515 Y121.908 E10.63266
G1 X104.688 Y121.907 E10.7596
G1 X103.541 Y121.891 E10.8111
G1 X100.975 Y121.889 E10.92632
G1 X99.46 Y121.908 E10.99435
G1 X98.688 Y121.907 E11.02901
G1 X97.541 Y121.891 E11.08052
G1 X94.975 Y121.889 E11.19574
G1 X93.46 Y121.908 E11.26377
G1 X92.405 Y121.907 E11.31114
G1 X91.707 Y121.897 E11.34248
G1 X90.788 Y121.844 E11.38382
G1 X89.877 Y121.711 E11.42515
G1 X88.982 Y121.5 E11.46644
G1 X88.787 Y121.445 E11.47554
G1 X87.912 Y121.157 E11.5169
G1 X87.066 Y120.794 E11.55824
G1 X86.255 Y120.359 E11.59956
G1 X85.484 Y119.855 E11.64092
G1 X84.76 Y119.286 E11.68227
G1 X84.222 Y118.791 E11.71509
G1 X84.079 Y118.65 E11.72411
G1 X83.452 Y117.976 E11.76544
G1 X82.886 Y117.25 E11.80678
G1 X82.351 Y116.419 E11.85115
G1 X82.242 Y116.231 E11.86091
G1 X81.815 Y115.415 E11.90226
G1 X81.461 Y114.565 E11.94361
G1 X81.146 Y113.554 E11.99116
G1 X81.11 Y113.414 E11.99765
G1 X80.92 Y112.513 E12.03899
G1 X80.79 Y111.316 E12.09305
G1 X80.762 Y110.649 E12.12303
G1 X80.75 Y109.785 E12.16183
G1 X80.751 Y87.154 E13.17799
G1 X80.761 Y86.471 E13.20866
G1 X80.815 Y85.552 E13.24999
G1 X80.948 Y84.641 E13.29133
G1 X81.159 Y83.745 E13.33266
G1 X81.448 Y82.87 E13.37404
G1 X81.811 Y82.024 E13.41538
G1 X82.246 Y81.213 E13.4567
G1 X82.75 Y80.443 E13.49802
G1 X83.319 Y79.719 E13.53937
G1 X83.949 Y79.047 E13.58073
G0 F3600 X84.34 Y79.226
G1 F1800 X85.022 Y78.634 E13.62128
G1 X85.754 Y78.105 E13.66183
G1 X86.53 Y77.642 E13.7024
G1 X87.343 Y77.25 E13.74293
G1 X88.188 Y76.932 E13.78347
G1 X89.058 Y76.689 E13.82403
G1 X89.946 Y76.524 E13.86458
G1 X91.072 Y76.43 E13.91532
G1 X91.68 Y76.417 E13.94262
G1 X108.093 Y76.419 E14.67959
G1 X108.787 Y76.429 E14.71075
G1 X109.689 Y76.482 E14.75132
G1 X110.582 Y76.615 E14.79186
G1 X111.46 Y76.826 E14.83241
G1 X112.316 Y77.113 E14.87294
G1 X113.143 Y77.476 E14.9135
G1 X113.935 Y77.91 E14.95405
G1 X114.685 Y78.413 E14.9946
G1 X115.388 Y78.98 E15.03515
G1 X116.038 Y79.606 E15.07567
G1 X116.631 Y80.288 E15.11625
G1 X117.16 Y81.02 E15.1568
G1 X117.623 Y81.796 E15.19737
G1 X118.015 Y82.609 E15.2379
G1 X118.334 Y83.454 E15.27846
G1 X118.576 Y84.324 E15.319
G1 X118.741 Y85.212 E15.35956
G1 X118.835 Y86.309 E15.409
G1 X118.85 Y86.948 E15.4377
G1 X118.848 Y110.056 E16.47527
G1 X118.841 Y110.574 E16.49853
G1 X118.816 Y111.231 E16.52805
G1 X118.735 Y112.13 E16.56858
G1 X118.574 Y113.019 E16.60915
G1 X118.407 Y113.658 E16.63881
G1 X118.346 Y113.864 E16.64845
G1 X118.052 Y114.718 E16.68901
G1 X117.683 Y115.542 E16.72955
G1 X117.171 Y116.444 E16.77612
G1 X117.052 Y116.631 E16.78607
G1 X116.534 Y117.371 E16.82663
G1 X115.953 Y118.062 E16.86716
G1 X115.312 Y118.699 E16.90774
G1 X114.618 Y119.276 E16.94827
G1 X113.934 Y119.753 E16.98571
G1 X113.735 Y119.88 E16.99631
G1 X112.953 Y120.332 E17.03686
G1 X112.134 Y120.713 E17.07742
G1 X111.285 Y121.019 E17.11794
G1 X110.412 Y121.25 E17.15849
G1 X109.606 Y121.391 E17.19523
G1 X109.472 Y121.409 E17.2013
G1 X108.25 Y121.499 E17.25632
G1 X107.515 Y121.508 E17.28933
G1 X104.693 Y121.507 E17.41604
G1 X103.546 Y121.491 E17.46754
G1 X100.97 Y121.489 E17.58321
G1 X99.46 Y121.508 E17.65102
G1 X98.693 Y121.507 E17.68545
G1 X97.546 Y121.491 E17.73696
G1 X94.97 Y121.489 E17.85263
G1 X93.46 Y121.508 E17.92043
G1 X92.411 Y121.507 E17.96753
G1 X91.713 Y121.497 E17.99888
G1 X90.811 Y121.444 E18.03945
G1 X89.918 Y121.312 E18.07998
G1 X89.09 Y121.115 E18.1182
G1 X88.895 Y121.06 E18.12729
G1 X88.038 Y120.777 E18.16782
G1 X87.209 Y120.418 E18.20838
G1 X86.414 Y119.988 E18.24897
G1 X85.661 Y119.49 E18.2895
G1 X84.956 Y118.927 E18.33001
G1 X84.502 Y118.506 E18.35781
G1 X84.359 Y118.365 E18.36683
G1 X83.745 Y117.703 E18.40737
G1 X83.192 Y116.989 E18.44792
G1 X82.697 Y116.218 E18.48906
G1 X82.588 Y116.03 E18.49882
G1 X82.17 Y115.23 E18.53935
G1 X81.824 Y114.395 E18.57993
G1 X81.533 Y113.454 E18.62416
G1 X81.497 Y113.314 E18.63065
G1 X81.311 Y112.43 E18.67121
G1 X81.189 Y111.296 E18.72242
G1 X81.162 Y110.642 E18.75181
G1 X81.15 Y109.785 E18.7903
G1 X81.151 Y87.16 E19.80619
G1 X81.161 Y86.477 E19.83686
G1 X81.214 Y85.575 E19.87743
G1 X81.347 Y84.682 E19.91797
G1 X81.558 Y83.804 E19.95851
G1 X81.846 Y82.948 E19.99907
G1 X82.209 Y82.121 E20.03962
G1 X82.643 Y81.329 E20.08017
G1 X83.146 Y80.579 E20.12072
G1 X83.713 Y79.876 E20.16127
G1 X84.34 Y79.226 E20.20182
G1 F3000 E15.20182
G1 F600 Z1.3
;MESH:gopro.stl
G0 F3600 X99.24 Y100.673 Z1.3
;TYPE:WALL-INNER
G1 F600 Z0.3
G1 F3000 E20.20182
G1 F1800 X99.954 Y100.752 E20.23408
G1 X100.67 Y100.691 E20.26634
G1 X101.36 Y100.493 E20.29857
G1 X101.999 Y100.165 E20.33083
G1 X102.562 Y99.721 E20.36302
G1 X103.03 Y99.176 E20.39528
G1 X103.383 Y98.55 E20.42754
G1 X103.61 Y97.868 E20.45982
G1 X103.7 Y97.155 E20.49209
G1 X103.65 Y96.44 E20.52427
G1 X103.464 Y95.747 E20.55649
G1 X103.148 Y95.102 E20.58874
G1 X102.712 Y94.531 E20.621
G1 X102.174 Y94.054 E20.65328
G1 X101.555 Y93.69 E20.68552
G1 X100.877 Y93.455 E20.71774
G1 X100.179 Y93.354 E20.74941
G1 X99.913 Y93.351 E20.76136
G1 X99.213 Y93.433 E20.793
G1 X98.528 Y93.653 E20.82531
G1 X97.9 Y94.001 E20.85754
G1 X97.351 Y94.465 E20.88982
G1 X96.903 Y95.025 E20.92202
G1 X96.569 Y95.661 E20.95428
G1 X96.364 Y96.35 E20.98655
G1 X96.298 Y97.064 E21.01875
G1 X96.37 Y97.779 E21.05102
G1 X96.58 Y98.466 E21.08327
G1 X96.917 Y99.101 E21.11555
G1 X97.372 Y99.657 E21.14781
G1 X97.925 Y100.114 E21.18002
G1 X98.555 Y100.458 E21.21225
G1 X99.24 Y100.673 E21.24449
G0 F3600 X99.22 Y100.77
G0 X93.98 Y103.83
G0 X94.05 Y103.9
G1 F1800 X94.049 Y110.578 E21.54434
G1 X94.025 Y110.708 E21.55028
G1 X91.982 Y110.708 E21.64201
G1 X91.95 Y110.572 E21.64828
G1 X91.95 Y87.217 E22.69695
G1 X108.05 Y87.218 E23.41986
G1 X108.049 Y110.578 E24.46875
G1 X108.025 Y110.708 E24.47469
G1 X104.282 Y110.708 E24.64275
G1 X104.25 Y110.572 E24.64902
G1 X104.25 Y103.9 E24.9486
G1 X100.05 Y103.9 E25.13719
G1 X100.049 Y110.578 E25.43704
G1 X100.025 Y110.708 E25.44298
G1 X98.282 Y110.708 E25.52124
G1 X98.25 Y110.572 E25.52751
G1 X98.25 Y103.9 E25.82709
G1 X94.05 Y103.9 E26.01568
G0 F3600 X94.45 Y104.3
;TYPE:WALL-OUTER
G1 F1800 X94.449 Y110.61 E26.299
G1 X94.407 Y110.857 E26.31025
G1 X94.269 Y111.061 E26.32131
G1 X94.145 Y111.108 E26.32727
G1 X91.86 Y111.108 E26.42987
G1 X91.71 Y111.042 E26.43722
G1 X91.576 Y110.801 E26.44961
G1 X91.55 Y110.601 E26.45866
G1 X91.55 Y86.817 E27.52659
G1 X108.45 Y86.818 E28.28542
G1 X108.449 Y110.61 E29.35371
G1 X108.407 Y110.857 E29.36496
G1 X108.269 Y111.061 E29.37602
G1 X108.145 Y111.108 E29.38197
G1 X104.16 Y111.108 E29.5609
G1 X104.01 Y111.042 E29.56826
G1 X103.876 Y110.801 E29.58064
G1 X103.85 Y110.601 E29.5897
G1 X103.85 Y104.3 E29.87262
G1 X100.45 Y104.3 E30.02529
G1 X100.449 Y110.61 E30.30861
G1 X100.407 Y110.857 E30.31986
G1 X100.269 Y111.061 E30.33092
G1 X100.145 Y111.108 E30.33687
G1 X98.16 Y111.108 E30.426
G1 X98.01 Y111.042 E30.43336
G1 X97.876 Y110.801 E30.44574
G1 X97.85 Y110.601 E30.4548
G1 X97.85 Y104.3 E30.73772
G1 X94.45 Y104.3 E30.89039
G0 F3600 X94.45 Y104.5
G0 X93.95 Y104.499
G0 X99.268 Y100.776
G0 X99.323 Y100.28
G1 F1800 X99.959 Y100.35 E30.91912
G1 X100.597 Y100.296 E30.94786
G1 X101.212 Y100.119 E30.9766
G1 X101.782 Y99.827 E31.00536
G1 X102.284 Y99.431 E31.03407
G1 X102.701 Y98.945 E31.06282
G1 X103.016 Y98.387 E31.09159
G1 X103.218 Y97.779 E31.12036
G1 X103.298 Y97.144 E31.1491
G1 X103.254 Y96.506 E31.17781
G1 X103.088 Y95.888 E31.20654
G1 X102.806 Y95.313 E31.2353
G1 X102.418 Y94.805 E31.264
G1 X101.938 Y94.379 E31.29282
G1 X101.386 Y94.055 E31.32156
G1 X100.782 Y93.845 E31.35027
G1 X100.148 Y93.754 E31.37903
G1 X99.934 Y93.751 E31.38864
G1 X99.298 Y93.826 E31.41739
G1 X98.688 Y94.022 E31.44616
G1 X98.128 Y94.332 E31.4749
G1 X97.639 Y94.745 E31.50364
G1 X97.239 Y95.245 E31.53239
G1 X96.941 Y95.812 E31.56115
G1 X96.759 Y96.426 E31.58991
G1 X96.7 Y97.062 E31.61859
G1 X96.764 Y97.7 E31.64738
G1 X96.951 Y98.312 E31.67611
G1 X97.252 Y98.878 E31.7049
G1 X97.657 Y99.374 E31.73365
G1 X98.15 Y99.781 E31.76236
G1 X98.712 Y100.088 E31.79111
G1 X99.323 Y100.28 E31.81987
G0 F3600 X99.522 Y100.301
G0 X99.16 Y101.057
;TYPE:SKIN
G1 F1800 X99.949 Y101.144 E31.85551
G1 X100.741 Y101.077 E31.8912
G1 X101.504 Y100.858 E31.92684
G1 X102.211 Y100.495 E31.96253
G1 X102.833 Y100.004 E31.99811
G1 X103.351 Y99.401 E32.0338
G1 X103.741 Y98.708 E32.06951
G1 X103.992 Y97.955 E32.10515
G1 X104.092 Y97.166 E32.14086
G1 X104.036 Y96.375 E32.17646
G1 X103.831 Y95.609 E32.21207
G1 X103.481 Y94.896 E32.24773
G1 X102.999 Y94.264 E32.28342
G1 X102.404 Y93.737 E32.31911
G1 X101.719 Y93.335 E32.35477
G1 X100.969 Y93.075 E32.39041
G1 X100.21 Y92.964 E32.42486
G1 X99.892 Y92.961 E32.43913
G1 X99.129 Y93.05 E32.47363
G1 X98.372 Y93.294 E32.50934
G1 X97.678 Y93.679 E32.54497
G1 X97.07 Y94.192 E32.58069
G1 X96.575 Y94.811 E32.61628
G1 X96.206 Y95.513 E32.65189
G1 X95.98 Y96.276 E32.68762
G1 X95.906 Y97.066 E32.72325
G1 X95.986 Y97.857 E32.75895
G1 X96.218 Y98.616 E32.79458
G1 X96.591 Y99.318 E32.83028
G1 X97.095 Y99.934 E32.86601
G1 X97.705 Y100.438 E32.90154
G1 X98.401 Y100.819 E32.93717
G1 X99.16 Y101.057 E32.97289
G0 F3600 X99.66 Y103.51
G1 F1800 X99.659 Y110.318 E33.27857
G1 X98.64 Y110.318 E33.32433
G1 X98.64 Y103.51 E33.63002
G1 X93.66 Y103.51 E33.85362
G1 X93.659 Y110.318 E34.15931
G1 X92.34 Y110.318 E34.21854
G1 X92.34 Y87.607 E35.23829
G1 X107.66 Y87.608 E35.92617
G1 X107.659 Y110.318 E36.94588
G1 X104.64 Y110.318 E37.08144
G1 X104.64 Y103.51 E37.38712
G1 X99.66 Y103.51 E37.61073
G0 F3600 X94.022 Y103.872
G0 X92.6 Y110.136
G1 F1800 X92.519 Y110.055 E37.61587
G0 F3600 X92.519 Y109.489
G1 F1800 X93.166 Y110.136 E37.65696
G0 F3600 X93.479 Y109.884
G1 F1800 X92.519 Y108.924 E37.71792
G0 F3600 X92.519 Y108.358
G1 F1800 X93.479 Y109.318 E37.77888
G0 F3600 X93.479 Y108.753
G1 F1800 X92.519 Y107.792 E37.83987
G0 F3600 X92.519 Y107.227
G1 F1800 X93.479 Y108.187 E37.90083
G0 F3600 X93.479 Y107.621
G1 F1800 X92.519 Y106.661 E37.96179
G0 F3600 X92.519 Y106.095
G1 F1800 X93.479 Y107.055 E38.02275
G0 F3600 X93.479 Y106.49
G1 F1800 X92.519 Y105.53 E38.08371
G0 F3600 X92.519 Y104.964
G1 F1800 X93.479 Y105.924 E38.14467
G0 F3600 X93.479 Y105.358
G1 F1800 X92.519 Y104.398 E38.20563
G0 F3600 X92.519 Y103.832
G1 F1800 X93.479 Y104.793 E38.26662
G0 F3600 X93.479 Y104.227
G1 F1800 X92.519 Y103.267 E38.32758
G0 F3600 X92.519 Y102.701
G1 F1800 X93.479 Y103.661 E38.38854
G0 F3600 X93.712 Y103.329
G1 F1800 X92.519 Y102.135 E38.46433
G0 F3600 X92.519 Y101.57
G1 F1800 X94.278 Y103.329 E38.57602
G0 F3600 X94.844 Y103.329
G1 F1800 X92.519 Y101.004 E38.72366
G0 F3600 X92.519 Y100.438
G1 F1800 X95.409 Y103.329 E38.90721
G0 F3600 X95.975 Y103.329
G1 F1800 X92.519 Y99.873 E39.12666
G0 F3600 X92.519 Y99.307
G1 F1800 X96.541 Y103.329 E39.38206
G0 F3600 X97.106 Y103.329
G1 F1800 X92.519 Y98.741 E39.67336
G0 F3600 X92.519 Y98.176
