;FLAVOR:Marlin
;TIME:1609
;Filament used: 0.493715m
;Layer height: 0.15
;MINX:80.35
;MINY:76.35
;MINZ:0.3
;MAXX:119.65
;MAXY:121.108
;MAXZ:9.55
;Generated with Cura_SteamEngine 4.13.0
M140 S90
M105
M190 S90
M104 S235
M105
M109 S235
M82 ;absolute extrusion mode
G21 ;metric values
G90 ;absolute positioning
M82 ;set extruder to absolute mode
M107 ;start with the fan off
G28 X0 Y0 ;move X/Y to min endstops
G28 Z0 ;move Z to min endstops
G1 Z15.0 F9000 ;move the platform down 15mm
G92 E0 ;zero the extruded length
G1 F200 E6 ;extrude 6 mm of feed stock
G92 E0 ;zero the extruded length again
G1 F9000
;Put printing message on LCD screen
M117 Printing...
G92 E0
G92 E0
G1 F3000 E-5
;LAYER_COUNT:56
;LAYER:0
M107
G1 F600 Z1.3
G0 F3600 X83.557 Y79.606 Z1.3
;TYPE:SKIRT
G1 F600 Z0.3
G1 F3000 E0
G1 F654.9 X84.246 Y78.969 E0.04213
G1 X84.987 Y78.394 E0.08425
G1 X85.773 Y77.883 E0.12634
G1 X86.601 Y77.442 E0.16846
G1 X87.463 Y77.072 E0.21058
G1 X88.353 Y76.778 E0.25267
G1 X89.266 Y76.56 E0.29482
G1 X90.193 Y76.421 E0.33691
G1 X91.05 Y76.363 E0.37547
G1 X91.68 Y76.35 E0.40377
G1 X108.104 Y76.352 E1.14123
G1 X108.798 Y76.362 E1.17239
G1 X109.735 Y76.416 E1.21453
G1 X110.663 Y76.549 E1.25663
G1 X111.577 Y76.76 E1.29875
G1 X112.469 Y77.049 E1.34085
G1 X113.334 Y77.413 E1.38299
G1 X114.164 Y77.849 E1.42508
G1 X114.954 Y78.354 E1.46718
G1 X115.699 Y78.924 E1.5093
G1 X116.392 Y79.556 E1.55141
G1 X117.028 Y80.245 E1.59352
G1 X117.604 Y80.985 E1.63562
G1 X118.114 Y81.772 E1.67773
G1 X118.556 Y82.6 E1.71988
G1 X118.926 Y83.462 E1.76199
G1 X119.22 Y84.352 E1.80408
G1 X119.438 Y85.264 E1.84618
G1 X119.578 Y86.192 E1.88832
G1 X119.635 Y87.017 E1.92546
G1 X119.65 Y87.682 E1.95532
G1 X119.649 Y108.559 E2.89272
G1 X119.631 Y109.696 E2.94378
G1 X119.576 Y110.633 E2.98593
G1 X119.381 Y111.853 E3.0414
G1 X119.337 Y112.055 E3.05069
G1 X119.098 Y112.962 E3.0928
G1 X118.784 Y113.846 E3.13492
G1 X118.395 Y114.699 E3.17702
G1 X117.994 Y115.42 E3.21406
G1 X117.849 Y115.659 E3.22662
G1 X117.328 Y116.439 E3.26873
G1 X116.744 Y117.172 E3.31081
G1 X116.098 Y117.853 E3.35296
G1 X115.398 Y118.476 E3.39504
G1 X114.646 Y119.038 E3.43719
G1 X113.831 Y119.543 E3.48024
G1 X113.58 Y119.684 E3.49317
G1 X112.744 Y120.108 E3.53526
G1 X111.874 Y120.46 E3.5774
G1 X110.978 Y120.736 E3.61949
G1 X110.061 Y120.934 E3.66162
G1 X109.131 Y121.054 E3.70372
G1 X108.368 Y121.093 E3.73803
G1 X107.489 Y121.107 E3.7775
G1 X104.836 Y121.108 E3.89662
G1 X103.331 Y121.088 E3.9642
G1 X100.515 Y121.091 E4.09065
G1 X99.518 Y121.107 E4.13542
G1 X98.836 Y121.108 E4.16604
G1 X97.331 Y121.088 E4.23362
G1 X94.515 Y121.091 E4.36006
G1 X93.518 Y121.107 E4.40484
G1 X92.557 Y121.108 E4.44799
G1 X91.692 Y121.097 E4.48683
G1 X90.756 Y121.044 E4.52892
G1 X89.827 Y120.911 E4.57106
G1 X88.914 Y120.7 E4.61314
G1 X88.021 Y120.411 E4.65528
G1 X86.913 Y119.93 E4.70952
G1 X86.636 Y119.791 E4.72343
G1 X85.817 Y119.335 E4.76552
G1 X85.039 Y118.81 E4.80767
G1 X84.309 Y118.222 E4.84976
G1 X83.631 Y117.573 E4.8919
G1 X83.012 Y116.869 E4.93399
G1 X82.279 Y115.848 E4.99042
G1 X82.118 Y115.594 E5.00393
G1 X81.65 Y114.781 E5.04605
G1 X81.253 Y113.931 E5.08817
G1 X80.93 Y113.051 E5.13026
G1 X80.602 Y111.757 E5.1902
G1 X80.557 Y111.52 E5.20103
G1 X80.422 Y110.592 E5.24314
G1 X80.365 Y109.637 E5.2861
G1 X80.35 Y108.558 E5.33455
G1 X80.351 Y87.881 E6.26297
G1 X80.361 Y87.198 E6.29364
G1 X80.415 Y86.262 E6.33574
G1 X80.548 Y85.333 E6.37788
G1 X80.76 Y84.42 E6.41996
G1 X81.049 Y83.527 E6.46211
G1 X81.413 Y82.663 E6.50421
G1 X81.849 Y81.833 E6.5463
G1 X82.354 Y81.043 E6.5884
G1 X82.925 Y80.298 E6.63055
G1 X83.557 Y79.606 E6.67263
G0 F3600 X83.949 Y79.78
G1 F654.9 X84.634 Y79.166 E6.71393
G1 X85.371 Y78.613 E6.75531
G1 X86.152 Y78.126 E6.79663
G1 X86.973 Y77.709 E6.83798
G1 X87.827 Y77.365 E6.87932
G1 X88.707 Y77.096 E6.92064
G1 X89.608 Y76.905 E6.96199
G1 X90.522 Y76.792 E7.00334
G1 X91.061 Y76.763 E7.02758
G1 X91.68 Y76.75 E7.05538
G1 X108.099 Y76.752 E7.79261
G1 X108.793 Y76.762 E7.82378
G1 X109.712 Y76.815 E7.86511
G1 X110.623 Y76.948 E7.90645
G1 X111.519 Y77.159 E7.94778
G1 X112.393 Y77.448 E7.98911
G1 X113.239 Y77.811 E8.03045
G1 X114.051 Y78.246 E8.07181
G1 X114.821 Y78.75 E8.11313
G1 X115.545 Y79.319 E8.15448
G1 X116.217 Y79.948 E8.19581
G1 X116.832 Y80.634 E8.23718
G1 X117.384 Y81.37 E8.27849
G1 X117.871 Y82.151 E8.31981
G1 X118.289 Y82.972 E8.36118
G1 X118.633 Y83.826 E8.40252
G1 X118.902 Y84.706 E8.44384
G1 X119.094 Y85.606 E8.48516
G1 X119.207 Y86.52 E8.52651
G1 X119.235 Y87.03 E8.54944
G1 X119.25 Y87.682 E8.57873
G1 X119.248 Y108.736 E9.52408
G1 X119.232 Y109.69 E9.56692
G1 X119.176 Y110.609 E9.60826
G1 X118.99 Y111.768 E9.66097
G1 X118.946 Y111.97 E9.67025
G1 X118.711 Y112.86 E9.71158
G1 X118.4 Y113.727 E9.75294
G1 X118.015 Y114.563 E9.79427
G1 X117.652 Y115.212 E9.82766
G1 X117.507 Y115.451 E9.84021
G1 X116.995 Y116.217 E9.88158
G1 X116.419 Y116.935 E9.92291
G1 X115.784 Y117.601 E9.96423
G1 X115.092 Y118.209 E10.00559
G1 X114.351 Y118.755 E10.04692
G1 X113.636 Y119.195 E10.08461
G1 X113.385 Y119.336 E10.09754
G1 X112.563 Y119.751 E10.13888
G1 X111.709 Y120.094 E10.18021
G1 X110.828 Y120.361 E10.22154
G1 X109.927 Y120.551 E10.26289
G1 X109.013 Y120.662 E10.30423
G1 X108.362 Y120.693 E10.33349
G1 X107.483 Y120.707 E10.37297
G1 X104.836 Y120.708 E10.49182
G1 X103.336 Y120.688 E10.55918
G1 X100.508 Y120.691 E10.68616
G1 X99.511 Y120.707 E10.73093
G1 X98.836 Y120.708 E10.76124
G1 X97.336 Y120.688 E10.8286
G1 X94.508 Y120.691 E10.95558
G1 X93.511 Y120.707 E11.00035
G1 X92.557 Y120.708 E11.04319
G1 X91.698 Y120.697 E11.08176
G1 X90.779 Y120.644 E11.12309
G1 X89.868 Y120.512 E11.16442
G1 X88.971 Y120.3 E11.20581
G1 X88.097 Y120.012 E11.24713
G1 X87.093 Y119.572 E11.29635
G1 X86.816 Y119.433 E11.31026
G1 X86.012 Y118.985 E11.35159
G1 X85.249 Y118.468 E11.39297
G1 X84.535 Y117.888 E11.43428
G1 X83.873 Y117.248 E11.47562
G1 X83.27 Y116.552 E11.51697
G1 X82.617 Y115.634 E11.56756
G1 X82.456 Y115.38 E11.58106
G1 X81.997 Y114.582 E11.62239
G1 X81.61 Y113.747 E11.66372
G1 X81.296 Y112.881 E11.70508
G1 X80.995 Y111.682 E11.76059
G1 X80.95 Y111.445 E11.77142
G1 X80.818 Y110.534 E11.81275
G1 X80.765 Y109.631 E11.85337
G1 X80.75 Y108.558 E11.90155
G1 X80.751 Y87.887 E12.8297
G1 X80.761 Y87.204 E12.86037
G1 X80.815 Y86.285 E12.90171
G1 X80.948 Y85.374 E12.94305
G1 X81.159 Y84.478 E12.98438
G1 X81.448 Y83.603 E13.02575
G1 X81.811 Y82.757 E13.06709
G1 X82.246 Y81.946 E13.10841
G1 X82.75 Y81.176 E13.14973
G1 X83.319 Y80.452 E13.19108
G1 X83.949 Y79.78 E13.23244
G0 F3600 X84.34 Y79.959
G1 F654.9 X85.022 Y79.367 E13.27299
G1 X85.754 Y78.838 E13.31354
G1 X86.53 Y78.375 E13.35412
G1 X87.343 Y77.983 E13.39464
G1 X88.188 Y77.665 E13.43518
G1 X89.058 Y77.422 E13.47574
G1 X89.946 Y77.257 E13.5163
G1 X91.072 Y77.163 E13.56703
G1 X91.68 Y77.15 E13.59434
G1 X108.093 Y77.152 E14.3313
G1 X108.787 Y77.162 E14.36246
G1 X109.689 Y77.215 E14.40304
G1 X110.582 Y77.348 E14.44357
G1 X111.46 Y77.559 E14.48412
G1 X112.316 Y77.846 E14.52466
G1 X113.143 Y78.209 E14.56521
G1 X113.935 Y78.643 E14.60576
G1 X114.685 Y79.146 E14.64631
G1 X115.388 Y79.713 E14.68686
G1 X116.038 Y80.339 E14.72738
G1 X116.631 Y81.021 E14.76796
G1 X117.16 Y81.753 E14.80852
G1 X117.623 Y82.529 E14.84909
G1 X118.015 Y83.342 E14.88962
G1 X118.334 Y84.187 E14.93017
G1 X118.576 Y85.057 E14.97072
G1 X118.741 Y85.945 E15.01127
G1 X118.835 Y87.042 E15.06071
G1 X118.85 Y87.681 E15.08941
G1 X118.848 Y108.729 E16.03449
G1 X118.832 Y109.683 E16.07733
G1 X118.776 Y110.584 E16.11787
G1 X118.599 Y111.683 E16.16785
G1 X118.555 Y111.885 E16.17713
G1 X118.324 Y112.758 E16.21768
G1 X118.017 Y113.607 E16.25822
G1 X117.636 Y114.426 E16.29877
G1 X117.31 Y115.005 E16.32861
G1 X117.165 Y115.244 E16.34116
G1 X116.662 Y115.994 E16.38171
G1 X116.096 Y116.698 E16.42227
G1 X115.469 Y117.348 E16.46282
G1 X114.788 Y117.94 E16.50334
G1 X114.056 Y118.47 E16.54392
G1 X113.44 Y118.846 E16.57632
G1 X113.189 Y118.987 E16.58925
G1 X112.382 Y119.394 E16.62983
G1 X111.543 Y119.728 E16.67038
G1 X110.678 Y119.987 E16.71092
G1 X109.793 Y120.168 E16.75148
G1 X108.896 Y120.27 E16.79202
G1 X108.355 Y120.293 E16.81633
G1 X107.314 Y120.308 E16.86308
G1 X104.693 Y120.307 E16.98076
G1 X103.341 Y120.288 E17.04147
G1 X100.501 Y120.291 E17.16899
G1 X99.505 Y120.307 E17.21372
G1 X98.836 Y120.308 E17.24376
G1 X97.341 Y120.288 E17.31089
G1 X94.501 Y120.291 E17.43841
G1 X93.505 Y120.307 E17.48314
G1 X92.557 Y120.308 E17.52571
G1 X91.703 Y120.297 E17.56406
G1 X90.802 Y120.244 E17.60458
G1 X89.908 Y120.112 E17.64516
G1 X89.03 Y119.901 E17.6857
G1 X88.174 Y119.614 E17.72624
G1 X87.272 Y119.215 E17.77053
G1 X86.995 Y119.076 E17.78444
G1 X86.207 Y118.635 E17.82499
G1 X85.46 Y118.127 E17.86555
G1 X84.762 Y117.554 E17.9061
G1 X84.117 Y116.922 E17.94665
G1 X83.53 Y116.236 E17.98719
G1 X82.955 Y115.42 E18.03201
G1 X82.794 Y115.166 E18.04551
G1 X82.345 Y114.382 E18.08608
G1 X81.966 Y113.562 E18.12664
G1 X81.662 Y112.712 E18.16718
G1 X81.388 Y111.608 E18.21825
G1 X81.343 Y111.371 E18.22908
G1 X81.214 Y110.477 E18.26964
G1 X81.165 Y109.625 E18.30796
G1 X81.15 Y108.558 E18.35587
G1 X81.151 Y87.893 E19.28376
G1 X81.161 Y87.21 E19.31443
G1 X81.214 Y86.308 E19.355
G1 X81.347 Y85.415 E19.39554
G1 X81.558 Y84.537 E19.43608
G1 X81.846 Y83.681 E19.47663
G1 X82.209 Y82.854 E19.51719
G1 X82.643 Y82.062 E19.55774
G1 X83.146 Y81.312 E19.59829
G1 X83.713 Y80.609 E19.63884
G1 X84.34 Y79.959 E19.67939
G1 F3000 E14.67939
G1 F600 Z1.3
;MESH:gopro.stl
G0 F3600 X94.05 Y103.2 Z1.3
;TYPE:WALL-INNER
G1 F600 Z0.3
G1 F3000 E19.67939
G1 F654.9 X94.048 Y109.4 E19.95778
G1 X94.019 Y109.508 E19.9628
G1 X91.974 Y109.508 E20.05462
G1 X91.95 Y109.368 E20.061
G1 X91.95 Y87.95 E21.02269
G1 X108.05 Y87.951 E21.7456
G1 X108.048 Y109.4 E22.70869
G1 X108.019 Y109.508 E22.71371
G1 X104.274 Y109.508 E22.88186
G1 X104.25 Y109.368 E22.88824
G1 X104.25 Y103.2 E23.16519
G1 X100.05 Y103.2 E23.35378
G1 X100.048 Y109.4 E23.63216
G1 X100.019 Y109.508 E23.63719
G1 X98.274 Y109.508 E23.71554
G1 X98.25 Y109.368 E23.72192
G1 X98.25 Y103.2 E23.99887
G1 X94.05 Y103.2 E24.18745
G0 F3600 X93.98 Y103.13
G0 X98.927 Y101.395
G0 X98.955 Y101.3
G1 F654.9 X99.651 Y101.435 E24.21929
G1 X100.363 Y101.434 E24.25126
G1 X101.06 Y101.297 E24.28315
G1 X101.72 Y101.028 E24.31515
G1 X102.314 Y100.64 E24.34701
G1 X102.824 Y100.144 E24.37895
G1 X103.23 Y99.56 E24.41089
G1 X103.516 Y98.91 E24.44277
G1 X103.673 Y98.216 E24.47472
G1 X103.695 Y97.505 E24.50666
G1 X103.578 Y96.804 E24.53857
G1 X103.332 Y96.137 E24.5705
G1 X102.962 Y95.53 E24.60242
G1 X102.484 Y95.005 E24.6343
G1 X101.912 Y94.581 E24.66627
G1 X101.272 Y94.274 E24.69814
G1 X100.59 Y94.096 E24.72979
G1 X100.104 Y94.051 E24.7517
G1 X99.402 Y94.097 E24.78329
G1 X98.715 Y94.278 E24.81519
G1 X98.075 Y94.588 E24.84712
G1 X97.505 Y95.014 E24.87907
G1 X97.028 Y95.543 E24.91105
G1 X96.662 Y96.151 E24.94292
G1 X96.417 Y96.819 E24.97487
G1 X96.305 Y97.519 E25.0067
G1 X96.33 Y98.23 E25.03864
G1 X96.489 Y98.923 E25.07057
G1 X96.778 Y99.573 E25.10251
G1 X97.186 Y100.156 E25.13446
G1 X97.697 Y100.65 E25.16637
G1 X98.295 Y101.036 E25.19833
G1 X98.955 Y101.3 E25.23025
G0 F3600 X99.068 Y100.915
;TYPE:WALL-OUTER
G1 F654.9 X99.689 Y101.035 E25.25865
G1 X100.324 Y101.034 E25.28716
G1 X100.945 Y100.912 E25.31558
G1 X101.533 Y100.672 E25.34409
G1 X102.063 Y100.326 E25.37251
G1 X102.517 Y99.884 E25.40096
G1 X102.879 Y99.363 E25.42945
G1 X103.134 Y98.784 E25.45786
G1 X103.274 Y98.165 E25.48635
G1 X103.294 Y97.532 E25.51479
G1 X103.19 Y96.907 E25.54324
G1 X102.97 Y96.312 E25.57172
G1 X102.64 Y95.771 E25.60018
G1 X102.214 Y95.303 E25.62859
G1 X101.704 Y94.925 E25.6571
G1 X101.134 Y94.651 E25.68549
G1 X100.521 Y94.491 E25.71394
G1 X100.099 Y94.452 E25.73297
G1 X99.467 Y94.494 E25.76141
G1 X98.854 Y94.655 E25.78987
G1 X98.284 Y94.931 E25.8183
G1 X97.776 Y95.311 E25.84679
G1 X97.351 Y95.782 E25.87527
G1 X97.024 Y96.325 E25.90373
G1 X96.806 Y96.92 E25.93219
G1 X96.706 Y97.544 E25.96056
G1 X96.728 Y98.178 E25.98905
G1 X96.87 Y98.796 E26.01752
G1 X97.128 Y99.375 E26.04598
G1 X97.492 Y99.895 E26.07448
G1 X97.947 Y100.335 E26.1029
G1 X98.48 Y100.679 E26.13139
G1 X99.068 Y100.915 E26.15984
G0 F3600 X99.264 Y100.952
G0 X99.168 Y101.443
G0 X94.45 Y103.1
G0 X94.45 Y103.6
G1 F654.9 X94.448 Y109.452 E26.4226
G1 X94.372 Y109.735 E26.43575
G1 X94.218 Y109.892 E26.44563
G1 X94.143 Y109.908 E26.44907
G1 X91.868 Y109.908 E26.55122
G1 X91.71 Y109.842 E26.55891
G1 X91.595 Y109.662 E26.5685
G1 X91.55 Y109.401 E26.58039
G1 X91.55 Y87.55 E27.56153
G1 X108.45 Y87.551 E28.32036
G1 X108.448 Y109.452 E29.30374
G1 X108.372 Y109.735 E29.3169
G1 X108.218 Y109.892 E29.32677
G1 X108.143 Y109.908 E29.33022
G1 X104.168 Y109.908 E29.5087
G1 X104.01 Y109.842 E29.51639
G1 X103.895 Y109.662 E29.52598
G1 X103.85 Y109.401 E29.53787
G1 X103.85 Y103.6 E29.79834
G1 X100.45 Y103.6 E29.95101
G1 X100.448 Y109.452 E30.21377
G1 X100.372 Y109.735 E30.22692
G1 X100.218 Y109.892 E30.2368
G1 X100.143 Y109.908 E30.24024
G1 X98.168 Y109.908 E30.32892
G1 X98.01 Y109.842 E30.33661
G1 X97.895 Y109.662 E30.3462
G1 X97.85 Y109.401 E30.35809
G1 X97.85 Y103.6 E30.61857
G1 X94.45 Y103.6 E30.77123
G0 F3600 X94.45 Y103.8
G0 X93.95 Y103.799
G0 X93.66 Y102.81
;TYPE:SKIN
G1 F654.9 X93.658 Y109.118 E31.05447
G1 X92.34 Y109.118 E31.11365
G1 X92.34 Y88.34 E32.0466
G1 X107.66 Y88.341 E32.73449
G1 X107.658 Y109.118 E33.6674
G1 X104.64 Y109.118 E33.80291
G1 X104.64 Y102.81 E34.08615
G1 X99.66 Y102.81 E34.30976
G1 X99.658 Y109.118 E34.59299
G1 X98.64 Y109.118 E34.6387
G1 X98.64 Y102.81 E34.92194
G1 X93.66 Y102.81 E35.14555
G0 F3600 X97.453 Y100.956
G1 F654.9 X98.115 Y101.385 E35.18097
G1 X98.844 Y101.676 E35.21621
G1 X99.614 Y101.825 E35.25143
G1 X100.402 Y101.824 E35.28681
G1 X101.173 Y101.673 E35.32209
G1 X101.902 Y101.375 E35.35745
G1 X102.559 Y100.946 E35.39268
G1 X103.123 Y100.397 E35.42802
G1 X103.571 Y99.751 E35.46332
G1 X103.888 Y99.033 E35.49856
G1 X104.061 Y98.265 E35.53391
G1 X104.087 Y97.479 E35.56922
G1 X103.956 Y96.703 E35.60456
G1 X103.685 Y95.967 E35.63977
G1 X103.276 Y95.296 E35.67506
G1 X102.747 Y94.714 E35.71037
G1 X102.115 Y94.246 E35.74568
G1 X101.407 Y93.906 E35.78095
G1 X100.658 Y93.71 E35.81571
G1 X100.109 Y93.659 E35.84047
G1 X99.339 Y93.711 E35.87512
G1 X98.579 Y93.911 E35.91041
G1 X97.872 Y94.253 E35.94567
G1 X97.241 Y94.725 E35.98106
G1 X96.714 Y95.309 E36.01638
G1 X96.309 Y95.982 E36.05164
G1 X96.038 Y96.72 E36.08695
G1 X95.913 Y97.495 E36.12219
G1 X95.942 Y98.281 E36.15751
G1 X96.117 Y99.047 E36.19279
G1 X96.437 Y99.766 E36.22813
G1 X96.888 Y100.41 E36.26343
G1 X97.453 Y100.956 E36.29871
G0 F3600 X94.022 Y103.172
G0 X93.097 Y108.936
G1 F654.9 X92.519 Y108.358 E36.33541
G0 F3600 X92.519 Y107.792
G1 F654.9 X93.478 Y108.752 E36.39634
G0 F3600 X93.478 Y108.186
G1 F654.9 X92.519 Y107.227 E36.45724
G0 F3600 X92.519 Y106.661
G1 F654.9 X93.478 Y107.62 E36.51813
G0 F3600 X93.478 Y107.055
G1 F654.9 X92.519 Y106.095 E36.57906
G0 F3600 X92.519 Y105.53
G1 F654.9 X93.478 Y106.489 E36.63996
G0 F3600 X93.478 Y105.923
G1 F654.9 X92.519 Y104.964 E36.70085
G0 F3600 X92.519 Y104.398
G1 F654.9 X93.479 Y105.358 E36.76181
G0 F3600 X93.479 Y104.793
G1 F654.9 X92.519 Y103.832 E36.8228
G0 F3600 X92.519 Y103.267
G1 F654.9 X93.479 Y104.227 E36.88376
G0 F3600 X93.479 Y103.661
G1 F654.9 X92.519 Y102.701 E36.94472
G0 F3600 X92.519 Y102.135
G1 F654.9 X93.479 Y103.096 E37.00572
G0 F3600 X93.578 Y102.629
G1 F654.9 X92.519 Y101.57 E37.07296
G0 F3600 X92.519 Y101.004
G1 F654.9 X94.144 Y102.629 E37.17615
G0 F3600 X94.709 Y102.629
G1 F654.9 X92.519 Y100.438 E37.31525
G0 F3600 X92.519 Y99.873
G1 F654.9 X95.275 Y102.629 E37.49025
G0 F3600 X95.841 Y102.629
G1 F654.9 X92.519 Y99.307 E37.7012
G0 F3600 X92.519 Y98.741
G1 F654.9 X96.406 Y102.629 E37.94805
G0 F3600 X96.972 Y102.629
G1 F654.9 X92.519 Y98.176 E38.23082
G0 F3600 X92.519 Y97.61
G1 F654.9 X97.538 Y102.629 E38.54952
G0 F3600 X98.103 Y102.629
G1 F654.9 X92.519 Y97.044 E38.90414
G0 F3600 X92.519 Y96.479
G1 F654.9 X98.669 Y102.629 E39.29466
G0 F3600 X98.819 Y102.779
G1 F654.9 X99.48 Y103.439 E39.33661
G0 F3600 X99.48 Y102.874
G1 F654.9 X98.229 Y101.623 E39.41604
G1 X98.159 Y101.553
