;FLAVOR:Marlin
;TIME:1435
;Filament used: 1.01208m
;Layer height: 0.15
;MINX:67.75
;MINY:47.401
;MINZ:0.3
;MAXX:132.25
;MAXY:149.509
;MAXZ:9.85
;Generated with Cura_SteamEngine 4.13.0
M140 S90
M105
M190 S90
M104 S235
M105
M109 S235
M82 ;absolute extrusion mode
G21 ;metric values
G90 ;absolute positioning
M82 ;set extruder to absolute mode
M107 ;start with the fan off
G28 X0 Y0 ;move X/Y to min endstops
G28 Z0 ;move Z to min endstops
G1 Z15.0 F9000 ;move the platform down 15mm
G92 E0 ;zero the extruded length
G1 F200 E6 ;extrude 6 mm of feed stock
G92 E0 ;zero the extruded length again
G1 F9000
;Put printing message on LCD screen
M117 Printing...
G92 E0
G92 E0
G1 F3000 E-5
;LAYER_COUNT:58
;LAYER:0
M107
G1 F600 Z1.3
G0 F3600 X69.757 Y52.09 Z1.3
;TYPE:SKIRT
G1 F600 Z0.3
G1 F3000 E0
G1 F1800 X70.328 Y51.346 E0.04211
G1 X70.961 Y50.653 E0.08425
G1 X71.65 Y50.017 E0.12636
G1 X72.39 Y49.442 E0.16844
G1 X73.178 Y48.932 E0.21058
G1 X74.005 Y48.491 E0.25266
G1 X74.867 Y48.122 E0.29477
G1 X75.758 Y47.828 E0.33689
G1 X76.67 Y47.61 E0.379
G1 X77.598 Y47.472 E0.42112
G1 X78.451 Y47.414 E0.45951
G1 X79.08 Y47.401 E0.48776
G1 X80.043 Y47.401 E0.531
G1 X80.921 Y47.413 E0.57043
G1 X81.857 Y47.468 E0.61253
G1 X82.756 Y47.596 E0.6533
G1 X83.689 Y47.769 E0.69591
G1 X86.211 Y48.202 E0.81081
G1 X88.689 Y48.555 E0.9232
G1 X91.221 Y48.843 E1.03762
G1 X93.711 Y49.055 E1.14983
G1 X96.227 Y49.197 E1.26298
G1 X98.723 Y49.269 E1.3751
G1 X101.247 Y49.269 E1.48843
G1 X103.797 Y49.198 E1.60297
G1 X106.258 Y49.058 E1.71365
G1 X108.804 Y48.842 E1.82838
G1 X111.297 Y48.559 E1.94104
G1 X113.798 Y48.203 E2.05447
G1 X116.3 Y47.775 E2.16844
G1 X116.979 Y47.643 E2.1995
G1 X117.443 Y47.561 E2.22066
G1 X118.374 Y47.446 E2.26278
G1 X118.951 Y47.414 E2.28873
G1 X119.58 Y47.401 E2.31698
G1 X120.685 Y47.402 E2.36659
G1 X121.383 Y47.411 E2.39794
G1 X122.319 Y47.463 E2.44003
G1 X123.248 Y47.595 E2.48216
G1 X124.162 Y47.805 E2.52427
G1 X125.055 Y48.092 E2.56639
G1 X125.92 Y48.455 E2.60851
G1 X126.751 Y48.889 E2.6506
G1 X127.542 Y49.393 E2.69272
G1 X128.287 Y49.963 E2.73483
G1 X128.981 Y50.594 E2.77695
G1 X129.618 Y51.281 E2.81902
G1 X130.195 Y52.021 E2.86115
G1 X130.707 Y52.807 E2.90327
G1 X131.15 Y53.634 E2.9454
G1 X131.521 Y54.495 E2.98749
G1 X131.817 Y55.385 E3.02961
G1 X132.036 Y56.297 E3.07172
G1 X132.177 Y57.224 E3.11382
G1 X132.237 Y58.102 E3.15334
G1 X132.25 Y58.731 E3.18159
G1 X132.249 Y92.754 E4.70926
G1 X132.233 Y93.838 E4.75794
G1 X132.204 Y94.487 E4.78711
G1 X132.162 Y95.055 E4.81268
G1 X132.089 Y95.745 E4.84384
G1 X132.027 Y96.195 E4.86423
G1 X131.908 Y96.892 E4.89598
G1 X131.76 Y97.611 E4.92894
G1 X131.633 Y98.139 E4.95333
G1 X131.55 Y98.449 E4.96774
G1 X131.356 Y99.093 E4.99794
G1 X131.162 Y99.673 E5.0254
G1 X130.919 Y100.328 E5.05677
G1 X130.738 Y100.773 E5.07834
G1 X130.47 Y101.38 E5.10813
G1 X130.14 Y102.055 E5.14187
G1 X129.497 Y103.292 E5.20446
G1 X128.338 Y105.6 E5.32043
G1 X127.263 Y107.904 E5.43459
G1 X126.265 Y110.208 E5.54733
G1 X125.34 Y112.522 E5.65922
G1 X124.462 Y114.912 E5.77355
G1 X123.663 Y117.293 E5.88632
G1 X122.926 Y119.714 E5.99995
G1 X122.27 Y122.107 E6.11136
G1 X121.665 Y124.591 E6.22616
G1 X121.139 Y127.058 E6.33942
G1 X120.693 Y129.479 E6.44995
G1 X120.3 Y132.005 E6.56474
G1 X119.986 Y134.489 E6.67716
G1 X119.737 Y137.038 E6.79216
G1 X119.708 Y137.435 E6.81003
G1 X119.595 Y138.825 E6.87265
G1 X119.431 Y140.024 E6.92699
G1 X119.419 Y140.086 E6.92982
G1 X119.201 Y140.999 E6.97197
G1 X119.008 Y141.612 E7.00083
G1 X118.929 Y141.839 E7.01162
G1 X118.583 Y142.71 E7.0537
G1 X118.164 Y143.55 E7.09585
G1 X117.676 Y144.35 E7.13793
G1 X117.077 Y145.16 E7.18316
G1 X116.973 Y145.288 E7.19057
G1 X116.351 Y145.99 E7.23268
G1 X115.672 Y146.636 E7.27476
G1 X114.94 Y147.222 E7.31686
G1 X114.078 Y147.794 E7.36331
G1 X113.837 Y147.938 E7.37592
G1 X113.012 Y148.384 E7.41803
G1 X112.152 Y148.758 E7.46014
G1 X111.264 Y149.058 E7.50223
G1 X110.353 Y149.281 E7.54434
G1 X109.426 Y149.426 E7.58647
G1 X108.37 Y149.494 E7.63398
G1 X107.489 Y149.508 E7.67354
G1 X104.836 Y149.509 E7.79267
G1 X103.331 Y149.489 E7.86025
G1 X100.515 Y149.492 E7.98669
G1 X99.518 Y149.508 E8.03146
G1 X98.836 Y149.509 E8.06209
G1 X97.331 Y149.489 E8.12967
G1 X94.515 Y149.492 E8.25611
G1 X93.518 Y149.508 E8.30088
G1 X92.557 Y149.509 E8.34403
G1 X91.698 Y149.498 E8.38261
G1 X90.761 Y149.445 E8.42475
G1 X89.833 Y149.312 E8.46684
G1 X88.919 Y149.1 E8.50897
G1 X88.027 Y148.812 E8.55106
G1 X86.798 Y148.268 E8.6114
G1 X86.485 Y148.106 E8.62723
G1 X85.671 Y147.64 E8.66934
G1 X84.9 Y147.106 E8.71146
G1 X84.177 Y146.508 E8.75358
G1 X83.508 Y145.851 E8.79569
G1 X82.897 Y145.14 E8.83778
G1 X82.256 Y144.236 E8.88754
G1 X82.148 Y144.066 E8.89658
G1 X81.68 Y143.253 E8.9387
G1 X81.282 Y142.404 E8.98081
G1 X80.951 Y141.502 E9.02395
G1 X80.937 Y141.458 E9.02602
G1 X80.702 Y140.603 E9.06583
G1 X80.649 Y140.374 E9.07639
G1 X80.426 Y139.038 E9.13721
G1 X80.357 Y138.3 E9.17049
G1 X80.236 Y136.659 E9.24437
G1 X79.982 Y134.162 E9.35707
G1 X79.654 Y131.651 E9.47077
G1 X79.262 Y129.185 E9.58289
G1 X78.795 Y126.709 E9.69602
G1 X78.251 Y124.211 E9.81082
G1 X77.662 Y121.83 E9.92095
G1 X76.981 Y119.385 E10.03491
G1 X76.239 Y116.978 E10.14801
G1 X75.418 Y114.564 E10.2625
G1 X74.56 Y112.255 E10.3731
G1 X73.597 Y109.874 E10.48842
G1 X72.6 Y107.597 E10.60003
G1 X71.515 Y105.298 E10.71418
G1 X70.55 Y103.385 E10.81039
G1 X69.815 Y101.97 E10.88198
G1 X69.488 Y101.289 E10.9159
G1 X69.301 Y100.867 E10.93663
G1 X69.057 Y100.271 E10.96554
G1 X68.885 Y99.812 E10.98755
G1 X68.656 Y99.132 E11.01977
G1 X68.502 Y98.622 E11.04369
G1 X68.307 Y97.896 E11.07744
G1 X68.22 Y97.526 E11.09451
G1 X68.087 Y96.869 E11.12461
G1 X67.996 Y96.339 E11.14876
G1 X67.903 Y95.682 E11.17855
G1 X67.853 Y95.228 E11.19906
G1 X67.799 Y94.545 E11.22982
G1 X67.766 Y93.73 E11.26645
G1 X67.75 Y92.592 E11.31755
G1 X67.751 Y58.907 E12.83004
G1 X67.761 Y58.244 E12.85982
G1 X67.815 Y57.308 E12.90191
G1 X67.949 Y56.38 E12.94402
G1 X68.161 Y55.466 E12.98614
G1 X68.451 Y54.574 E13.02826
G1 X68.815 Y53.71 E13.07036
G1 X69.251 Y52.88 E13.11245
G1 X69.757 Y52.09 E13.15458
G0 F3600 X70.153 Y52.223
G1 F1800 X70.722 Y51.5 E13.19589
G1 X71.352 Y50.828 E13.23725
G1 X72.038 Y50.214 E13.27859
G1 X72.775 Y49.662 E13.31993
G1 X73.556 Y49.175 E13.36126
G1 X74.377 Y48.758 E13.40261
G1 X75.231 Y48.415 E13.44393
G1 X76.112 Y48.146 E13.48529
G1 X77.013 Y47.955 E13.52664
G1 X77.926 Y47.843 E13.56795
G1 X78.462 Y47.814 E13.59205
G1 X79.08 Y47.801 E13.6198
G1 X80.043 Y47.801 E13.66304
G1 X80.915 Y47.813 E13.7022
G1 X81.834 Y47.868 E13.74354
G1 X82.683 Y47.99 E13.78205
G1 X83.554 Y48.152 E13.82183
G1 X86.153 Y48.598 E13.94024
G1 X88.659 Y48.955 E14.05389
G1 X91.143 Y49.237 E14.16614
G1 X93.689 Y49.454 E14.28088
G1 X96.195 Y49.596 E14.39358
G1 X98.746 Y49.669 E14.50817
G1 X101.258 Y49.669 E14.62096
G1 X103.795 Y49.598 E14.73492
G1 X106.316 Y49.455 E14.8483
G1 X108.847 Y49.241 E14.96235
G1 X111.332 Y48.959 E15.07464
G1 X113.851 Y48.6 E15.18889
G1 X116.349 Y48.172 E15.30269
G1 X117.055 Y48.035 E15.33498
G1 X117.509 Y47.956 E15.35567
G1 X118.423 Y47.843 E15.39703
G1 X118.962 Y47.814 E15.42126
G1 X119.58 Y47.801 E15.44902
G1 X120.68 Y47.802 E15.49841
G1 X121.378 Y47.811 E15.52975
G1 X122.297 Y47.863 E15.57108
G1 X123.208 Y47.994 E15.61241
G1 X124.104 Y48.204 E15.65373
G1 X124.979 Y48.491 E15.69508
G1 X125.826 Y48.853 E15.73644
G1 X126.638 Y49.287 E15.77778
G1 X127.409 Y49.789 E15.81909
G1 X128.134 Y50.357 E15.86044
G1 X128.807 Y50.986 E15.90181
G1 X129.422 Y51.67 E15.94311
G1 X129.976 Y52.405 E15.98443
G1 X130.464 Y53.186 E16.02578
G1 X130.883 Y54.006 E16.06713
G1 X131.229 Y54.859 E16.10846
G1 X131.499 Y55.739 E16.14979
G1 X131.692 Y56.64 E16.19117
G1 X131.806 Y57.553 E16.23248
G1 X131.837 Y58.113 E16.25766
G1 X131.85 Y58.731 E16.28542
G1 X131.849 Y92.748 E17.81282
G1 X131.833 Y93.832 E17.8615
G1 X131.805 Y94.458 E17.88964
G1 X131.763 Y95.026 E17.91521
G1 X131.693 Y95.691 E17.94524
G1 X131.631 Y96.141 E17.96563
G1 X131.516 Y96.812 E17.9962
G1 X131.369 Y97.526 E18.02893
G1 X131.246 Y98.036 E18.05249
G1 X131.163 Y98.346 E18.0669
G1 X130.977 Y98.966 E18.09596
G1 X130.783 Y99.546 E18.12342
G1 X130.549 Y100.178 E18.15368
G1 X130.368 Y100.623 E18.17525
G1 X130.109 Y101.207 E18.20394
G1 X129.785 Y101.871 E18.23711
G1 X129.157 Y103.079 E18.29825
G1 X127.97 Y105.443 E18.41702
G1 X126.898 Y107.741 E18.53088
G1 X125.904 Y110.037 E18.64322
G1 X124.953 Y112.415 E18.75822
G1 X124.09 Y114.763 E18.87054
G1 X123.28 Y117.176 E18.98483
G1 X122.553 Y119.565 E19.09695
G1 X121.871 Y122.054 E19.21283
G1 X121.272 Y124.51 E19.32634
G1 X120.755 Y126.939 E19.43785
G1 X120.291 Y129.457 E19.55281
G1 X119.907 Y131.93 E19.66519
G1 X119.59 Y134.432 E19.77843
G1 X119.338 Y137.01 E19.89473
G1 X119.309 Y137.403 E19.91243
G1 X119.196 Y138.793 E19.97505
G1 X119.038 Y139.948 E20.02739
G1 X119.026 Y140.01 E20.03023
G1 X118.812 Y140.906 E20.07159
G1 X118.63 Y141.48 E20.09863
G1 X118.551 Y141.707 E20.10942
G1 X118.211 Y142.563 E20.15077
G1 X117.798 Y143.385 E20.19208
G1 X117.315 Y144.169 E20.23343
G1 X116.767 Y144.907 E20.2747
G1 X116.663 Y145.035 E20.28211
G1 X116.052 Y145.724 E20.32346
G1 X115.383 Y146.357 E20.36481
G1 X114.662 Y146.93 E20.40616
G1 X113.873 Y147.45 E20.44859
G1 X113.632 Y147.594 E20.4612
G1 X112.822 Y148.032 E20.50254
G1 X111.977 Y148.397 E20.54387
G1 X111.103 Y148.688 E20.58523
G1 X110.208 Y148.902 E20.62655
G1 X109.297 Y149.038 E20.66791
G1 X108.363 Y149.094 E20.70993
G1 X107.314 Y149.109 E20.75703
G1 X104.688 Y149.108 E20.87494
G1 X103.336 Y149.089 E20.93565
G1 X100.508 Y149.092 E21.06264
G1 X99.511 Y149.108 E21.10741
G1 X98.836 Y149.109 E21.13772
G1 X97.336 Y149.089 E21.20507
G1 X94.508 Y149.092 E21.33205
G1 X93.511 Y149.108 E21.37683
G1 X92.557 Y149.109 E21.41966
G1 X91.703 Y149.098 E21.45801
G1 X90.784 Y149.045 E21.49934
G1 X89.873 Y148.912 E21.54068
G1 X88.977 Y148.701 E21.58201
G1 X88.103 Y148.413 E21.62333
G1 X86.982 Y147.913 E21.67845
G1 X86.669 Y147.751 E21.69427
G1 X85.87 Y147.293 E21.73562
G1 X85.114 Y146.767 E21.77698
G1 X84.407 Y146.177 E21.81832
G1 X83.754 Y145.529 E21.85963
G1 X83.159 Y144.826 E21.90099
G1 X82.594 Y144.021 E21.94515
G1 X82.486 Y143.851 E21.95419
G1 X82.026 Y143.053 E21.99555
G1 X81.638 Y142.219 E22.03685
G1 X81.332 Y141.381 E22.07691
G1 X81.318 Y141.337 E22.07898
G1 X81.092 Y140.513 E22.11734
G1 X81.039 Y140.284 E22.1279
G1 X80.824 Y138.997 E22.18649
G1 X80.756 Y138.268 E22.21936
G1 X80.635 Y136.628 E22.2932
G1 X80.378 Y134.102 E22.40721
G1 X80.053 Y131.607 E22.52018
G1 X79.656 Y129.12 E22.63326
G1 X79.184 Y126.614 E22.74776
G1 X78.645 Y124.143 E22.86132
G1 X78.049 Y121.732 E22.97284
G1 X77.363 Y119.265 E23.08781
G1 X76.617 Y116.847 E23.20143
G1 X75.807 Y114.464 E23.31445
G1 X74.917 Y112.072 E23.42904
G1 X73.975 Y109.742 E23.54189
G1 X72.956 Y107.416 E23.65591
G1 X71.869 Y105.111 E23.77034
G1 X70.905 Y103.2 E23.86645
G1 X70.17 Y101.785 E23.93804
G1 X69.854 Y101.127 E23.97082
G1 X69.667 Y100.705 E23.99154
G1 X69.432 Y100.131 E24.01939
G1 X69.26 Y99.672 E24.0414
G1 X69.039 Y99.016 E24.07248
G1 X68.885 Y98.506 E24.0964
G1 X68.696 Y97.804 E24.12905
G1 X68.609 Y97.434 E24.14611
G1 X68.481 Y96.802 E24.17507
G1 X68.39 Y96.272 E24.19921
G1 X68.301 Y95.638 E24.22796
G1 X68.251 Y95.184 E24.24847
G1 X68.199 Y94.526 E24.2781
G1 X68.166 Y93.724 E24.31415
G1 X68.15 Y92.592 E24.36498
G1 X68.151 Y58.913 E25.87721
G1 X68.161 Y58.25 E25.90698
G1 X68.215 Y57.331 E25.94831
G1 X68.348 Y56.42 E25.98965
G1 X68.56 Y55.524 E26.031
G1 X68.849 Y54.65 E26.07233
G1 X69.213 Y53.804 E26.11368
G1 X69.649 Y52.993 E26.15503
G1 X70.153 Y52.223 E26.19635
G0 F3600 X70.549 Y52.359
G1 F1800 X71.116 Y51.656 E26.2369
G1 X71.743 Y51.007 E26.27742
G1 X72.426 Y50.415 E26.318
G1 X73.158 Y49.886 E26.35856
G1 X73.934 Y49.424 E26.39911
G1 X74.747 Y49.032 E26.43963
G1 X75.593 Y48.714 E26.48021
G1 X76.463 Y48.472 E26.52076
G1 X77.351 Y48.308 E26.56131
G1 X78.473 Y48.214 E26.61186
G1 X79.08 Y48.201 E26.63912
G1 X80.043 Y48.201 E26.68236
G1 X80.909 Y48.213 E26.72125
G1 X81.81 Y48.267 E26.76178
G1 X82.61 Y48.383 E26.79808
G1 X83.491 Y48.546 E26.83831
G1 X86.099 Y48.995 E26.95713
G1 X88.589 Y49.349 E27.07006
G1 X91.136 Y49.638 E27.18516
G1 X93.633 Y49.851 E27.29768
G1 X96.195 Y49.996 E27.4129
G1 X98.735 Y50.069 E27.527
G1 X101.269 Y50.069 E27.64078
G1 X103.795 Y49.998 E27.75425
G1 X106.337 Y49.854 E27.86857
G1 X108.89 Y49.638 E27.98361
G1 X111.397 Y49.353 E28.0969
G1 X113.903 Y48.996 E28.21056
G1 X116.448 Y48.561 E28.32649
G1 X117.131 Y48.428 E28.35773
G1 X117.575 Y48.35 E28.37798
G1 X118.472 Y48.241 E28.41855
G1 X118.973 Y48.214 E28.44108
G1 X119.58 Y48.201 E28.46834
G1 X120.675 Y48.202 E28.5175
G1 X121.373 Y48.211 E28.54885
G1 X122.274 Y48.262 E28.58937
G1 X123.168 Y48.394 E28.62995
G1 X124.046 Y48.603 E28.67047
G1 X124.903 Y48.89 E28.71105
G1 X125.73 Y49.251 E28.75157
G1 X126.523 Y49.684 E28.79214
G1 X127.274 Y50.185 E28.83267
G1 X127.978 Y50.751 E28.87323
G1 X128.629 Y51.377 E28.91378
G1 X129.222 Y52.058 E28.95433
G1 X129.752 Y52.789 E28.99487
G1 X130.216 Y53.564 E29.03543
G1 X130.61 Y54.377 E29.076
G1 X130.93 Y55.221 E29.11653
G1 X131.174 Y56.091 E29.1571
G1 X131.34 Y56.979 E29.19766
G1 X131.437 Y58.124 E29.24926
G1 X131.45 Y58.731 E29.27652
G1 X131.449 Y92.743 E30.8037
G1 X131.433 Y93.827 E30.85237
G1 X131.406 Y94.428 E30.87939
G1 X131.364 Y94.996 E30.90496
G1 X131.297 Y95.636 E30.93385
G1 X131.235 Y96.086 E30.95425
G1 X131.124 Y96.732 E30.98368
G1 X130.97 Y97.481 E31.01802
G1 X130.777 Y98.242 E31.05327
G1 X130.597 Y98.84 E31.08131
G1 X130.403 Y99.42 E31.10877
G1 X130.178 Y100.027 E31.13784
G1 X129.997 Y100.472 E31.15941
G1 X129.749 Y101.034 E31.18699
G1 X129.43 Y101.686 E31.21958
G1 X128.788 Y102.922 E31.28212
G1 X127.614 Y105.26 E31.39959
G1 X126.539 Y107.563 E31.51371
G1 X125.524 Y109.909 E31.62848
G1 X124.593 Y112.234 E31.74094
G1 X123.712 Y114.635 E31.85577
G1 X122.902 Y117.047 E31.97002
G1 X122.161 Y119.48 E32.08422
G1 X121.494 Y121.918 E32.19771
G1 X120.879 Y124.438 E32.31418
G1 X120.363 Y126.861 E32.42542
G1 X119.897 Y129.389 E32.54084
G1 X119.508 Y131.89 E32.65449
G1 X119.193 Y134.379 E32.76714
G1 X118.939 Y136.985 E32.8847
G1 X118.91 Y137.37 E32.90204
G1 X118.797 Y138.76 E32.96466
G1 X118.645 Y139.872 E33.01505
G1 X118.633 Y139.934 E33.01789
G1 X118.422 Y140.812 E33.05843
G1 X118.252 Y141.349 E33.08373
G1 X118.173 Y141.576 E33.09452
G1 X117.839 Y142.415 E33.13507
G1 X117.432 Y143.221 E33.17561
G1 X116.955 Y143.988 E33.21616
G1 X116.456 Y144.655 E33.25357
G1 X116.352 Y144.783 E33.26097
G1 X115.752 Y145.458 E33.30152
G1 X115.095 Y146.077 E33.34205
G1 X114.386 Y146.636 E33.38259
G1 X113.668 Y147.107 E33.42115
G1 X113.427 Y147.251 E33.43376
G1 X112.632 Y147.679 E33.4743
G1 X111.802 Y148.036 E33.51487
G1 X110.944 Y148.318 E33.55542
G1 X110.064 Y148.522 E33.59598
G1 X109.17 Y148.648 E33.63652
G1 X108.357 Y148.694 E33.67308
G1 X107.314 Y148.709 E33.71992
G1 X104.693 Y148.708 E33.8376
G1 X103.341 Y148.689 E33.89832
G1 X100.501 Y148.692 E34.02584
G1 X99.505 Y148.708 E34.07056
G1 X98.836 Y148.709 E34.1006
G1 X97.341 Y148.689 E34.16774
G1 X94.501 Y148.692 E34.29525
G1 X93.505 Y148.708 E34.33998
G1 X92.557 Y148.709 E34.38255
G1 X91.709 Y148.698 E34.42063
G1 X90.807 Y148.645 E34.4612
G1 X89.914 Y148.513 E34.50173
G1 X89.036 Y148.302 E34.54228
G1 X88.18 Y148.014 E34.58283
G1 X87.166 Y147.558 E34.63275
G1 X86.853 Y147.396 E34.64858
G1 X86.07 Y146.945 E34.68915
G1 X85.33 Y146.428 E34.72968
G1 X84.638 Y145.847 E34.77025
G1 X84.001 Y145.207 E34.8108
G1 X83.423 Y144.513 E34.85135
G1 X82.931 Y143.807 E34.88999
G1 X82.823 Y143.637 E34.89903
G1 X82.373 Y142.854 E34.93958
G1 X81.994 Y142.034 E34.98014
G1 X81.713 Y141.26 E35.01712
G1 X81.699 Y141.216 E35.01919
G1 X81.482 Y140.423 E35.05611
G1 X81.429 Y140.194 E35.06666
G1 X81.221 Y138.955 E35.12307
G1 X81.155 Y138.236 E35.15549
G1 X81.033 Y136.591 E35.22956
G1 X80.775 Y134.051 E35.34419
G1 X80.45 Y131.559 E35.45703
G1 X80.051 Y129.054 E35.57093
G1 X79.574 Y126.527 E35.6864
G1 X79.039 Y124.068 E35.79939
G1 X78.437 Y121.634 E35.91198
G1 X77.744 Y119.145 E36.02799
G1 X76.992 Y116.706 E36.14259
G1 X76.189 Y114.344 E36.2546
G1 X75.287 Y111.919 E36.37078
