;FLAVOR:Marlin
;TIME:1397
;Filament used: 0.967608m
;Layer height: 0.15
;MINX:67.75
;MINY:47.951
;MINZ:0.3
;MAXX:132.25
;MAXY:148.959
;MAXZ:9.85
;Generated with Cura_SteamEngine 4.13.0
M140 S90
M105
M190 S90
M104 S235
M105
M109 S235
M82 ;absolute extrusion mode
G21 ;metric values
G90 ;absolute positioning
M82 ;set extruder to absolute mode
M107 ;start with the fan off
G28 X0 Y0 ;move X/Y to min endstops
G28 Z0 ;move Z to min endstops
G1 Z15.0 F9000 ;move the platform down 15mm
G92 E0 ;zero the extruded length
G1 F200 E6 ;extrude 6 mm of feed stock
G92 E0 ;zero the extruded length again
G1 F9000
;Put printing message on LCD screen
M117 Printing...
G92 E0
G92 E0
G1 F3000 E-5
;LAYER_COUNT:58
;LAYER:0
M107
G1 F600 Z1.3
G0 F3600 X69.757 Y52.64 Z1.3
;TYPE:SKIRT
G1 F600 Z0.3
G1 F3000 E0
G1 F1800 X70.328 Y51.896 E0.04211
G1 X70.961 Y51.203 E0.08425
G1 X71.65 Y50.567 E0.12636
G1 X72.39 Y49.992 E0.16844
G1 X73.178 Y49.482 E0.21058
G1 X74.005 Y49.041 E0.25266
G1 X74.867 Y48.672 E0.29477
G1 X75.758 Y48.378 E0.33689
G1 X76.67 Y48.16 E0.379
G1 X77.598 Y48.022 E0.42112
G1 X78.451 Y47.964 E0.45951
G1 X79.08 Y47.951 E0.48776
G1 X80.043 Y47.951 E0.531
G1 X80.921 Y47.963 E0.57043
G1 X81.857 Y48.018 E0.61253
G1 X82.756 Y48.146 E0.6533
G1 X83.689 Y48.319 E0.69591
G1 X86.211 Y48.752 E0.81081
G1 X88.689 Y49.105 E0.9232
G1 X91.221 Y49.393 E1.03762
G1 X93.711 Y49.605 E1.14983
G1 X96.227 Y49.747 E1.26298
G1 X98.723 Y49.819 E1.3751
G1 X101.247 Y49.819 E1.48843
G1 X103.797 Y49.748 E1.60297
G1 X106.258 Y49.608 E1.71365
G1 X108.804 Y49.392 E1.82838
G1 X111.297 Y49.109 E1.94104
G1 X113.798 Y48.753 E2.05447
G1 X116.3 Y48.325 E2.16844
G1 X116.979 Y48.193 E2.1995
G1 X117.443 Y48.111 E2.22066
G1 X118.374 Y47.996 E2.26278
G1 X118.951 Y47.964 E2.28873
G1 X119.58 Y47.951 E2.31698
G1 X120.685 Y47.952 E2.36659
G1 X121.383 Y47.961 E2.39794
G1 X122.319 Y48.013 E2.44003
G1 X123.248 Y48.145 E2.48216
G1 X124.162 Y48.355 E2.52427
G1 X125.055 Y48.642 E2.56639
G1 X125.92 Y49.005 E2.60851
G1 X126.751 Y49.439 E2.6506
G1 X127.542 Y49.943 E2.69272
G1 X128.287 Y50.513 E2.73483
G1 X128.981 Y51.144 E2.77695
G1 X129.618 Y51.831 E2.81902
G1 X130.195 Y52.571 E2.86115
G1 X130.707 Y53.357 E2.90327
G1 X131.15 Y54.184 E2.9454
G1 X131.521 Y55.045 E2.98749
G1 X131.817 Y55.935 E3.02961
G1 X132.036 Y56.847 E3.07172
G1 X132.177 Y57.774 E3.11382
G1 X132.237 Y58.652 E3.15334
G1 X132.25 Y59.281 E3.18159
G1 X132.249 Y93.304 E4.70926
G1 X132.233 Y94.388 E4.75794
G1 X132.204 Y95.037 E4.78711
G1 X132.162 Y95.605 E4.81268
G1 X132.089 Y96.295 E4.84384
G1 X132.027 Y96.745 E4.86423
G1 X131.908 Y97.442 E4.89598
G1 X131.76 Y98.161 E4.92894
G1 X131.633 Y98.689 E4.95333
G1 X131.55 Y98.999 E4.96774
G1 X131.356 Y99.643 E4.99794
G1 X131.162 Y100.223 E5.0254
G1 X130.919 Y100.878 E5.05677
G1 X130.738 Y101.323 E5.07834
G1 X130.476 Y101.917 E5.10749
G1 X130.14 Y102.607 E5.14195
G1 X129.386 Y104.056 E5.21529
G1 X128.241 Y106.336 E5.32985
G1 X127.175 Y108.618 E5.44294
G1 X126.165 Y110.949 E5.55701
G1 X125.233 Y113.278 E5.66965
G1 X124.375 Y115.613 E5.78134
G1 X123.569 Y118.014 E5.89506
G1 X122.827 Y120.449 E6.00936
G1 X122.173 Y122.837 E6.12054
G1 X121.568 Y125.313 E6.23498
G1 X121.045 Y127.767 E6.34764
G1 X120.589 Y130.234 E6.46029
G1 X120.203 Y132.72 E6.57325
G1 X119.886 Y135.218 E6.68632
G1 X119.604 Y138.164 E6.8192
G1 X119.596 Y138.264 E6.8237
G1 X119.41 Y139.579 E6.88334
G1 X119.398 Y139.638 E6.88604
G1 X119.172 Y140.549 E6.92818
G1 X119.008 Y141.062 E6.95237
G1 X118.929 Y141.289 E6.96316
G1 X118.583 Y142.16 E7.00524
G1 X118.164 Y143 E7.04739
G1 X117.676 Y143.8 E7.08947
G1 X117.077 Y144.61 E7.1347
G1 X116.973 Y144.738 E7.14211
G1 X116.351 Y145.44 E7.18422
G1 X115.672 Y146.086 E7.2263
G1 X114.94 Y146.672 E7.2684
G1 X114.078 Y147.244 E7.31486
G1 X113.837 Y147.388 E7.32746
G1 X113.012 Y147.834 E7.36957
G1 X112.152 Y148.208 E7.41168
G1 X111.264 Y148.508 E7.45377
G1 X110.353 Y148.731 E7.49588
G1 X109.426 Y148.876 E7.53801
G1 X108.37 Y148.944 E7.58552
G1 X107.489 Y148.958 E7.62508
G1 X104.836 Y148.959 E7.74421
G1 X103.331 Y148.939 E7.81179
G1 X100.515 Y148.942 E7.93823
G1 X99.518 Y148.958 E7.983
G1 X98.836 Y148.959 E8.01363
G1 X97.331 Y148.939 E8.08121
G1 X94.515 Y148.942 E8.20765
G1 X93.518 Y148.958 E8.25242
G1 X92.557 Y148.959 E8.29557
G1 X91.698 Y148.948 E8.33415
G1 X90.761 Y148.895 E8.37629
G1 X89.833 Y148.762 E8.41838
G1 X88.919 Y148.55 E8.46051
G1 X88.027 Y148.262 E8.5026
G1 X86.798 Y147.718 E8.56294
G1 X86.485 Y147.556 E8.57877
G1 X85.671 Y147.09 E8.62088
G1 X84.9 Y146.556 E8.663
G1 X84.177 Y145.958 E8.70512
G1 X83.508 Y145.301 E8.74723
G1 X82.897 Y144.59 E8.78932
G1 X82.256 Y143.686 E8.83908
G1 X82.148 Y143.516 E8.84812
G1 X81.68 Y142.703 E8.89024
G1 X81.282 Y141.854 E8.93235
G1 X80.951 Y140.952 E8.97549
G1 X80.937 Y140.908 E8.97756
G1 X80.702 Y140.053 E9.01737
G1 X80.649 Y139.824 E9.02793
G1 X80.426 Y138.488 E9.08875
G1 X80.116 Y135.289 E9.23306
G1 X79.8 Y132.781 E9.34656
G1 X79.416 Y130.295 E9.45951
G1 X78.961 Y127.82 E9.5725
G1 X78.436 Y125.354 E9.68571
G1 X77.849 Y122.935 E9.79748
G1 X77.175 Y120.465 E9.91244
G1 X76.453 Y118.089 E10.02394
G1 X75.647 Y115.682 E10.13792
G1 X74.78 Y113.32 E10.25089
G1 X73.849 Y110.985 E10.36376
G1 X72.853 Y108.684 E10.47634
G1 X71.785 Y106.393 E10.58984
G1 X70.594 Y104.018 E10.70914
G1 X69.815 Y102.52 E10.78495
G1 X69.488 Y101.839 E10.81887
G1 X69.301 Y101.417 E10.8396
G1 X69.057 Y100.821 E10.86851
G1 X68.885 Y100.362 E10.89052
G1 X68.656 Y99.682 E10.92274
G1 X68.502 Y99.172 E10.94666
G1 X68.307 Y98.446 E10.98042
G1 X68.22 Y98.076 E10.99748
G1 X68.087 Y97.419 E11.02758
G1 X67.996 Y96.889 E11.05173
G1 X67.903 Y96.232 E11.08152
G1 X67.853 Y95.778 E11.10203
G1 X67.799 Y95.095 E11.13279
G1 X67.766 Y94.28 E11.16942
G1 X67.75 Y93.142 E11.22052
G1 X67.751 Y59.457 E12.73302
G1 X67.761 Y58.794 E12.76279
G1 X67.815 Y57.858 E12.80489
G1 X67.949 Y56.93 E12.84699
G1 X68.161 Y56.016 E12.88912
G1 X68.451 Y55.124 E12.93123
G1 X68.815 Y54.26 E12.97333
G1 X69.251 Y53.43 E13.01543
G1 X69.757 Y52.64 E13.05755
G0 F3600 X70.153 Y52.773
G1 F1800 X70.722 Y52.05 E13.09886
G1 X71.352 Y51.378 E13.14022
G1 X72.038 Y50.764 E13.18156
G1 X72.775 Y50.212 E13.2229
G1 X73.556 Y49.725 E13.26423
G1 X74.377 Y49.308 E13.30558
G1 X75.231 Y48.965 E13.3469
G1 X76.112 Y48.696 E13.38826
G1 X77.013 Y48.505 E13.42962
G1 X77.926 Y48.393 E13.47092
G1 X78.462 Y48.364 E13.49502
G1 X79.08 Y48.351 E13.52278
G1 X80.043 Y48.351 E13.56602
G1 X80.915 Y48.363 E13.60517
G1 X81.834 Y48.418 E13.64651
G1 X82.683 Y48.54 E13.68502
G1 X83.554 Y48.702 E13.7248
G1 X86.153 Y49.148 E13.84321
G1 X88.659 Y49.505 E13.95687
G1 X91.143 Y49.787 E14.06912
G1 X93.689 Y50.004 E14.18385
G1 X96.195 Y50.146 E14.29655
G1 X98.746 Y50.219 E14.41114
G1 X101.258 Y50.219 E14.52393
G1 X103.795 Y50.148 E14.63789
G1 X106.316 Y50.005 E14.75127
G1 X108.847 Y49.791 E14.86532
G1 X111.332 Y49.509 E14.97762
G1 X113.851 Y49.15 E15.09187
G1 X116.349 Y48.722 E15.20566
G1 X117.055 Y48.585 E15.23795
G1 X117.509 Y48.506 E15.25865
G1 X118.423 Y48.393 E15.3
G1 X118.962 Y48.364 E15.32423
G1 X119.58 Y48.351 E15.35199
G1 X120.68 Y48.352 E15.40138
G1 X121.378 Y48.361 E15.43272
G1 X122.297 Y48.413 E15.47405
G1 X123.208 Y48.544 E15.51538
G1 X124.104 Y48.754 E15.5567
G1 X124.979 Y49.041 E15.59805
G1 X125.826 Y49.403 E15.63941
G1 X126.638 Y49.837 E15.68075
G1 X127.409 Y50.339 E15.72206
G1 X128.134 Y50.907 E15.76341
G1 X128.807 Y51.536 E15.80478
G1 X129.422 Y52.22 E15.84608
G1 X129.976 Y52.955 E15.88741
G1 X130.464 Y53.736 E15.92876
G1 X130.883 Y54.556 E15.9701
G1 X131.229 Y55.409 E16.01143
G1 X131.499 Y56.289 E16.05277
G1 X131.692 Y57.19 E16.09414
G1 X131.806 Y58.103 E16.13545
G1 X131.837 Y58.663 E16.16064
G1 X131.85 Y59.281 E16.18839
G1 X131.849 Y93.298 E17.71579
G1 X131.833 Y94.382 E17.76447
G1 X131.805 Y95.008 E17.79261
G1 X131.763 Y95.576 E17.81818
G1 X131.693 Y96.241 E17.84821
G1 X131.631 Y96.691 E17.8686
G1 X131.516 Y97.362 E17.89917
G1 X131.369 Y98.076 E17.9319
G1 X131.246 Y98.586 E17.95546
G1 X131.163 Y98.896 E17.96987
G1 X130.977 Y99.516 E17.99893
G1 X130.783 Y100.096 E18.02639
G1 X130.549 Y100.728 E18.05665
G1 X130.368 Y101.173 E18.07822
G1 X130.115 Y101.745 E18.10631
G1 X129.785 Y102.423 E18.14017
G1 X129.046 Y103.844 E18.21208
G1 X127.879 Y106.167 E18.32881
G1 X126.804 Y108.468 E18.44285
G1 X125.803 Y110.778 E18.55589
G1 X124.858 Y113.14 E18.67012
G1 X123.993 Y115.495 E18.78277
G1 X123.183 Y117.907 E18.89701
G1 X122.456 Y120.291 E19.00892
G1 X121.773 Y122.784 E19.12499
G1 X121.176 Y125.232 E19.23813
G1 X120.659 Y127.654 E19.34933
G1 X120.189 Y130.199 E19.46553
G1 X119.809 Y132.645 E19.57668
G1 X119.49 Y135.163 E19.69064
G1 X119.197 Y138.232 E19.82907
G1 X119.018 Y139.5 E19.88657
G1 X119.006 Y139.559 E19.88928
G1 X118.784 Y140.452 E19.93059
G1 X118.63 Y140.93 E19.95314
G1 X118.551 Y141.157 E19.96393
G1 X118.211 Y142.013 E20.00529
G1 X117.798 Y142.835 E20.0466
G1 X117.315 Y143.619 E20.08794
G1 X116.767 Y144.357 E20.12922
G1 X116.663 Y144.485 E20.13662
G1 X116.052 Y145.174 E20.17797
G1 X115.383 Y145.807 E20.21933
G1 X114.662 Y146.38 E20.26068
G1 X113.873 Y146.9 E20.30311
G1 X113.632 Y147.044 E20.31571
G1 X112.822 Y147.482 E20.35706
G1 X111.977 Y147.847 E20.39839
G1 X111.103 Y148.138 E20.43975
G1 X110.208 Y148.352 E20.48107
G1 X109.297 Y148.488 E20.52243
G1 X108.363 Y148.544 E20.56444
G1 X107.314 Y148.559 E20.61155
G1 X104.688 Y148.558 E20.72946
G1 X103.336 Y148.539 E20.79017
G1 X100.508 Y148.542 E20.91715
G1 X99.511 Y148.558 E20.96192
G1 X98.836 Y148.559 E20.99223
G1 X97.336 Y148.539 E21.05959
G1 X94.508 Y148.542 E21.18657
G1 X93.511 Y148.558 E21.23134
G1 X92.557 Y148.559 E21.27418
G1 X91.703 Y148.548 E21.31253
G1 X90.784 Y148.495 E21.35386
G1 X89.873 Y148.362 E21.3952
G1 X88.977 Y148.151 E21.43653
G1 X88.103 Y147.863 E21.47785
G1 X86.982 Y147.363 E21.53296
G1 X86.669 Y147.201 E21.54879
G1 X85.87 Y146.743 E21.59014
G1 X85.114 Y146.217 E21.63149
G1 X84.407 Y145.627 E21.67284
G1 X83.754 Y144.979 E21.71415
G1 X83.159 Y144.276 E21.7555
G1 X82.594 Y143.471 E21.79966
G1 X82.486 Y143.301 E21.8087
G1 X82.026 Y142.503 E21.85006
G1 X81.638 Y141.669 E21.89136
G1 X81.332 Y140.831 E21.93142
G1 X81.318 Y140.787 E21.93349
G1 X81.092 Y139.963 E21.97186
G1 X81.039 Y139.734 E21.98241
G1 X80.824 Y138.447 E22.041
G1 X80.512 Y135.237 E22.18581
G1 X80.199 Y132.742 E22.29872
G1 X79.806 Y130.199 E22.41426
G1 X79.353 Y127.736 E22.52671
G1 X78.838 Y125.315 E22.63784
G1 X78.23 Y122.811 E22.75354
G1 X77.558 Y120.349 E22.86814
G1 X76.839 Y117.984 E22.97913
G1 X76.015 Y115.523 E23.09566
G1 X75.157 Y113.182 E23.20761
G1 X74.229 Y110.857 E23.32001
G1 X73.206 Y108.492 E23.43571
G1 X72.148 Y106.223 E23.54812
G1 X70.949 Y103.833 E23.66818
G1 X70.17 Y102.335 E23.744
G1 X69.854 Y101.677 E23.77677
G1 X69.667 Y101.255 E23.7975
G1 X69.432 Y100.681 E23.82535
G1 X69.26 Y100.222 E23.84736
G1 X69.039 Y99.566 E23.87844
G1 X68.885 Y99.056 E23.90236
G1 X68.696 Y98.354 E23.935
G1 X68.609 Y97.984 E23.95207
G1 X68.481 Y97.352 E23.98102
G1 X68.39 Y96.822 E24.00517
G1 X68.301 Y96.188 E24.03392
G1 X68.251 Y95.734 E24.05442
G1 X68.199 Y95.076 E24.08406
G1 X68.166 Y94.274 E24.1201
G1 X68.15 Y93.142 E24.17094
G1 X68.151 Y59.463 E25.68316
G1 X68.161 Y58.8 E25.71294
G1 X68.215 Y57.881 E25.75427
G1 X68.348 Y56.97 E25.79561
G1 X68.56 Y56.074 E25.83695
G1 X68.849 Y55.2 E25.87829
G1 X69.213 Y54.354 E25.91964
G1 X69.649 Y53.543 E25.96098
G1 X70.153 Y52.773 E26.0023
G0 F3600 X70.549 Y52.909
G1 F1800 X71.116 Y52.206 E26.04286
G1 X71.743 Y51.557 E26.08338
G1 X72.426 Y50.965 E26.12396
G1 X73.158 Y50.436 E26.16451
G1 X73.934 Y49.974 E26.20506
G1 X74.747 Y49.582 E26.24559
G1 X75.593 Y49.264 E26.28617
G1 X76.463 Y49.022 E26.32672
G1 X77.351 Y48.858 E26.36726
G1 X78.473 Y48.764 E26.41782
G1 X79.08 Y48.751 E26.44508
G1 X80.043 Y48.751 E26.48832
G1 X80.909 Y48.763 E26.52721
G1 X81.81 Y48.817 E26.56774
G1 X82.61 Y48.933 E26.60403
G1 X83.491 Y49.096 E26.64426
G1 X86.099 Y49.545 E26.76309
G1 X88.589 Y49.899 E26.87602
G1 X91.136 Y50.188 E26.99111
G1 X93.633 Y50.401 E27.10364
G1 X96.195 Y50.546 E27.21886
G1 X98.735 Y50.619 E27.33296
G1 X101.269 Y50.619 E27.44674
G1 X103.795 Y50.548 E27.5602
G1 X106.337 Y50.404 E27.67452
G1 X108.89 Y50.188 E27.78957
G1 X111.397 Y49.903 E27.90286
G1 X113.903 Y49.546 E28.01652
G1 X116.448 Y49.111 E28.13245
G1 X117.131 Y48.978 E28.16369
G1 X117.575 Y48.9 E28.18393
G1 X118.472 Y48.791 E28.2245
G1 X118.973 Y48.764 E28.24703
G1 X119.58 Y48.751 E28.27429
G1 X120.675 Y48.752 E28.32346
G1 X121.373 Y48.761 E28.3548
G1 X122.274 Y48.812 E28.39532
G1 X123.168 Y48.944 E28.4359
G1 X124.046 Y49.153 E28.47643
G1 X124.903 Y49.44 E28.51701
G1 X125.73 Y49.801 E28.55752
G1 X126.523 Y50.234 E28.59809
G1 X127.274 Y50.735 E28.63863
G1 X127.978 Y51.301 E28.67919
G1 X128.629 Y51.927 E28.71974
G1 X129.222 Y52.608 E28.76029
G1 X129.752 Y53.339 E28.80083
G1 X130.216 Y54.114 E28.84139
G1 X130.61 Y54.927 E28.88195
G1 X130.93 Y55.771 E28.92248
G1 X131.174 Y56.641 E28.96305
G1 X131.34 Y57.529 E29.00362
G1 X131.437 Y58.674 E29.05521
G1 X131.45 Y59.281 E29.08247
G1 X131.449 Y93.293 E30.60965
G1 X131.433 Y94.377 E30.65833
G1 X131.406 Y94.978 E30.68534
G1 X131.364 Y95.546 E30.71092
G1 X131.297 Y96.186 E30.73981
G1 X131.235 Y96.636 E30.76021
G1 X131.124 Y97.282 E30.78964
G1 X130.97 Y98.031 E30.82397
G1 X130.777 Y98.792 E30.85922
G1 X130.597 Y99.39 E30.88727
G1 X130.403 Y99.97 E30.91473
G1 X130.178 Y100.577 E30.94379
G1 X129.997 Y101.022 E30.96536
G1 X129.754 Y101.572 E30.99236
G1 X129.43 Y102.238 E31.02562
G1 X128.677 Y103.686 E31.0989
G1 X127.517 Y105.996 E31.21497
G1 X126.451 Y108.276 E31.32798
G1 X125.423 Y110.649 E31.4441
G1 X124.499 Y112.959 E31.55581
G1 X123.614 Y115.367 E31.671
G1 X122.808 Y117.769 E31.78476
G1 X122.062 Y120.215 E31.89959
G1 X121.394 Y122.655 E32.01318
G1 X120.784 Y125.151 E32.12855
G1 X120.26 Y127.612 E32.24153
G1 X119.801 Y130.097 E32.35499
G1 X119.41 Y132.61 E32.46919
G1 X119.09 Y135.14 E32.58369
G1 X118.815 Y138 E32.7127
G1 X118.799 Y138.2 E32.72171
G1 X118.626 Y139.42 E32.77704
G1 X118.614 Y139.479 E32.77974
G1 X118.395 Y140.355 E32.82029
G1 X118.173 Y141.026 E32.85202
G1 X117.839 Y141.865 E32.89257
G1 X117.432 Y142.671 E32.93311
G1 X116.955 Y143.438 E32.97367
G1 X116.456 Y144.105 E33.01107
G1 X116.352 Y144.233 E33.01848
G1 X115.752 Y144.908 E33.05903
G1 X115.095 Y145.527 E33.09956
G1 X114.386 Y146.086 E33.1401
G1 X113.668 Y146.557 E33.17865
G1 X113.427 Y146.701 E33.19126
G1 X112.632 Y147.129 E33.2318
G1 X111.802 Y147.486 E33.27237
G1 X110.944 Y147.768 E33.31292
G1 X110.064 Y147.972 E33.35348
G1 X109.17 Y148.098 E33.39402
G1 X108.357 Y148.144 E33.43058
G1 X107.314 Y148.159 E33.47742
G1 X104.693 Y148.158 E33.59511
G1 X103.341 Y148.139 E33.65582
G1 X100.501 Y148.142 E33.78334
G1 X99.505 Y148.158 E33.82807
G1 X98.836 Y148.159 E33.85811
G1 X97.341 Y148.139 E33.92524
G1 X94.501 Y148.142 E34.05276
G1 X93.505 Y148.158 E34.09749
G1 X92.557 Y148.159 E34.14005
G1 X91.709 Y148.148 E34.17813
G1 X90.807 Y148.095 E34.2187
G1 X89.914 Y147.963 E34.25923
G1 X89.036 Y147.752 E34.29978
G1 X88.18 Y147.464 E34.34033
G1 X87.166 Y147.008 E34.39025
G1 X86.853 Y146.846 E34.40608
G1 X86.07 Y146.395 E34.44665
G1 X85.33 Y145.878 E34.48718
G1 X84.638 Y145.297 E34.52776
G1 X84.001 Y144.657 E34.5683
G1 X83.423 Y143.963 E34.60885
G1 X82.931 Y143.257 E34.64749
G1 X82.823 Y143.087 E34.65654
G1 X82.373 Y142.304 E34.69709
G1 X81.994 Y141.484 E34.73765
G1 X81.713 Y140.71 E34.77462
G1 X81.699 Y140.666 E34.77669
G1 X81.482 Y139.873 E34.81361
G1 X81.429 Y139.644 E34.82416
G1 X81.221 Y138.405 E34.88057
G1 X80.909 Y135.184 E35.02588
G1 X80.592 Y132.662 E35.14001
G1 X80.207 Y130.171 E35.25319
G1 X79.746 Y127.659 E35.36786
G1 X79.222 Y125.202 E35.48067
G1 X78.619 Y122.716 E35.59553
G1 X77.952 Y120.274 E35.70919
G1 X77.205 Y117.813 E35.82467
G1 X76.405 Y115.426 E35.93771
G1 X75.527 Y113.032 E36.05221
G1 X74.596 Y110.698 E36.16503
G1 X73.577 Y108.344 E36.28021
G1 X72.51 Y106.054 E36.39365
G1 X71.277 Y103.596 E36.51712
G1 X70.525 Y102.151 E36.59026
G1 X70.22 Y101.515 E36.62194
G1 X70.033 Y101.093 E36.64266
G1 X69.807 Y100.54 E36.66948
G1 X69.635 Y100.081 E36.69149
G1 X69.421 Y99.451 E36.72137
G1 X69.267 Y98.941 E36.74529
