;FLAVOR:Marlin
;TIME:1399
;Filament used: 0.971243m
;Layer height: 0.15
;MINX:67.75
;MINY:48.301
;MINZ:0.3
;MAXX:132.25
;MAXY:148.609
;MAXZ:9.85
;Generated with Cura_SteamEngine 4.13.0
M140 S90
M105
M190 S90
M104 S235
M105
M109 S235
M82 ;absolute extrusion mode
G21 ;metric values
G90 ;absolute positioning
M82 ;set extruder to absolute mode
M107 ;start with the fan off
G28 X0 Y0 ;move X/Y to min endstops
G28 Z0 ;move Z to min endstops
G1 Z15.0 F9000 ;move the platform down 15mm
G92 E0 ;zero the extruded length
G1 F200 E6 ;extrude 6 mm of feed stock
G92 E0 ;zero the extruded length again
G1 F9000
;Put printing message on LCD screen
M117 Printing...
G92 E0
G92 E0
G1 F3000 E-5
;LAYER_COUNT:58
;LAYER:0
M107
G1 F600 Z1.3
G0 F3600 X69.757 Y52.99 Z1.3
;TYPE:SKIRT
G1 F600 Z0.3
G1 F3000 E0
G1 F1800 X70.328 Y52.246 E0.04211
G1 X70.961 Y51.553 E0.08425
G1 X71.65 Y50.917 E0.12636
G1 X72.39 Y50.342 E0.16844
G1 X73.178 Y49.832 E0.21058
G1 X74.005 Y49.391 E0.25266
G1 X74.867 Y49.022 E0.29477
G1 X75.758 Y48.728 E0.33689
G1 X76.67 Y48.51 E0.379
G1 X77.598 Y48.372 E0.42112
G1 X78.451 Y48.314 E0.45951
G1 X79.08 Y48.301 E0.48776
G1 X80.043 Y48.301 E0.531
G1 X80.921 Y48.313 E0.57043
G1 X81.857 Y48.368 E0.61253
G1 X82.756 Y48.496 E0.6533
G1 X83.689 Y48.669 E0.69591
G1 X86.211 Y49.102 E0.81081
G1 X88.689 Y49.455 E0.9232
G1 X91.221 Y49.743 E1.03762
G1 X93.711 Y49.955 E1.14983
G1 X96.227 Y50.097 E1.26298
G1 X98.723 Y50.169 E1.3751
G1 X101.247 Y50.169 E1.48843
G1 X103.797 Y50.098 E1.60297
G1 X106.258 Y49.958 E1.71365
G1 X108.804 Y49.742 E1.82838
G1 X111.297 Y49.459 E1.94104
G1 X113.798 Y49.103 E2.05447
G1 X116.3 Y48.675 E2.16844
G1 X116.979 Y48.543 E2.1995
G1 X117.443 Y48.461 E2.22066
G1 X118.374 Y48.346 E2.26278
G1 X118.951 Y48.314 E2.28873
G1 X119.58 Y48.301 E2.31698
G1 X120.685 Y48.302 E2.36659
G1 X121.383 Y48.311 E2.39794
G1 X122.319 Y48.363 E2.44003
G1 X123.248 Y48.495 E2.48216
G1 X124.162 Y48.705 E2.52427
G1 X125.055 Y48.992 E2.56639
G1 X125.92 Y49.355 E2.60851
G1 X126.751 Y49.789 E2.6506
G1 X127.542 Y50.293 E2.69272
G1 X128.287 Y50.863 E2.73483
G1 X128.981 Y51.494 E2.77695
G1 X129.618 Y52.181 E2.81902
G1 X130.195 Y52.921 E2.86115
G1 X130.707 Y53.707 E2.90327
G1 X131.15 Y54.534 E2.9454
G1 X131.521 Y55.395 E2.98749
G1 X131.817 Y56.285 E3.02961
G1 X132.036 Y57.197 E3.07172
G1 X132.177 Y58.124 E3.11382
G1 X132.237 Y59.002 E3.15334
G1 X132.25 Y59.631 E3.18159
G1 X132.249 Y93.654 E4.70926
G1 X132.233 Y94.738 E4.75794
G1 X132.204 Y95.387 E4.78711
G1 X132.162 Y95.955 E4.81268
G1 X132.089 Y96.645 E4.84384
G1 X132.027 Y97.095 E4.86423
G1 X131.908 Y97.792 E4.89598
G1 X131.76 Y98.511 E4.92894
G1 X131.633 Y99.039 E4.95333
G1 X131.55 Y99.349 E4.96774
G1 X131.356 Y99.993 E4.99794
G1 X131.162 Y100.573 E5.0254
G1 X130.919 Y101.228 E5.05677
G1 X130.738 Y101.673 E5.07834
G1 X130.481 Y102.257 E5.10699
G1 X130.141 Y102.957 E5.14193
G1 X129.378 Y104.424 E5.21617
G1 X129.299 Y104.588 E5.22435
G1 X128.958 Y105.236 E5.25723
G1 X127.843 Y107.502 E5.37062
G1 X126.812 Y109.76 E5.48208
G1 X125.817 Y112.112 E5.59675
G1 X124.902 Y114.455 E5.70969
G1 X124.057 Y116.815 E5.82224
G1 X123.268 Y119.233 E5.93645
G1 X122.561 Y121.626 E6.04849
G1 X121.919 Y124.05 E6.16108
G1 X121.34 Y126.512 E6.27464
G1 X120.835 Y128.982 E6.38784
G1 X120.398 Y131.469 E6.50122
G1 X120.032 Y133.954 E6.61401
G1 X119.74 Y136.439 E6.72635
G1 X119.612 Y137.815 E6.78841
G1 X119.569 Y138.212 E6.80634
G1 X119.407 Y139.245 E6.85329
G1 X119.393 Y139.313 E6.8564
G1 X119.165 Y140.223 E6.89853
G1 X118.934 Y140.924 E6.93167
G1 X118.589 Y141.797 E6.97381
G1 X118.172 Y142.636 E7.01588
G1 X117.684 Y143.438 E7.05804
G1 X117.13 Y144.194 E7.10012
G1 X116.591 Y144.818 E7.13714
G1 X116.389 Y145.035 E7.15046
G1 X115.722 Y145.694 E7.19256
G1 X115 Y146.293 E7.23468
G1 X114.231 Y146.829 E7.27677
G1 X113.418 Y147.297 E7.31889
G1 X112.287 Y147.807 E7.3746
G1 X112.144 Y147.862 E7.38148
G1 X111.255 Y148.161 E7.42359
G1 X110.344 Y148.383 E7.46569
G1 X109.417 Y148.527 E7.50782
G1 X108.37 Y148.594 E7.55492
G1 X107.489 Y148.608 E7.59449
G1 X104.836 Y148.609 E7.71361
G1 X103.331 Y148.589 E7.78119
G1 X100.515 Y148.592 E7.90763
G1 X99.518 Y148.608 E7.95241
G1 X98.836 Y148.609 E7.98303
G1 X97.331 Y148.589 E8.05061
G1 X94.515 Y148.592 E8.17705
G1 X93.518 Y148.608 E8.22182
G1 X92.557 Y148.609 E8.26497
G1 X91.698 Y148.598 E8.30355
G1 X90.761 Y148.545 E8.34569
G1 X89.833 Y148.412 E8.38778
G1 X88.919 Y148.2 E8.42991
G1 X88.027 Y147.912 E8.472
G1 X86.773 Y147.355 E8.53361
G1 X86.46 Y147.192 E8.54945
G1 X85.648 Y146.724 E8.59154
G1 X84.878 Y146.188 E8.63366
G1 X84.157 Y145.589 E8.67575
G1 X83.489 Y144.93 E8.71788
G1 X82.88 Y144.217 E8.75999
G1 X82.272 Y143.359 E8.8072
G1 X82.164 Y143.19 E8.81621
G1 X81.693 Y142.379 E8.85832
G1 X81.293 Y141.531 E8.90042
G1 X80.951 Y140.602 E8.94487
G1 X80.937 Y140.558 E8.94694
G1 X80.702 Y139.703 E8.98676
G1 X80.649 Y139.474 E8.99731
G1 X80.427 Y138.152 E9.0575
G1 X80.29 Y136.855 E9.11606
G1 X80.183 Y135.753 E9.16578
G1 X79.87 Y133.266 E9.27833
G1 X79.485 Y130.773 E9.39159
G1 X79.028 Y128.292 E9.50487
G1 X78.516 Y125.884 E9.61541
G1 X77.907 Y123.376 E9.73129
G1 X77.248 Y120.964 E9.84356
G1 X76.525 Y118.583 E9.95529
G1 X75.71 Y116.15 E10.0705
G1 X74.855 Y113.817 E10.18207
G1 X73.919 Y111.469 E10.29557
G1 X72.923 Y109.168 E10.40815
G1 X71.854 Y106.874 E10.52179
G1 X70.68 Y104.531 E10.63946
G1 X69.814 Y102.867 E10.72369
G1 X69.53 Y102.28 E10.75296
G1 X69.323 Y101.817 E10.77574
G1 X69.072 Y101.206 E10.8054
G1 X68.893 Y100.731 E10.82819
G1 X68.656 Y100.032 E10.86133
G1 X68.502 Y99.522 E10.88525
G1 X68.307 Y98.796 E10.919
G1 X68.22 Y98.426 E10.93607
G1 X68.087 Y97.769 E10.96617
G1 X67.996 Y97.239 E10.99032
G1 X67.903 Y96.582 E11.02011
G1 X67.853 Y96.128 E11.04062
G1 X67.799 Y95.445 E11.07138
G1 X67.766 Y94.63 E11.10801
G1 X67.75 Y93.492 E11.15911
G1 X67.751 Y59.807 E12.6716
G1 X67.761 Y59.144 E12.70138
G1 X67.815 Y58.208 E12.74347
G1 X67.949 Y57.28 E12.78557
G1 X68.161 Y56.366 E12.8277
G1 X68.451 Y55.474 E12.86982
G1 X68.815 Y54.61 E12.91192
G1 X69.251 Y53.78 E12.95401
G1 X69.757 Y52.99 E12.99614
G0 F3600 X70.153 Y53.123
G1 F1800 X70.722 Y52.4 E13.03745
G1 X71.352 Y51.728 E13.07881
G1 X72.038 Y51.114 E13.12015
G1 X72.775 Y50.562 E13.16149
G1 X73.556 Y50.075 E13.20282
G1 X74.377 Y49.658 E13.24417
G1 X75.231 Y49.315 E13.28549
G1 X76.112 Y49.046 E13.32685
G1 X77.013 Y48.855 E13.3682
G1 X77.926 Y48.743 E13.40951
G1 X78.462 Y48.714 E13.43361
G1 X79.08 Y48.701 E13.46136
G1 X80.043 Y48.701 E13.5046
G1 X80.915 Y48.713 E13.54376
G1 X81.834 Y48.768 E13.5851
G1 X82.683 Y48.89 E13.62361
G1 X83.554 Y49.052 E13.66339
G1 X86.153 Y49.498 E13.7818
G1 X88.659 Y49.855 E13.89545
G1 X91.143 Y50.137 E14.0077
G1 X93.689 Y50.354 E14.12244
G1 X96.195 Y50.496 E14.23514
G1 X98.746 Y50.569 E14.34973
G1 X101.258 Y50.569 E14.46252
G1 X103.795 Y50.498 E14.57648
G1 X106.316 Y50.355 E14.68986
G1 X108.847 Y50.141 E14.80391
G1 X111.332 Y49.859 E14.9162
G1 X113.851 Y49.5 E15.03045
G1 X116.349 Y49.072 E15.14425
G1 X117.055 Y48.935 E15.17654
G1 X117.509 Y48.856 E15.19723
G1 X118.423 Y48.743 E15.23859
G1 X118.962 Y48.714 E15.26282
G1 X119.58 Y48.701 E15.29058
G1 X120.68 Y48.702 E15.33997
G1 X121.378 Y48.711 E15.37131
G1 X122.297 Y48.763 E15.41264
G1 X123.208 Y48.894 E15.45397
G1 X124.104 Y49.104 E15.49529
G1 X124.979 Y49.391 E15.53664
G1 X125.826 Y49.753 E15.578
G1 X126.638 Y50.187 E15.61934
G1 X127.409 Y50.689 E15.66065
G1 X128.134 Y51.257 E15.702
G1 X128.807 Y51.886 E15.74336
G1 X129.422 Y52.57 E15.78467
G1 X129.976 Y53.305 E15.82599
G1 X130.464 Y54.086 E15.86734
G1 X130.883 Y54.906 E15.90869
G1 X131.229 Y55.759 E15.95002
G1 X131.499 Y56.639 E15.99135
G1 X131.692 Y57.54 E16.03273
G1 X131.806 Y58.453 E16.07404
G1 X131.837 Y59.013 E16.09922
G1 X131.85 Y59.631 E16.12698
G1 X131.849 Y93.648 E17.65438
G1 X131.833 Y94.732 E17.70306
G1 X131.805 Y95.358 E17.7312
G1 X131.763 Y95.926 E17.75677
G1 X131.693 Y96.591 E17.78679
G1 X131.631 Y97.041 E17.80719
G1 X131.516 Y97.712 E17.83776
G1 X131.369 Y98.426 E17.87049
G1 X131.246 Y98.936 E17.89405
G1 X131.163 Y99.246 E17.90846
G1 X130.977 Y99.866 E17.93752
G1 X130.783 Y100.446 E17.96498
G1 X130.549 Y101.078 E17.99524
G1 X130.368 Y101.523 E18.01681
G1 X130.12 Y102.085 E18.0444
G1 X129.786 Y102.772 E18.07869
G1 X128.981 Y104.321 E18.15708
G1 X128.945 Y104.401 E18.16102
G1 X128.602 Y105.052 E18.19406
G1 X127.499 Y107.295 E18.30629
G1 X126.425 Y109.646 E18.42234
G1 X125.452 Y111.947 E18.53452
G1 X124.528 Y114.312 E18.64853
G1 X123.672 Y116.705 E18.76264
G1 X122.9 Y119.069 E18.87431
G1 X122.175 Y121.524 E18.98925
G1 X121.531 Y123.953 E19.10208
G1 X120.944 Y126.452 E19.21734
G1 X120.442 Y128.903 E19.32968
G1 X120.002 Y131.407 E19.44383
G1 X119.638 Y133.886 E19.55634
G1 X119.342 Y136.396 E19.66982
G1 X119.232 Y137.598 E19.72402
G1 X119.171 Y138.168 E19.74976
G1 X119.015 Y139.165 E19.79507
G1 X119.001 Y139.233 E19.79819
G1 X118.777 Y140.125 E19.83948
G1 X118.556 Y140.793 E19.87107
G1 X118.217 Y141.649 E19.91241
G1 X117.805 Y142.473 E19.95378
G1 X117.323 Y143.257 E19.9951
G1 X116.775 Y143.997 E20.03645
G1 X116.299 Y144.545 E20.06904
G1 X116.097 Y144.762 E20.08235
G1 X115.441 Y145.408 E20.12369
G1 X114.731 Y145.995 E20.16506
G1 X113.973 Y146.518 E20.20641
G1 X113.173 Y146.973 E20.24773
G1 X112.143 Y147.433 E20.29838
G1 X112 Y147.488 E20.30526
G1 X111.127 Y147.781 E20.34661
G1 X110.232 Y147.997 E20.38795
G1 X109.322 Y148.135 E20.42928
G1 X108.363 Y148.194 E20.47242
G1 X107.314 Y148.209 E20.51952
G1 X104.688 Y148.208 E20.63743
G1 X103.336 Y148.189 E20.69815
G1 X100.508 Y148.192 E20.82513
G1 X99.511 Y148.208 E20.8699
G1 X98.836 Y148.209 E20.90021
G1 X97.336 Y148.189 E20.96757
G1 X94.508 Y148.192 E21.09455
G1 X93.511 Y148.208 E21.13932
G1 X92.557 Y148.209 E21.18215
G1 X91.703 Y148.198 E21.2205
G1 X90.784 Y148.145 E21.26184
G1 X89.873 Y148.012 E21.30317
G1 X88.977 Y147.801 E21.34451
G1 X88.103 Y147.513 E21.38583
G1 X86.958 Y147.001 E21.44214
G1 X86.645 Y146.838 E21.45799
G1 X85.848 Y146.377 E21.49933
G1 X85.093 Y145.85 E21.54067
G1 X84.388 Y145.258 E21.58201
G1 X83.736 Y144.608 E21.62335
G1 X83.143 Y143.904 E21.66468
G1 X82.609 Y143.144 E21.70638
G1 X82.501 Y142.975 E21.71539
G1 X82.039 Y142.178 E21.75675
G1 X81.649 Y141.345 E21.79805
G1 X81.332 Y140.481 E21.83938
G1 X81.318 Y140.437 E21.84145
G1 X81.092 Y139.613 E21.87981
G1 X81.039 Y139.384 E21.89037
G1 X80.825 Y138.11 E21.94837
G1 X80.688 Y136.816 E22.0068
G1 X80.58 Y135.701 E22.0571
G1 X80.269 Y133.227 E22.16906
G1 X79.879 Y130.705 E22.28365
G1 X79.419 Y128.207 E22.39769
G1 X78.904 Y125.786 E22.50883
G1 X78.304 Y123.315 E22.62301
G1 X77.63 Y120.848 E22.73784
G1 X76.9 Y118.445 E22.85061
G1 X76.089 Y116.022 E22.96533
G1 X75.219 Y113.648 E23.07886
G1 X74.299 Y111.341 E23.19038
G1 X73.276 Y108.976 E23.30608
G1 X72.217 Y106.705 E23.41859
G1 X71.054 Y104.383 E23.5352
G1 X70.169 Y102.683 E23.62126
G1 X69.895 Y102.116 E23.64953
G1 X69.688 Y101.653 E23.6723
G1 X69.446 Y101.065 E23.70086
G1 X69.267 Y100.59 E23.72365
G1 X69.039 Y99.916 E23.7556
G1 X68.885 Y99.406 E23.77952
G1 X68.696 Y98.704 E23.81216
G1 X68.609 Y98.334 E23.82923
G1 X68.481 Y97.702 E23.85818
G1 X68.39 Y97.172 E23.88233
G1 X68.301 Y96.538 E23.91107
G1 X68.251 Y96.084 E23.93158
G1 X68.199 Y95.426 E23.96122
G1 X68.166 Y94.624 E23.99726
G1 X68.15 Y93.492 E24.04809
G1 X68.151 Y59.813 E25.56032
G1 X68.161 Y59.15 E25.59009
G1 X68.215 Y58.231 E25.63143
G1 X68.348 Y57.32 E25.67277
G1 X68.56 Y56.424 E25.71411
G1 X68.849 Y55.55 E25.75544
G1 X69.213 Y54.704 E25.79679
G1 X69.649 Y53.893 E25.83814
G1 X70.153 Y53.123 E25.87946
G0 F3600 X70.549 Y53.259
G1 F1800 X71.116 Y52.556 E25.92001
G1 X71.743 Y51.907 E25.96053
G1 X72.426 Y51.315 E26.00112
G1 X73.158 Y50.786 E26.04167
G1 X73.934 Y50.324 E26.08222
G1 X74.747 Y49.932 E26.12275
G1 X75.593 Y49.614 E26.16333
G1 X76.463 Y49.372 E26.20387
G1 X77.351 Y49.208 E26.24442
G1 X78.473 Y49.114 E26.29498
G1 X79.08 Y49.101 E26.32224
G1 X80.043 Y49.101 E26.36548
G1 X80.909 Y49.113 E26.40437
G1 X81.81 Y49.167 E26.44489
G1 X82.61 Y49.283 E26.48119
G1 X83.491 Y49.446 E26.52142
G1 X86.099 Y49.895 E26.64024
G1 X88.589 Y50.249 E26.75317
G1 X91.136 Y50.538 E26.86827
G1 X93.633 Y50.751 E26.9808
G1 X96.195 Y50.896 E27.09602
G1 X98.735 Y50.969 E27.21011
G1 X101.269 Y50.969 E27.32389
G1 X103.795 Y50.898 E27.43736
G1 X106.337 Y50.754 E27.55168
G1 X108.89 Y50.538 E27.66672
G1 X111.397 Y50.253 E27.78001
G1 X113.903 Y49.896 E27.89367
G1 X116.448 Y49.461 E28.0096
G1 X117.131 Y49.328 E28.04085
G1 X117.575 Y49.25 E28.06109
G1 X118.472 Y49.141 E28.10166
G1 X118.973 Y49.114 E28.12419
G1 X119.58 Y49.101 E28.15145
G1 X120.675 Y49.102 E28.20062
G1 X121.373 Y49.111 E28.23196
G1 X122.274 Y49.162 E28.27248
G1 X123.168 Y49.294 E28.31306
G1 X124.046 Y49.503 E28.35358
G1 X124.903 Y49.79 E28.39416
G1 X125.73 Y50.151 E28.43468
G1 X126.523 Y50.584 E28.47525
G1 X127.274 Y51.085 E28.51579
G1 X127.978 Y51.651 E28.55634
G1 X128.629 Y52.277 E28.5969
G1 X129.222 Y52.958 E28.63744
G1 X129.752 Y53.689 E28.67799
G1 X130.216 Y54.464 E28.71854
G1 X130.61 Y55.277 E28.75911
G1 X130.93 Y56.121 E28.79964
G1 X131.174 Y56.991 E28.84021
G1 X131.34 Y57.879 E28.88077
G1 X131.437 Y59.024 E28.93237
G1 X131.45 Y59.631 E28.95963
G1 X131.449 Y93.643 E30.48681
G1 X131.433 Y94.727 E30.53549
G1 X131.406 Y95.328 E30.5625
G1 X131.364 Y95.896 E30.58807
G1 X131.297 Y96.536 E30.61697
G1 X131.235 Y96.986 E30.63736
G1 X131.124 Y97.632 E30.66679
G1 X130.97 Y98.381 E30.70113
G1 X130.777 Y99.142 E30.73638
G1 X130.597 Y99.74 E30.76442
G1 X130.403 Y100.32 E30.79188
G1 X130.178 Y100.927 E30.82095
G1 X129.997 Y101.372 E30.84252
G1 X129.759 Y101.913 E30.86906
G1 X129.431 Y102.588 E30.90276
G1 X128.639 Y104.111 E30.97983
G1 X128.591 Y104.215 E30.98498
G1 X128.247 Y104.868 E31.01812
G1 X127.127 Y107.145 E31.13206
G1 X126.07 Y109.46 E31.24632
G1 X125.07 Y111.825 E31.36162
G1 X124.166 Y114.137 E31.47308
G1 X123.291 Y116.583 E31.58973
G1 X122.509 Y118.979 E31.7029
G1 X121.792 Y121.405 E31.81648
G1 X121.139 Y123.873 E31.93111
G1 X120.558 Y126.345 E32.04513
G1 X120.05 Y128.825 E32.1588
G1 X119.612 Y131.317 E32.27241
G1 X119.239 Y133.852 E32.38746
G1 X118.941 Y136.387 E32.50207
G1 X118.817 Y137.728 E32.56254
G1 X118.774 Y138.125 E32.58047
G1 X118.623 Y139.084 E32.62406
G1 X118.609 Y139.152 E32.62718
G1 X118.257 Y140.434 E32.68687
G1 X118.178 Y140.662 E32.6977
G1 X117.845 Y141.502 E32.73828
G1 X117.439 Y142.308 E32.7788
G1 X116.963 Y143.076 E32.81937
G1 X116.421 Y143.799 E32.85994
G1 X116.006 Y144.273 E32.88823
G1 X115.804 Y144.49 E32.90154
G1 X115.16 Y145.123 E32.94209
G1 X114.462 Y145.697 E32.98267
G1 X113.717 Y146.206 E33.02318
G1 X112.929 Y146.648 E33.06375
G1 X112 Y147.06 E33.10938
G1 X111.857 Y147.115 E33.11626
G1 X111 Y147.402 E33.15684
G1 X110.122 Y147.611 E33.19736
G1 X109.228 Y147.743 E33.23794
G1 X108.357 Y147.794 E33.27712
G1 X107.314 Y147.809 E33.32395
G1 X104.693 Y147.808 E33.44164
G1 X103.341 Y147.789 E33.50235
G1 X100.501 Y147.792 E33.62987
G1 X99.505 Y147.808 E33.6746
G1 X98.836 Y147.809 E33.70464
G1 X97.341 Y147.789 E33.77177
G1 X94.501 Y147.792 E33.89929
G1 X93.505 Y147.808 E33.94402
G1 X92.557 Y147.809 E33.98658
G1 X91.709 Y147.798 E34.02466
G1 X90.807 Y147.745 E34.06523
G1 X89.914 Y147.613 E34.10577
G1 X89.036 Y147.402 E34.14631
G1 X88.18 Y147.114 E34.18686
G1 X87.143 Y146.646 E34.23795
G1 X86.83 Y146.483 E34.25379
G1 X86.048 Y146.031 E34.29435
G1 X85.309 Y145.511 E34.33492
G1 X84.619 Y144.928 E34.37548
G1 X83.984 Y144.287 E34.416
G1 X83.408 Y143.591 E34.45656
G1 X82.946 Y142.929 E34.49281
G1 X82.838 Y142.76 E34.50182
G1 X82.386 Y141.978 E34.54237
G1 X82.005 Y141.159 E34.58293
G1 X81.713 Y140.36 E34.62113
G1 X81.699 Y140.316 E34.6232
G1 X81.482 Y139.523 E34.66012
G1 X81.429 Y139.294 E34.67067
G1 X81.223 Y138.068 E34.72649
G1 X81.087 Y136.778 E34.78473
G1 X80.981 Y135.68 E34.83426
G1 X80.662 Y133.147 E34.9489
G1 X80.276 Y130.648 E35.06244
G1 X79.817 Y128.158 E35.17612
G1 X79.289 Y125.672 E35.29024
G1 X78.693 Y123.22 E35.40354
G1 X78.016 Y120.741 E35.51893
G1 X77.277 Y118.307 E35.63314
G1 X76.473 Y115.905 E35.74688
G1 X75.598 Y113.518 E35.86103
G1 X74.666 Y111.182 E35.97396
G1 X73.647 Y108.828 E36.08914
G1 X72.579 Y106.536 E36.20267
