;FLAVOR:Marlin
;TIME:812
;Filament used: 0.500669m
;Layer height: 0.15
;MINX:67.75
;MINY:52.703
;MINZ:0.3
;MAXX:132.25
;MAXY:147.288
;MAXZ:5.4
;Generated with Cura_SteamEngine 4.13.0
M140 S90
M105
M190 S90
M104 S235
M105
M109 S235
M82 ;absolute extrusion mode
G21 ;metric values
G90 ;absolute positioning
M82 ;set extruder to absolute mode
M107 ;start with the fan off
G28 X0 Y0 ;move X/Y to min endstops
G28 Z0 ;move Z to min endstops
G1 Z15.0 F9000 ;move the platform down 15mm
G92 E0 ;zero the extruded length
G1 F200 E6 ;extrude 6 mm of feed stock
G92 E0 ;zero the extruded length again
G1 F9000
;Put printing message on LCD screen
M117 Printing...
G92 E0
G92 E0
G1 F3000 E-5
;LAYER_COUNT:35
;LAYER:0
M107
G1 F600 Z1.3
G0 F3600 X70.322 Y57.649 Z1.3
;TYPE:SKIRT
G1 F600 Z0.3
G1 F3000 E0
G1 F1800 X70.918 Y56.992 E0.03983
G1 X71.64 Y56.258 E0.08606
G1 X72.153 Y55.76 E0.11816
G1 X72.858 Y55.142 E0.16026
G1 X73.613 Y54.586 E0.20236
G1 X74.413 Y54.096 E0.24448
G1 X75.252 Y53.676 E0.28661
G1 X76.123 Y53.329 E0.32871
G1 X77.021 Y53.057 E0.37084
G1 X77.938 Y52.863 E0.41293
G1 X78.869 Y52.748 E0.45505
G1 X79.404 Y52.718 E0.47911
G1 X79.718 Y52.708 E0.49321
G1 X80.245 Y52.703 E0.51688
G1 X80.927 Y52.714 E0.5475
G1 X81.864 Y52.77 E0.58965
G1 X82.756 Y52.897 E0.63011
G1 X83.689 Y53.07 E0.67271
G1 X86.211 Y53.503 E0.78761
G1 X88.689 Y53.856 E0.9
G1 X91.221 Y54.144 E1.01442
G1 X93.711 Y54.356 E1.12663
G1 X96.227 Y54.498 E1.23978
G1 X98.723 Y54.57 E1.3519
G1 X101.247 Y54.57 E1.46523
G1 X103.797 Y54.499 E1.57977
G1 X106.258 Y54.359 E1.69045
G1 X108.804 Y54.143 E1.80518
G1 X111.297 Y53.86 E1.91784
G1 X113.798 Y53.504 E2.03127
G1 X116.3 Y53.076 E2.14525
G1 X116.979 Y52.944 E2.1763
G1 X117.443 Y52.862 E2.19746
G1 X118.374 Y52.747 E2.23958
G1 X118.939 Y52.716 E2.26499
G1 X119.73 Y52.703 E2.30051
G1 X120.408 Y52.713 E2.33096
G1 X121.345 Y52.767 E2.3731
G1 X122.273 Y52.9 E2.41519
G1 X123.186 Y53.112 E2.45728
G1 X124.079 Y53.401 E2.49942
G1 X124.943 Y53.765 E2.54152
G1 X125.773 Y54.202 E2.58364
G1 X126.563 Y54.707 E2.62574
G1 X127.307 Y55.278 E2.66785
G1 X127.965 Y55.875 E2.70774
G1 X128.697 Y56.596 E2.75388
G1 X129.173 Y57.086 E2.78455
G1 X129.754 Y57.742 E2.8239
G1 X130.316 Y58.493 E2.86601
G1 X130.812 Y59.289 E2.90813
G1 X131.239 Y60.124 E2.95024
G1 X131.593 Y60.992 E2.99233
G1 X131.872 Y61.888 E3.03446
G1 X132.074 Y62.804 E3.07658
G1 X132.197 Y63.733 E3.11866
G1 X132.235 Y64.362 E3.14695
G1 X132.25 Y65.026 E3.17678
G1 X132.249 Y98.055 E4.65982
G1 X132.233 Y99.139 E4.7085
G1 X132.204 Y99.788 E4.73766
G1 X132.162 Y100.356 E4.76324
G1 X132.088 Y101.058 E4.79493
G1 X132.024 Y101.519 E4.81583
G1 X131.909 Y102.192 E4.84649
G1 X131.805 Y102.705 E4.86999
G1 X131.629 Y103.451 E4.90441
G1 X131.539 Y103.786 E4.91998
G1 X131.35 Y104.416 E4.94952
G1 X131.17 Y104.955 E4.97503
G1 X130.918 Y105.633 E5.00751
G1 X130.73 Y106.093 E5.02982
G1 X130.47 Y106.68 E5.05865
G1 X130.142 Y107.352 E5.09222
G1 X129.618 Y108.358 E5.14316
G1 X126.424 Y114.279 E5.44523
G1 X125.216 Y116.596 E5.56256
G1 X124.107 Y118.878 E5.67648
G1 X123.083 Y121.147 E5.78826
G1 X122.093 Y123.513 E5.90342
G1 X121.205 Y125.824 E6.01458
G1 X120.37 Y128.191 E6.12728
G1 X119.609 Y130.559 E6.23896
G1 X119.109 Y132.305 E6.32051
G1 X118.8 Y133.331 E6.36862
G1 X118.537 Y134.131 E6.40644
G1 X118.311 Y134.743 E6.43573
G1 X118.112 Y135.237 E6.45964
G1 X117.857 Y135.821 E6.48826
G1 X117.478 Y136.607 E6.52744
G1 X117.294 Y136.953 E6.54503
G1 X117.024 Y137.439 E6.57
G1 X116.671 Y138.03 E6.60091
G1 X116.393 Y138.464 E6.62405
G1 X116.014 Y139.018 E6.65419
G1 X115.7 Y139.448 E6.67809
G1 X115.279 Y139.988 E6.70884
G1 X114.961 Y140.371 E6.73119
G1 X114.546 Y140.842 E6.75938
G1 X114.178 Y141.237 E6.78362
G1 X113.671 Y141.747 E6.81591
G1 X113.259 Y142.135 E6.84132
G1 X112.771 Y142.568 E6.87061
G1 X112.4 Y142.878 E6.89232
G1 X111.881 Y143.286 E6.92196
G1 X111.43 Y143.619 E6.94714
G1 X110.828 Y144.033 E6.97994
G1 X110.358 Y144.334 E7.005
G1 X109.77 Y144.686 E7.03577
G1 X109.304 Y144.945 E7.05971
G1 X108.709 Y145.252 E7.08977
G1 X108.264 Y145.465 E7.11193
G1 X107.652 Y145.736 E7.14198
G1 X107.105 Y145.958 E7.16849
G1 X106.484 Y146.188 E7.19822
G1 X105.737 Y146.434 E7.23353
G1 X105.313 Y146.556 E7.25335
G1 X104.81 Y146.69 E7.27672
G1 X104.193 Y146.836 E7.30519
G1 X103.687 Y146.94 E7.32838
G1 X102.999 Y147.058 E7.35973
G1 X102.464 Y147.133 E7.38398
G1 X101.831 Y147.204 E7.41258
G1 X101.003 Y147.265 E7.44986
G1 X100.594 Y147.279 E7.46824
G1 X100.058 Y147.288 E7.49231
G1 X99.369 Y147.278 E7.52325
G1 X98.868 Y147.255 E7.54577
G1 X98.081 Y147.195 E7.58121
G1 X97.646 Y147.148 E7.60085
G1 X96.993 Y147.058 E7.63045
G1 X96.461 Y146.968 E7.65468
G1 X95.764 Y146.827 E7.68661
G1 X95.227 Y146.7 E7.71138
G1 X94.606 Y146.533 E7.74026
G1 X94.118 Y146.387 E7.76313
G1 X93.508 Y146.185 E7.79198
G1 X93.041 Y146.015 E7.8143
G1 X92.372 Y145.747 E7.84666
G1 X91.82 Y145.504 E7.87374
G1 X91.202 Y145.208 E7.90451
G1 X90.449 Y144.812 E7.94271
G1 X90.104 Y144.612 E7.96061
G1 X89.674 Y144.354 E7.98313
G1 X89.132 Y144.007 E8.01202
G1 X88.713 Y143.721 E8.0348
G1 X88.162 Y143.32 E8.0654
G1 X87.753 Y143.002 E8.08866
G1 X87.263 Y142.598 E8.11718
G1 X86.872 Y142.256 E8.1405
G1 X86.365 Y141.783 E8.17164
G1 X85.956 Y141.377 E8.19751
G1 X85.461 Y140.852 E8.22991
G1 X85.128 Y140.475 E8.2525
G1 X84.635 Y139.88 E8.28719
G1 X84.325 Y139.48 E8.30992
G1 X83.943 Y138.956 E8.33903
G1 X83.637 Y138.509 E8.36336
G1 X83.26 Y137.919 E8.3948
G1 X83.003 Y137.487 E8.41737
G1 X82.693 Y136.93 E8.44599
G1 X82.46 Y136.481 E8.4687
G1 X82.233 Y136.019 E8.49181
G1 X81.924 Y135.327 E8.52584
G1 X81.674 Y134.706 E8.5559
G1 X81.473 Y134.159 E8.58207
G1 X81.27 Y133.553 E8.61076
G1 X80.926 Y132.412 E8.66427
G1 X80.526 Y131.011 E8.72969
G1 X79.766 Y128.604 E8.84303
G1 X78.938 Y126.221 E8.95631
G1 X78.051 Y123.881 E9.06867
G1 X77.087 Y121.541 E9.18231
G1 X76.078 Y119.276 E9.29364
G1 X74.985 Y116.999 E9.40705
G1 X73.567 Y114.263 E9.54542
G1 X70.395 Y108.383 E9.8454
G1 X69.776 Y107.19 E9.90575
G1 X69.492 Y106.599 E9.93519
G1 X69.305 Y106.178 E9.95588
G1 X69.051 Y105.556 E9.98605
G1 X68.878 Y105.092 E10.00828
G1 X68.656 Y104.433 E10.03951
G1 X68.503 Y103.927 E10.06324
G1 X68.332 Y103.296 E10.0926
G1 X68.227 Y102.856 E10.11291
G1 X68.085 Y102.162 E10.14471
G1 X67.995 Y101.637 E10.16863
G1 X67.903 Y100.985 E10.1982
G1 X67.853 Y100.532 E10.21866
G1 X67.799 Y99.846 E10.24956
G1 X67.766 Y99.031 E10.28618
G1 X67.75 Y97.893 E10.33728
G1 X67.751 Y65.253 E11.80286
G1 X67.761 Y64.55 E11.83443
G1 X67.814 Y63.613 E11.87657
G1 X67.947 Y62.685 E11.91866
G1 X68.159 Y61.771 E11.96079
G1 X68.447 Y60.879 E12.00288
G1 X68.811 Y60.014 E12.04502
G1 X69.247 Y59.184 E12.08711
G1 X69.752 Y58.393 E12.12925
G1 X70.322 Y57.649 E12.17134
G0 F3600 X70.716 Y57.802
G1 F1800 X71.203 Y57.273 E12.20362
G1 X71.925 Y56.539 E12.24985
G1 X72.43 Y56.05 E12.28141
G1 X73.122 Y55.443 E12.32275
G1 X73.865 Y54.899 E12.36409
G1 X74.652 Y54.421 E12.40544
G1 X75.477 Y54.013 E12.44676
G1 X76.335 Y53.679 E12.4881
G1 X77.218 Y53.42 E12.52942
G1 X78.121 Y53.239 E12.57078
G1 X79.417 Y53.117 E12.62922
G1 X79.731 Y53.107 E12.64333
G1 X80.239 Y53.103 E12.66614
G1 X80.921 Y53.114 E12.69677
G1 X81.84 Y53.169 E12.73811
G1 X82.683 Y53.291 E12.77635
G1 X83.554 Y53.453 E12.81613
G1 X86.153 Y53.899 E12.93454
G1 X88.659 Y54.256 E13.04819
G1 X91.143 Y54.538 E13.16044
G1 X93.689 Y54.755 E13.27518
G1 X96.195 Y54.897 E13.38788
G1 X98.746 Y54.97 E13.50247
G1 X101.258 Y54.97 E13.61526
G1 X103.795 Y54.899 E13.72922
G1 X106.316 Y54.756 E13.8426
G1 X108.847 Y54.542 E13.95665
G1 X111.332 Y54.26 E14.06894
G1 X113.851 Y53.901 E14.18319
G1 X116.349 Y53.473 E14.29699
G1 X117.055 Y53.336 E14.32928
G1 X117.509 Y53.257 E14.34997
G1 X118.423 Y53.144 E14.39133
G1 X118.95 Y53.116 E14.41502
G1 X119.724 Y53.103 E14.44978
G1 X120.402 Y53.113 E14.48023
G1 X121.321 Y53.167 E14.52156
G1 X122.232 Y53.3 E14.5629
G1 X123.128 Y53.511 E14.60423
G1 X124.003 Y53.8 E14.64561
G1 X124.849 Y54.163 E14.68694
G1 X125.66 Y54.599 E14.72829
G1 X126.43 Y55.103 E14.76961
G1 X127.154 Y55.672 E14.81096
G1 X127.684 Y56.16 E14.84331
G1 X128.416 Y56.881 E14.88944
G1 X128.884 Y57.363 E14.91961
G1 X129.444 Y57.996 E14.95755
G1 X129.995 Y58.733 E14.99887
G1 X130.481 Y59.515 E15.04021
G1 X130.897 Y60.337 E15.08158
G1 X131.24 Y61.191 E15.1229
G1 X131.507 Y62.072 E15.16424
G1 X131.697 Y62.973 E15.20558
G1 X131.808 Y63.887 E15.24692
G1 X131.845 Y64.693 E15.28315
G1 X131.85 Y65.026 E15.29811
G1 X131.849 Y98.049 E16.78088
G1 X131.833 Y99.133 E16.82956
G1 X131.805 Y99.759 E16.85769
G1 X131.763 Y100.327 E16.88327
G1 X131.691 Y101.003 E16.91379
G1 X131.627 Y101.464 E16.93469
G1 X131.517 Y102.112 E16.9642
G1 X131.413 Y102.625 E16.9877
G1 X131.243 Y103.347 E17.02101
G1 X131.153 Y103.682 E17.03658
G1 X130.97 Y104.29 E17.06509
G1 X130.79 Y104.829 E17.09061
G1 X130.548 Y105.481 E17.12184
G1 X130.36 Y105.941 E17.14415
G1 X130.109 Y106.507 E17.17195
G1 X129.787 Y107.167 E17.20492
G1 X129.266 Y108.168 E17.25559
G1 X126.06 Y114.11 E17.55875
G1 X124.859 Y116.415 E17.67546
G1 X123.754 Y118.688 E17.78894
G1 X122.708 Y121.007 E17.90317
G1 X121.732 Y123.34 E18.01672
G1 X120.827 Y125.696 E18.13004
G1 X119.988 Y128.073 E18.24323
G1 X119.223 Y130.453 E18.35548
G1 X118.726 Y132.19 E18.4366
G1 X118.417 Y133.216 E18.48471
G1 X118.158 Y134.004 E18.52196
G1 X117.94 Y134.594 E18.5502
G1 X117.741 Y135.088 E18.57411
G1 X117.495 Y135.65 E18.60166
G1 X117.123 Y136.423 E18.64018
G1 X116.944 Y136.759 E18.65727
G1 X116.674 Y137.245 E18.68223
G1 X116.334 Y137.814 E18.712
G1 X116.056 Y138.248 E18.73514
G1 X115.691 Y138.782 E18.76418
G1 X115.377 Y139.212 E18.78809
G1 X114.971 Y139.732 E18.81771
G1 X114.653 Y140.115 E18.84006
G1 X114.254 Y140.57 E18.86724
G1 X113.886 Y140.965 E18.89148
G1 X113.397 Y141.456 E18.92259
G1 X112.985 Y141.844 E18.948
G1 X112.515 Y142.261 E18.97621
G1 X112.144 Y142.571 E18.99792
G1 X111.643 Y142.964 E19.02651
G1 X111.192 Y143.297 E19.05169
G1 X110.613 Y143.696 E19.08326
G1 X110.143 Y143.997 E19.10832
G1 X109.576 Y144.336 E19.13798
G1 X109.11 Y144.595 E19.16192
G1 X108.536 Y144.891 E19.19092
G1 X108.091 Y145.104 E19.21307
G1 X107.501 Y145.365 E19.24204
G1 X106.954 Y145.587 E19.26855
G1 X106.356 Y145.809 E19.29719
G1 X105.621 Y146.051 E19.33193
G1 X105.21 Y146.17 E19.35114
G1 X104.707 Y146.304 E19.37452
G1 X104.112 Y146.444 E19.40196
G1 X103.606 Y146.548 E19.42516
G1 X102.944 Y146.662 E19.45532
G1 X102.409 Y146.737 E19.47958
G1 X101.799 Y146.805 E19.50714
G1 X100.983 Y146.866 E19.54388
G1 X100.587 Y146.88 E19.56167
G1 X100.051 Y146.889 E19.58574
G1 X99.387 Y146.879 E19.61556
G1 X98.886 Y146.856 E19.63808
G1 X98.124 Y146.798 E19.67239
G1 X97.689 Y146.751 E19.69204
G1 X97.06 Y146.663 E19.72056
G1 X96.528 Y146.573 E19.74478
G1 X95.856 Y146.437 E19.77557
G1 X95.319 Y146.31 E19.80034
G1 X94.721 Y146.15 E19.82814
G1 X94.233 Y146.004 E19.85101
G1 X93.645 Y145.81 E19.87881
G1 X93.178 Y145.64 E19.90113
G1 X92.533 Y145.381 E19.93234
G1 X91.981 Y145.138 E19.95942
G1 X91.385 Y144.853 E19.98908
G1 X90.645 Y144.463 E20.02664
G1 X90.309 Y144.269 E20.04406
G1 X89.879 Y144.011 E20.06658
G1 X89.357 Y143.677 E20.0944
G1 X88.938 Y143.391 E20.11718
G1 X88.408 Y143.004 E20.14665
G1 X87.999 Y142.686 E20.16991
G1 X87.526 Y142.297 E20.19741
G1 X87.135 Y141.955 E20.22073
G1 X86.646 Y141.499 E20.25075
G1 X86.237 Y141.093 E20.27663
G1 X85.76 Y140.587 E20.30786
G1 X85.427 Y140.21 E20.33044
G1 X84.952 Y139.635 E20.36393
G1 X84.642 Y139.235 E20.38665
G1 X84.273 Y138.73 E20.41474
G1 X83.967 Y138.283 E20.43906
G1 X83.604 Y137.715 E20.46933
G1 X83.347 Y137.283 E20.4919
G1 X83.048 Y136.745 E20.51953
G1 X82.815 Y136.296 E20.54225
G1 X82.594 Y135.847 E20.56472
G1 X82.29 Y135.166 E20.5982
G1 X82.049 Y134.568 E20.62715
G1 X81.848 Y134.021 E20.65332
G1 X81.653 Y133.437 E20.68096
G1 X81.311 Y132.303 E20.73415
G1 X80.913 Y130.908 E20.79928
G1 X80.142 Y128.468 E20.91418
G1 X79.314 Y126.085 E21.02746
G1 X78.435 Y123.765 E21.13885
G1 X77.45 Y121.375 E21.25492
G1 X76.426 Y119.077 E21.36789
G1 X75.35 Y116.834 E21.47959
G1 X73.916 Y114.067 E21.61953
G1 X70.747 Y108.193 E21.91921
G1 X70.131 Y107.006 E21.97926
G1 X69.858 Y106.437 E22.00759
G1 X69.671 Y106.016 E22.02828
G1 X69.426 Y105.416 E22.05738
G1 X69.253 Y104.952 E22.07961
G1 X69.039 Y104.317 E22.1097
G1 X68.886 Y103.811 E22.13344
G1 X68.722 Y103.203 E22.16171
G1 X68.617 Y102.763 E22.18202
G1 X68.479 Y102.094 E22.2127
G1 X68.389 Y101.569 E22.23661
G1 X68.301 Y100.941 E22.26509
G1 X68.251 Y100.488 E22.28555
G1 X68.199 Y99.827 E22.31532
G1 X68.166 Y99.025 E22.35136
G1 X68.15 Y97.893 E22.4022
G1 X68.151 Y65.258 E23.86755
G1 X68.161 Y64.555 E23.89911
G1 X68.214 Y63.636 E23.94045
G1 X68.347 Y62.725 E23.98179
G1 X68.558 Y61.829 E24.02312
G1 X68.846 Y60.955 E24.06444
G1 X69.209 Y60.108 E24.10581
G1 X69.644 Y59.297 E24.14714
G1 X70.148 Y58.526 E24.1885
G1 X70.716 Y57.802 E24.22981
G0 F3600 X71.11 Y57.959
G1 F1800 X71.488 Y57.553 E24.25472
G1 X72.21 Y56.819 E24.30095
G1 X72.706 Y56.339 E24.33194
G1 X73.386 Y55.744 E24.37251
G1 X74.116 Y55.212 E24.41307
G1 X74.889 Y54.747 E24.45358
G1 X75.702 Y54.352 E24.49416
G1 X76.545 Y54.03 E24.53468
G1 X77.414 Y53.784 E24.57523
G1 X78.302 Y53.616 E24.61581
G1 X79.429 Y53.517 E24.66661
G1 X80.232 Y53.503 E24.70267
G1 X80.914 Y53.514 E24.7333
G1 X81.816 Y53.569 E24.77388
G1 X82.61 Y53.684 E24.8099
G1 X83.491 Y53.847 E24.85013
G1 X86.099 Y54.296 E24.96895
G1 X88.589 Y54.65 E25.08188
G1 X91.136 Y54.939 E25.19698
G1 X93.633 Y55.152 E25.30951
G1 X96.195 Y55.297 E25.42473
G1 X98.735 Y55.37 E25.53882
G1 X101.269 Y55.37 E25.6526
G1 X103.795 Y55.299 E25.76607
G1 X106.337 Y55.155 E25.88039
G1 X108.89 Y54.939 E25.99543
G1 X111.397 Y54.654 E26.10872
G1 X113.903 Y54.297 E26.22238
G1 X116.448 Y53.862 E26.33831
G1 X117.131 Y53.729 E26.36956
G1 X117.575 Y53.651 E26.3898
G1 X118.472 Y53.542 E26.43037
G1 X119.269 Y53.506 E26.46619
G1 X119.718 Y53.503 E26.48635
G1 X120.396 Y53.513 E26.5168
G1 X121.298 Y53.566 E26.55737
G1 X122.191 Y53.699 E26.59791
G1 X123.069 Y53.911 E26.63847
G1 X123.925 Y54.199 E26.67902
G1 X124.752 Y54.561 E26.71955
G1 X125.544 Y54.996 E26.76013
G1 X126.294 Y55.499 E26.80067
G1 X126.997 Y56.066 E26.84123
G1 X127.404 Y56.445 E26.8662
G1 X128.136 Y57.166 E26.91233
G1 X128.595 Y57.64 E26.94196
G1 X129.134 Y58.249 E26.97848
G1 X129.675 Y58.973 E27.01906
G1 X130.149 Y59.741 E27.05958
G1 X130.553 Y60.549 E27.10014
G1 X130.885 Y61.389 E27.1407
G1 X131.141 Y62.255 E27.18125
G1 X131.319 Y63.14 E27.22178
G1 X131.435 Y64.387 E27.27801
G1 X131.45 Y65.026 E27.30671
G1 X131.449 Y98.044 E28.78926
G1 X131.433 Y99.128 E28.83794
G1 X131.406 Y99.729 E28.86495
G1 X131.364 Y100.297 E28.89053
G1 X131.295 Y100.948 E28.91992
G1 X131.231 Y101.409 E28.94082
G1 X131.125 Y102.033 E28.96924
G1 X131.021 Y102.546 E28.99274
G1 X130.857 Y103.243 E29.02489
G1 X130.767 Y103.578 E29.04047
G1 X130.591 Y104.163 E29.0679
G1 X130.411 Y104.702 E29.09341
G1 X130.178 Y105.33 E29.12349
G1 X129.99 Y105.79 E29.1458
G1 X129.748 Y106.335 E29.17258
G1 X129.432 Y106.983 E29.20495
G1 X128.914 Y107.978 E29.25532
G1 X125.697 Y113.942 E29.55958
G1 X124.502 Y116.234 E29.67564
G1 X123.394 Y118.514 E29.78947
G1 X122.345 Y120.837 E29.90391
G1 X121.348 Y123.22 E30.0199
G1 X120.463 Y125.523 E30.13068
G1 X119.602 Y127.965 E30.24694
G1 X118.84 Y130.338 E30.35885
G1 X118.343 Y132.074 E30.43993
G1 X118.034 Y133.1 E30.48805
G1 X117.778 Y133.877 E30.52478
G1 X117.569 Y134.444 E30.55191
G1 X117.37 Y134.938 E30.57582
G1 X117.134 Y135.48 E30.60237
G1 X116.768 Y136.239 E30.6402
G1 X116.594 Y136.565 E30.6568
G1 X116.324 Y137.051 E30.68176
G1 X115.997 Y137.599 E30.71041
G1 X115.719 Y138.033 E30.73356
G1 X115.367 Y138.546 E30.76149
G1 X115.053 Y138.976 E30.7854
G1 X114.664 Y139.477 E30.81388
G1 X114.346 Y139.86 E30.83623
G1 X113.961 Y140.297 E30.86238
G1 X113.593 Y140.692 E30.88662
G1 X113.123 Y141.165 E30.91656
G1 X112.711 Y141.553 E30.94197
G1 X112.258 Y141.954 E30.96914
G1 X111.887 Y142.264 E30.99085
G1 X111.406 Y142.643 E31.01834
G1 X110.955 Y142.976 E31.04351
G1 X110.397 Y143.36 E31.07393
G1 X109.927 Y143.661 E31.09899
G1 X109.381 Y143.987 E31.12754
G1 X108.915 Y144.246 E31.15148
G1 X108.364 Y144.53 E31.17931
