;FLAVOR:Marlin
;TIME:1414
;Filament used: 0.987542m
;Layer height: 0.15
;MINX:67.75
;MINY:47.951
;MINZ:0.3
;MAXX:132.25
;MAXY:148.959
;MAXZ:9.85
;Generated with Cura_SteamEngine 4.13.0
M140 S90
M105
M190 S90
M104 S235
M105
M109 S235
M82 ;absolute extrusion mode
G21 ;metric values
G90 ;absolute positioning
M82 ;set extruder to absolute mode
M107 ;start with the fan off
G28 X0 Y0 ;move X/Y to min endstops
G28 Z0 ;move Z to min endstops
G1 Z15.0 F9000 ;move the platform down 15mm
G92 E0 ;zero the extruded length
G1 F200 E6 ;extrude 6 mm of feed stock
G92 E0 ;zero the extruded length again
G1 F9000
;Put printing message on LCD screen
M117 Printing...
G92 E0
G92 E0
G1 F3000 E-5
;LAYER_COUNT:58
;LAYER:0
M107
G1 F600 Z1.3
G0 F3600 X69.757 Y52.64 Z1.3
;TYPE:SKIRT
G1 F600 Z0.3
G1 F3000 E0
G1 F1800 X70.328 Y51.896 E0.04211
G1 X70.961 Y51.203 E0.08425
G1 X71.65 Y50.567 E0.12636
G1 X72.39 Y49.992 E0.16844
G1 X73.178 Y49.482 E0.21058
G1 X74.005 Y49.041 E0.25266
G1 X74.867 Y48.672 E0.29477
G1 X75.758 Y48.378 E0.33689
G1 X76.67 Y48.16 E0.379
G1 X77.598 Y48.022 E0.42112
G1 X78.451 Y47.964 E0.45951
G1 X79.08 Y47.951 E0.48776
G1 X80.043 Y47.951 E0.531
G1 X80.921 Y47.963 E0.57043
G1 X81.857 Y48.018 E0.61253
G1 X82.756 Y48.146 E0.6533
G1 X83.689 Y48.319 E0.69591
G1 X86.211 Y48.752 E0.81081
G1 X88.689 Y49.105 E0.9232
G1 X91.221 Y49.393 E1.03762
G1 X93.711 Y49.605 E1.14983
G1 X96.227 Y49.747 E1.26298
G1 X98.723 Y49.819 E1.3751
G1 X101.247 Y49.819 E1.48843
G1 X103.797 Y49.748 E1.60297
G1 X106.258 Y49.608 E1.71365
G1 X108.804 Y49.392 E1.82838
G1 X111.297 Y49.109 E1.94104
G1 X113.798 Y48.753 E2.05447
G1 X116.3 Y48.325 E2.16844
G1 X116.979 Y48.193 E2.1995
G1 X117.443 Y48.111 E2.22066
G1 X118.374 Y47.996 E2.26278
G1 X118.951 Y47.964 E2.28873
G1 X119.58 Y47.951 E2.31698
G1 X120.685 Y47.952 E2.36659
G1 X121.383 Y47.961 E2.39794
G1 X122.319 Y48.013 E2.44003
G1 X123.248 Y48.145 E2.48216
G1 X124.162 Y48.355 E2.52427
G1 X125.055 Y48.642 E2.56639
G1 X125.92 Y49.005 E2.60851
G1 X126.751 Y49.439 E2.6506
G1 X127.542 Y49.943 E2.69272
G1 X128.287 Y50.513 E2.73483
G1 X128.981 Y51.144 E2.77695
G1 X129.618 Y51.831 E2.81902
G1 X130.195 Y52.571 E2.86115
G1 X130.707 Y53.357 E2.90327
G1 X131.15 Y54.184 E2.9454
G1 X131.521 Y55.045 E2.98749
G1 X131.817 Y55.935 E3.02961
G1 X132.036 Y56.847 E3.07172
G1 X132.177 Y57.774 E3.11382
G1 X132.237 Y58.652 E3.15334
G1 X132.25 Y59.281 E3.18159
G1 X132.249 Y93.304 E4.70926
G1 X132.233 Y94.388 E4.75794
G1 X132.204 Y95.037 E4.78711
G1 X132.162 Y95.605 E4.81268
G1 X132.089 Y96.295 E4.84384
G1 X132.027 Y96.745 E4.86423
G1 X131.908 Y97.442 E4.89598
G1 X131.76 Y98.161 E4.92894
G1 X131.633 Y98.689 E4.95333
G1 X131.55 Y98.999 E4.96774
G1 X131.356 Y99.643 E4.99794
G1 X131.162 Y100.223 E5.0254
G1 X130.919 Y100.878 E5.05677
G1 X130.738 Y101.323 E5.07834
G1 X130.473 Y101.923 E5.10779
G1 X130.136 Y102.615 E5.14235
G1 X129.39 Y104.05 E5.21497
G1 X128.217 Y106.387 E5.33238
G1 X127.163 Y108.646 E5.44431
G1 X126.17 Y110.94 E5.55655
G1 X125.226 Y113.302 E5.67076
G1 X124.349 Y115.69 E5.78499
G1 X123.565 Y118.024 E5.89554
G1 X122.823 Y120.465 E6.0101
G1 X122.165 Y122.869 E6.12201
G1 X121.561 Y125.349 E6.23662
G1 X121.035 Y127.816 E6.34988
G1 X120.589 Y130.237 E6.46041
G1 X120.199 Y132.748 E6.57451
G1 X119.885 Y135.238 E6.6872
G1 X119.596 Y138.258 E6.82342
G1 X119.483 Y139.189 E6.86553
G1 X119.362 Y139.808 E6.89385
G1 X119.013 Y141.046 E6.95161
G1 X118.934 Y141.274 E6.96244
G1 X118.589 Y142.147 E7.00459
G1 X118.172 Y142.986 E7.04666
G1 X117.684 Y143.788 E7.08881
G1 X117.13 Y144.544 E7.1309
G1 X116.591 Y145.168 E7.16792
G1 X116.389 Y145.385 E7.18123
G1 X115.722 Y146.044 E7.22333
G1 X115 Y146.643 E7.26546
G1 X114.231 Y147.179 E7.30754
G1 X113.418 Y147.647 E7.34967
G1 X112.287 Y148.157 E7.40537
G1 X112.144 Y148.212 E7.41225
G1 X111.255 Y148.511 E7.45437
G1 X110.344 Y148.733 E7.49647
G1 X109.417 Y148.877 E7.53859
G1 X108.37 Y148.944 E7.5857
G1 X107.489 Y148.958 E7.62526
G1 X104.836 Y148.959 E7.74439
G1 X103.331 Y148.939 E7.81197
G1 X100.515 Y148.942 E7.93841
G1 X99.518 Y148.958 E7.98318
G1 X98.836 Y148.959 E8.0138
G1 X97.331 Y148.939 E8.08139
G1 X94.515 Y148.942 E8.20783
G1 X93.518 Y148.958 E8.2526
G1 X92.557 Y148.959 E8.29575
G1 X91.698 Y148.948 E8.33432
G1 X90.761 Y148.895 E8.37646
G1 X89.833 Y148.762 E8.41856
G1 X88.919 Y148.55 E8.46069
G1 X88.027 Y148.262 E8.50277
G1 X86.798 Y147.718 E8.56312
G1 X86.485 Y147.556 E8.57895
G1 X85.671 Y147.09 E8.62106
G1 X84.9 Y146.556 E8.66317
G1 X84.177 Y145.958 E8.7053
G1 X83.508 Y145.301 E8.7474
G1 X82.897 Y144.59 E8.7895
G1 X82.256 Y143.686 E8.83926
G1 X82.148 Y143.516 E8.8483
G1 X81.68 Y142.703 E8.89042
G1 X81.282 Y141.854 E8.93252
G1 X80.951 Y140.952 E8.97567
G1 X80.937 Y140.908 E8.97774
G1 X80.702 Y140.053 E9.01755
G1 X80.649 Y139.824 E9.02811
G1 X80.426 Y138.488 E9.08892
G1 X80.115 Y135.279 E9.23369
G1 X79.797 Y132.756 E9.34787
G1 X79.418 Y130.307 E9.45914
G1 X78.959 Y127.811 E9.57309
G1 X78.44 Y125.371 E9.6851
G1 X77.836 Y122.887 E9.79989
G1 X77.178 Y120.479 E9.91197
G1 X76.449 Y118.08 E10.02456
G1 X75.643 Y115.673 E10.13853
G1 X74.779 Y113.319 E10.25112
G1 X73.838 Y110.961 E10.36512
G1 X72.845 Y108.665 E10.47744
G1 X71.784 Y106.391 E10.59011
G1 X70.619 Y104.068 E10.7068
G1 X69.819 Y102.528 E10.78472
G1 X69.488 Y101.839 E10.81904
G1 X69.301 Y101.417 E10.83977
G1 X69.057 Y100.821 E10.86869
G1 X68.885 Y100.362 E10.8907
G1 X68.656 Y99.682 E10.92291
G1 X68.502 Y99.172 E10.94683
G1 X68.307 Y98.446 E10.98059
G1 X68.22 Y98.076 E10.99765
G1 X68.087 Y97.419 E11.02775
G1 X67.996 Y96.889 E11.0519
G1 X67.903 Y96.232 E11.08169
G1 X67.853 Y95.778 E11.1022
G1 X67.799 Y95.095 E11.13296
G1 X67.766 Y94.28 E11.16959
G1 X67.75 Y93.142 E11.22069
G1 X67.751 Y59.457 E12.73319
G1 X67.761 Y58.794 E12.76296
G1 X67.815 Y57.858 E12.80506
G1 X67.949 Y56.93 E12.84716
G1 X68.161 Y56.016 E12.88929
G1 X68.451 Y55.124 E12.9314
G1 X68.815 Y54.26 E12.9735
G1 X69.251 Y53.43 E13.0156
G1 X69.757 Y52.64 E13.05772
G0 F3600 X70.153 Y52.773
G1 F1800 X70.722 Y52.05 E13.09903
G1 X71.352 Y51.378 E13.14039
G1 X72.038 Y50.764 E13.18173
G1 X72.775 Y50.212 E13.22308
G1 X73.556 Y49.725 E13.2644
G1 X74.377 Y49.308 E13.30575
G1 X75.231 Y48.965 E13.34707
G1 X76.112 Y48.696 E13.38843
G1 X77.013 Y48.505 E13.42979
G1 X77.926 Y48.393 E13.47109
G1 X78.462 Y48.364 E13.49519
G1 X79.08 Y48.351 E13.52295
G1 X80.043 Y48.351 E13.56619
G1 X80.915 Y48.363 E13.60535
G1 X81.834 Y48.418 E13.64668
G1 X82.683 Y48.54 E13.6852
G1 X83.554 Y48.702 E13.72498
G1 X86.153 Y49.148 E13.84338
G1 X88.659 Y49.505 E13.95704
G1 X91.143 Y49.787 E14.06929
G1 X93.689 Y50.004 E14.18402
G1 X96.195 Y50.146 E14.29672
G1 X98.746 Y50.219 E14.41131
G1 X101.258 Y50.219 E14.52411
G1 X103.795 Y50.148 E14.63806
G1 X106.316 Y50.005 E14.75144
G1 X108.847 Y49.791 E14.86549
G1 X111.332 Y49.509 E14.97779
G1 X113.851 Y49.15 E15.09204
G1 X116.349 Y48.722 E15.20584
G1 X117.055 Y48.585 E15.23813
G1 X117.509 Y48.506 E15.25882
G1 X118.423 Y48.393 E15.30017
G1 X118.962 Y48.364 E15.32441
G1 X119.58 Y48.351 E15.35216
G1 X120.68 Y48.352 E15.40155
G1 X121.378 Y48.361 E15.4329
G1 X122.297 Y48.413 E15.47423
G1 X123.208 Y48.544 E15.51555
G1 X124.104 Y48.754 E15.55687
G1 X124.979 Y49.041 E15.59822
G1 X125.826 Y49.403 E15.63958
G1 X126.638 Y49.837 E15.68092
G1 X127.409 Y50.339 E15.72223
G1 X128.134 Y50.907 E15.76359
G1 X128.807 Y51.536 E15.80495
G1 X129.422 Y52.22 E15.84625
G1 X129.976 Y52.955 E15.88758
G1 X130.464 Y53.736 E15.92893
G1 X130.883 Y54.556 E15.97028
G1 X131.229 Y55.409 E16.01161
G1 X131.499 Y56.289 E16.05294
G1 X131.692 Y57.19 E16.09431
G1 X131.806 Y58.103 E16.13562
G1 X131.837 Y58.663 E16.16081
G1 X131.85 Y59.281 E16.18856
G1 X131.849 Y93.298 E17.71597
G1 X131.833 Y94.382 E17.76464
G1 X131.805 Y95.008 E17.79278
G1 X131.763 Y95.576 E17.81835
G1 X131.693 Y96.241 E17.84838
G1 X131.631 Y96.691 E17.86878
G1 X131.516 Y97.362 E17.89934
G1 X131.369 Y98.076 E17.93208
G1 X131.246 Y98.586 E17.95563
G1 X131.163 Y98.896 E17.97004
G1 X130.977 Y99.516 E17.99911
G1 X130.783 Y100.096 E18.02657
G1 X130.549 Y100.728 E18.05683
G1 X130.368 Y101.173 E18.0784
G1 X130.113 Y101.751 E18.10676
G1 X129.781 Y102.43 E18.1407
G1 X129.021 Y103.893 E18.21473
G1 X127.875 Y106.175 E18.32939
G1 X126.791 Y108.497 E18.44445
G1 X125.795 Y110.799 E18.55707
G1 X124.85 Y113.164 E18.67142
G1 X123.981 Y115.53 E18.7846
G1 X123.176 Y117.928 E18.89818
G1 X122.45 Y120.315 E19.01021
G1 X121.768 Y122.808 E19.12626
G1 X121.168 Y125.268 E19.23995
G1 X120.651 Y127.697 E19.35146
G1 X120.187 Y130.215 E19.46642
G1 X119.806 Y132.669 E19.57793
G1 X119.484 Y135.219 E19.69334
G1 X119.207 Y138.097 E19.82316
G1 X119.197 Y138.227 E19.82902
G1 X119.085 Y139.14 E19.87032
G1 X118.971 Y139.723 E19.89699
G1 X118.635 Y140.915 E19.9526
G1 X118.556 Y141.143 E19.96343
G1 X118.217 Y141.999 E20.00477
G1 X117.805 Y142.823 E20.04614
G1 X117.323 Y143.607 E20.08746
G1 X116.775 Y144.347 E20.12881
G1 X116.299 Y144.895 E20.1614
G1 X116.097 Y145.112 E20.17471
G1 X115.441 Y145.758 E20.21605
G1 X114.731 Y146.345 E20.25742
G1 X113.973 Y146.868 E20.29877
G1 X113.173 Y147.323 E20.34009
G1 X112.143 Y147.783 E20.39074
G1 X112 Y147.838 E20.39762
G1 X111.127 Y148.131 E20.43897
G1 X110.232 Y148.347 E20.48031
G1 X109.322 Y148.485 E20.52164
G1 X108.363 Y148.544 E20.56478
G1 X107.314 Y148.559 E20.61188
G1 X104.688 Y148.558 E20.7298
G1 X103.336 Y148.539 E20.79051
G1 X100.508 Y148.542 E20.91749
G1 X99.511 Y148.558 E20.96226
G1 X98.836 Y148.559 E20.99257
G1 X97.336 Y148.539 E21.05993
G1 X94.508 Y148.542 E21.18691
G1 X93.511 Y148.558 E21.23168
G1 X92.557 Y148.559 E21.27452
G1 X91.703 Y148.548 E21.31286
G1 X90.784 Y148.495 E21.3542
G1 X89.873 Y148.362 E21.39554
G1 X88.977 Y148.151 E21.43687
G1 X88.103 Y147.863 E21.47819
G1 X86.982 Y147.363 E21.5333
G1 X86.669 Y147.201 E21.54913
G1 X85.87 Y146.743 E21.59048
G1 X85.114 Y146.217 E21.63183
G1 X84.407 Y145.627 E21.67318
G1 X83.754 Y144.979 E21.71448
G1 X83.159 Y144.276 E21.75584
G1 X82.594 Y143.471 E21.8
G1 X82.486 Y143.301 E21.80904
G1 X82.026 Y142.503 E21.8504
G1 X81.638 Y141.669 E21.8917
G1 X81.332 Y140.831 E21.93176
G1 X81.318 Y140.787 E21.93383
G1 X81.092 Y139.963 E21.9722
G1 X81.039 Y139.734 E21.98275
G1 X80.824 Y138.447 E22.04134
G1 X80.511 Y135.227 E22.1866
G1 X80.196 Y132.716 E22.30023
G1 X79.808 Y130.21 E22.4141
G1 X79.351 Y127.727 E22.52746
G1 X78.834 Y125.298 E22.63897
G1 X78.231 Y122.817 E22.75361
G1 X77.553 Y120.339 E22.86896
G1 X76.835 Y117.975 E22.9799
G1 X76.011 Y115.514 E23.09643
G1 X75.155 Y113.181 E23.20801
G1 X74.213 Y110.821 E23.32211
G1 X73.216 Y108.515 E23.43491
G1 X72.146 Y106.222 E23.54853
G1 X70.933 Y103.803 E23.67004
G1 X70.174 Y102.343 E23.74392
G1 X69.854 Y101.677 E23.7771
G1 X69.667 Y101.255 E23.79783
G1 X69.432 Y100.681 E23.82567
G1 X69.26 Y100.222 E23.84768
G1 X69.039 Y99.566 E23.87877
G1 X68.885 Y99.056 E23.90269
G1 X68.696 Y98.354 E23.93533
G1 X68.609 Y97.984 E23.9524
G1 X68.481 Y97.352 E23.98135
G1 X68.39 Y96.822 E24.0055
G1 X68.301 Y96.188 E24.03424
G1 X68.251 Y95.734 E24.05475
G1 X68.199 Y95.076 E24.08439
G1 X68.166 Y94.274 E24.12043
G1 X68.15 Y93.142 E24.17126
G1 X68.151 Y59.463 E25.68349
G1 X68.161 Y58.8 E25.71326
G1 X68.215 Y57.881 E25.7546
G1 X68.348 Y56.97 E25.79594
G1 X68.56 Y56.074 E25.83728
G1 X68.849 Y55.2 E25.87861
G1 X69.213 Y54.354 E25.91996
G1 X69.649 Y53.543 E25.96131
G1 X70.153 Y52.773 E26.00263
G0 F3600 X70.549 Y52.909
G1 F1800 X71.116 Y52.206 E26.04318
G1 X71.743 Y51.557 E26.0837
G1 X72.426 Y50.965 E26.12429
G1 X73.158 Y50.436 E26.16484
G1 X73.934 Y49.974 E26.20539
G1 X74.747 Y49.582 E26.24592
G1 X75.593 Y49.264 E26.2865
G1 X76.463 Y49.022 E26.32704
G1 X77.351 Y48.858 E26.36759
G1 X78.473 Y48.764 E26.41815
G1 X79.08 Y48.751 E26.44541
G1 X80.043 Y48.751 E26.48865
G1 X80.909 Y48.763 E26.52754
G1 X81.81 Y48.817 E26.56806
G1 X82.61 Y48.933 E26.60436
G1 X83.491 Y49.096 E26.64459
G1 X86.099 Y49.545 E26.76342
G1 X88.589 Y49.899 E26.87634
G1 X91.136 Y50.188 E26.99144
G1 X93.633 Y50.401 E27.10397
G1 X96.195 Y50.546 E27.21919
G1 X98.735 Y50.619 E27.33328
G1 X101.269 Y50.619 E27.44706
G1 X103.795 Y50.548 E27.56053
G1 X106.337 Y50.404 E27.67485
G1 X108.89 Y50.188 E27.78989
G1 X111.397 Y49.903 E27.90318
G1 X113.903 Y49.546 E28.01684
G1 X116.448 Y49.111 E28.13277
G1 X117.131 Y48.978 E28.16402
G1 X117.575 Y48.9 E28.18426
G1 X118.472 Y48.791 E28.22483
G1 X118.973 Y48.764 E28.24736
G1 X119.58 Y48.751 E28.27462
G1 X120.675 Y48.752 E28.32379
G1 X121.373 Y48.761 E28.35513
G1 X122.274 Y48.812 E28.39565
G1 X123.168 Y48.944 E28.43623
G1 X124.046 Y49.153 E28.47675
G1 X124.903 Y49.44 E28.51733
G1 X125.73 Y49.801 E28.55785
G1 X126.523 Y50.234 E28.59842
G1 X127.274 Y50.735 E28.63896
G1 X127.978 Y51.301 E28.67952
G1 X128.629 Y51.927 E28.72007
G1 X129.222 Y52.608 E28.76061
G1 X129.752 Y53.339 E28.80116
G1 X130.216 Y54.114 E28.84171
G1 X130.61 Y54.927 E28.88228
G1 X130.93 Y55.771 E28.92281
G1 X131.174 Y56.641 E28.96338
G1 X131.34 Y57.529 E29.00394
G1 X131.437 Y58.674 E29.05554
G1 X131.45 Y59.281 E29.0828
G1 X131.449 Y93.293 E30.60998
G1 X131.433 Y94.377 E30.65866
G1 X131.406 Y94.978 E30.68567
G1 X131.364 Y95.546 E30.71124
G1 X131.297 Y96.186 E30.74014
G1 X131.235 Y96.636 E30.76053
G1 X131.124 Y97.282 E30.78996
G1 X130.97 Y98.031 E30.8243
G1 X130.777 Y98.792 E30.85955
G1 X130.597 Y99.39 E30.88759
G1 X130.403 Y99.97 E30.91505
G1 X130.178 Y100.577 E30.94412
G1 X129.997 Y101.022 E30.96569
G1 X129.752 Y101.578 E30.99297
G1 X129.426 Y102.246 E31.02635
G1 X128.681 Y103.68 E31.09891
G1 X127.514 Y106.005 E31.21571
G1 X126.42 Y108.348 E31.33182
G1 X125.428 Y110.64 E31.44396
G1 X124.479 Y113.014 E31.55876
G1 X123.602 Y115.402 E31.67298
G1 X122.801 Y117.79 E31.78608
G1 X122.058 Y120.231 E31.90065
G1 X121.389 Y122.68 E32.01464
G1 X120.775 Y125.196 E32.13093
G1 X120.259 Y127.619 E32.24216
G1 X119.793 Y130.147 E32.35758
G1 X119.407 Y132.629 E32.47037
G1 X119.088 Y135.164 E32.58509
G1 X118.812 Y138.032 E32.71446
G1 X118.799 Y138.195 E32.7218
G1 X118.688 Y139.092 E32.76239
G1 X118.581 Y139.637 E32.78733
G1 X118.257 Y140.784 E32.84084
G1 X118.178 Y141.012 E32.85168
G1 X117.845 Y141.852 E32.89225
G1 X117.439 Y142.658 E32.93277
G1 X116.963 Y143.426 E32.97334
G1 X116.421 Y144.149 E33.01392
G1 X116.006 Y144.623 E33.0422
G1 X115.804 Y144.84 E33.05552
G1 X115.16 Y145.473 E33.09606
G1 X114.462 Y146.047 E33.13664
G1 X113.717 Y146.556 E33.17715
G1 X112.929 Y146.998 E33.21772
G1 X112 Y147.41 E33.26335
G1 X111.857 Y147.465 E33.27023
G1 X111 Y147.752 E33.31081
G1 X110.122 Y147.961 E33.35134
G1 X109.228 Y148.093 E33.39191
G1 X108.357 Y148.144 E33.43109
G1 X107.314 Y148.159 E33.47793
G1 X104.693 Y148.158 E33.59561
G1 X103.341 Y148.139 E33.65632
G1 X100.501 Y148.142 E33.78384
G1 X99.505 Y148.158 E33.82857
G1 X98.836 Y148.159 E33.85861
G1 X97.341 Y148.139 E33.92574
G1 X94.501 Y148.142 E34.05326
G1 X93.505 Y148.158 E34.09799
G1 X92.557 Y148.159 E34.14056
G1 X91.709 Y148.148 E34.17864
G1 X90.807 Y148.095 E34.21921
G1 X89.914 Y147.963 E34.25974
G1 X89.036 Y147.752 E34.30028
G1 X88.18 Y147.464 E34.34084
G1 X87.166 Y147.008 E34.39076
G1 X86.853 Y146.846 E34.40658
G1 X86.07 Y146.395 E34.44716
G1 X85.33 Y145.878 E34.48769
G1 X84.638 Y145.297 E34.52826
G1 X84.001 Y144.657 E34.56881
G1 X83.423 Y143.963 E34.60936
G1 X82.931 Y143.257 E34.648
G1 X82.823 Y143.087 E34.65704
G1 X82.373 Y142.304 E34.69759
G1 X81.994 Y141.484 E34.73815
G1 X81.713 Y140.71 E34.77513
G1 X81.699 Y140.666 E34.7772
G1 X81.482 Y139.873 E34.81411
G1 X81.429 Y139.644 E34.82467
G1 X81.221 Y138.405 E34.88108
G1 X80.908 Y135.174 E35.02683
G1 X80.594 Y132.676 E35.13988
G1 X80.201 Y130.142 E35.25502
G1 X79.744 Y127.65 E35.36878
G1 X79.219 Y125.185 E35.48194
G1 X78.622 Y122.73 E35.59539
G1 X77.945 Y120.256 E35.71056
G1 X77.201 Y117.804 E35.82561
G1 X76.401 Y115.417 E35.93865
G1 X75.53 Y113.043 E36.05219
G1 X74.58 Y110.663 E36.16726
G1 X73.582 Y108.354 E36.2802
G1 X72.494 Y106.023 E36.39571
G1 X71.314 Y103.67 E36.5139
G1 X70.529 Y102.159 E36.59036
G1 X70.22 Y101.515 E36.62243
G1 X70.033 Y101.093 E36.64316
G1 X69.807 Y100.54 E36.66998
G1 X69.635 Y100.081 E36.69199
G1 X69.421 Y99.451 E36.72186
G1 X69.267 Y98.941 E36.74578
G1 X69.086 Y98.263 E36.77729
G1 X68.999 Y97.893 E36.79436
