;FLAVOR:Marlin
;TIME:652
;Filament used: 0.364135m
;Layer height: 0.15
;MINX:67.75
;MINY:61.001
;MINZ:0.3
;MAXX:132.25
;MAXY:139
;MAXZ:2.1
;Generated with Cura_SteamEngine 4.13.0
M140 S90
M105
M190 S90
M104 S235
M105
M109 S235
M82 ;absolute extrusion mode
G21 ;metric values
G90 ;absolute positioning
M82 ;set extruder to absolute mode
M107 ;start with the fan off
G28 X0 Y0 ;move X/Y to min endstops
G28 Z0 ;move Z to min endstops
G1 Z15.0 F9000 ;move the platform down 15mm
G92 E0 ;zero the extruded length
G1 F200 E6 ;extrude 6 mm of feed stock
G92 E0 ;zero the extruded length again
G1 F9000
;Put printing message on LCD screen
M117 Printing...
G92 E0
G92 E0
G1 F3000 E-5
;LAYER_COUNT:13
;LAYER:0
M107
G1 F600 Z1.3
G0 F3600 X70.918 Y65.29 Z1.3
;TYPE:SKIRT
G1 F600 Z0.3
G1 F3000 E0
G1 F1744 X71.64 Y64.556 E0.04623
G1 X72.153 Y64.058 E0.07833
G1 X72.858 Y63.44 E0.12043
G1 X73.613 Y62.884 E0.16253
G1 X74.413 Y62.394 E0.20465
G1 X75.252 Y61.974 E0.24678
G1 X76.123 Y61.627 E0.28888
G1 X77.021 Y61.355 E0.33101
G1 X77.938 Y61.161 E0.3731
G1 X78.869 Y61.046 E0.41522
G1 X79.404 Y61.016 E0.43928
G1 X79.718 Y61.006 E0.45338
G1 X80.245 Y61.001 E0.47705
G1 X80.927 Y61.012 E0.50767
G1 X81.864 Y61.068 E0.54982
G1 X82.756 Y61.195 E0.59028
G1 X83.689 Y61.368 E0.63288
G1 X86.211 Y61.801 E0.74778
G1 X88.689 Y62.154 E0.86017
G1 X91.221 Y62.442 E0.97459
G1 X93.711 Y62.654 E1.0868
G1 X96.227 Y62.796 E1.19995
G1 X98.723 Y62.868 E1.31207
G1 X101.247 Y62.868 E1.4254
G1 X103.797 Y62.797 E1.53994
G1 X106.258 Y62.657 E1.65062
G1 X108.804 Y62.441 E1.76535
G1 X111.297 Y62.158 E1.87801
G1 X113.798 Y61.802 E1.99144
G1 X116.3 Y61.374 E2.10542
G1 X116.979 Y61.242 E2.13647
G1 X117.443 Y61.16 E2.15763
G1 X118.374 Y61.045 E2.19975
G1 X118.939 Y61.014 E2.22516
G1 X119.73 Y61.001 E2.26068
G1 X120.408 Y61.011 E2.29113
G1 X121.345 Y61.065 E2.33327
G1 X122.273 Y61.198 E2.37536
G1 X123.186 Y61.41 E2.41745
G1 X124.079 Y61.699 E2.45959
G1 X124.943 Y62.063 E2.50169
G1 X125.773 Y62.5 E2.54381
G1 X126.563 Y63.005 E2.58591
G1 X127.307 Y63.576 E2.62802
G1 X127.965 Y64.173 E2.66791
G1 X128.697 Y64.894 E2.71405
G1 X129.173 Y65.384 E2.74472
G1 X129.754 Y66.04 E2.78407
G1 X130.316 Y66.791 E2.82618
G1 X130.812 Y67.587 E2.8683
G1 X131.239 Y68.422 E2.91041
G1 X131.593 Y69.29 E2.9525
G1 X131.872 Y70.186 E2.99463
G1 X132.074 Y71.102 E3.03675
G1 X132.197 Y72.031 E3.07883
G1 X132.235 Y72.66 E3.10712
G1 X132.25 Y73.324 E3.13695
G1 X132.249 Y106.44 E4.62389
G1 X132.237 Y107.324 E4.66359
G1 X132.216 Y107.927 E4.69068
G1 X132.162 Y108.702 E4.72556
G1 X132.078 Y109.446 E4.75918
G1 X131.98 Y110.113 E4.78945
G1 X131.874 Y110.69 E4.8158
G1 X131.753 Y111.255 E4.84174
G1 X131.634 Y111.742 E4.86425
G1 X131.483 Y112.288 E4.88969
G1 X131.333 Y112.777 E4.91265
G1 X131.158 Y113.297 E4.93729
G1 X130.912 Y113.958 E4.96896
G1 X130.703 Y114.463 E4.9935
G1 X130.482 Y114.958 E5.01784
G1 X130.159 Y115.623 E5.05103
G1 X129.645 Y116.607 E5.10088
G1 X122.636 Y129.597 E5.76363
G1 X122.25 Y130.291 E5.79929
G1 X121.956 Y130.795 E5.82549
G1 X121.658 Y131.271 E5.85071
G1 X121.502 Y131.506 E5.86337
G1 X121.198 Y131.94 E5.88716
G1 X120.995 Y132.216 E5.90255
G1 X120.618 Y132.7 E5.93009
G1 X120.429 Y132.929 E5.94343
G1 X120.094 Y133.316 E5.96641
G1 X119.89 Y133.541 E5.98005
G1 X119.448 Y134.001 E6.00869
G1 X119.227 Y134.218 E6.0226
G1 X118.826 Y134.593 E6.04725
G1 X118.62 Y134.776 E6.05962
G1 X118.223 Y135.112 E6.08297
G1 X117.943 Y135.338 E6.09913
G1 X117.492 Y135.683 E6.12463
G1 X117.27 Y135.844 E6.13694
G1 X116.776 Y136.182 E6.16382
G1 X116.511 Y136.353 E6.17798
G1 X116.047 Y136.636 E6.20238
G1 X115.782 Y136.789 E6.21612
G1 X115.301 Y137.051 E6.24072
G1 X115.026 Y137.192 E6.25459
G1 X114.512 Y137.439 E6.2802
G1 X114.238 Y137.562 E6.29368
G1 X113.696 Y137.788 E6.32005
G1 X113.406 Y137.9 E6.33401
G1 X112.911 Y138.078 E6.35763
G1 X112.607 Y138.179 E6.37201
G1 X111.995 Y138.363 E6.40071
G1 X111.262 Y138.55 E6.43467
G1 X110.967 Y138.616 E6.44825
G1 X110.368 Y138.732 E6.47564
G1 X110.043 Y138.786 E6.49044
G1 X109.525 Y138.86 E6.51393
G1 X108.916 Y138.925 E6.54143
G1 X108.265 Y138.969 E6.57073
G1 X107.756 Y138.988 E6.5936
G1 X106.797 Y139 E6.63666
G1 X93.081 Y138.998 E7.25253
G1 X92.256 Y138.987 E7.28957
G1 X91.733 Y138.97 E7.31307
G1 X91.21 Y138.936 E7.3366
G1 X90.639 Y138.879 E7.36237
G1 X89.986 Y138.791 E7.39195
G1 X89.227 Y138.657 E7.42656
G1 X88.572 Y138.512 E7.45668
G1 X88.288 Y138.44 E7.46984
G1 X87.788 Y138.3 E7.49315
G1 X87.489 Y138.209 E7.50719
G1 X86.927 Y138.022 E7.53378
G1 X86.625 Y137.912 E7.54821
G1 X86.121 Y137.714 E7.57253
G1 X85.836 Y137.594 E7.58641
G1 X85.287 Y137.345 E7.61348
G1 X85.014 Y137.212 E7.62711
G1 X84.557 Y136.976 E7.65021
G1 X84.288 Y136.829 E7.66397
G1 X83.798 Y136.544 E7.68942
G1 X83.551 Y136.392 E7.70245
G1 X83.096 Y136.096 E7.72682
G1 X82.832 Y135.915 E7.74119
G1 X82.324 Y135.546 E7.76938
G1 X82.086 Y135.362 E7.78289
G1 X81.676 Y135.028 E7.80664
G1 X81.438 Y134.825 E7.82068
G1 X81.054 Y134.482 E7.8438
G1 X80.831 Y134.273 E7.85753
G1 X80.394 Y133.84 E7.88515
G1 X80.187 Y133.623 E7.89861
G1 X79.807 Y133.203 E7.92405
G1 X79.604 Y132.967 E7.93802
G1 X79.27 Y132.56 E7.96166
G1 X79.089 Y132.328 E7.97488
G1 X78.72 Y131.827 E8.00281
G1 X78.526 Y131.547 E8.01811
G1 X78.216 Y131.073 E8.04354
G1 X78.055 Y130.813 E8.05727
G1 X77.794 Y130.369 E8.0804
G1 X77.296 Y129.472 E8.12646
G1 X70.284 Y116.473 E8.78964
G1 X69.866 Y115.672 E8.83021
G1 X69.538 Y115.001 E8.86374
G1 X69.31 Y114.494 E8.8887
G1 X69.086 Y113.951 E8.91508
G1 X68.828 Y113.257 E8.94832
G1 X68.666 Y112.778 E8.97103
G1 X68.497 Y112.218 E8.99729
G1 X68.294 Y111.449 E9.033
G1 X68.208 Y111.081 E9.04997
G1 X68.089 Y110.505 E9.07638
G1 X68.026 Y110.151 E9.09253
G1 X67.948 Y109.647 E9.11543
G1 X67.858 Y108.905 E9.14899
G1 X67.812 Y108.379 E9.1727
G1 X67.777 Y107.793 E9.19905
G1 X67.764 Y107.377 E9.21774
G1 X67.75 Y106.291 E9.26651
G1 X67.751 Y73.551 E10.73657
G1 X67.761 Y72.848 E10.76814
G1 X67.814 Y71.911 E10.81028
G1 X67.947 Y70.983 E10.85238
G1 X68.159 Y70.069 E10.89451
G1 X68.447 Y69.177 E10.93659
G1 X68.811 Y68.312 E10.97873
G1 X69.247 Y67.482 E11.02083
G1 X69.752 Y66.691 E11.06297
G1 X70.322 Y65.947 E11.10505
G1 X70.918 Y65.29 E11.14488
G0 F3600 X71.203 Y65.571
G1 F1744 X71.925 Y64.837 E11.19111
G1 X72.43 Y64.348 E11.22267
G1 X73.122 Y63.741 E11.264
G1 X73.865 Y63.197 E11.30535
G1 X74.652 Y62.719 E11.3467
G1 X75.477 Y62.311 E11.38802
G1 X76.335 Y61.977 E11.42936
G1 X77.218 Y61.718 E11.47068
G1 X78.121 Y61.537 E11.51203
G1 X79.417 Y61.415 E11.57048
G1 X79.731 Y61.405 E11.58459
G1 X80.239 Y61.401 E11.6074
G1 X80.921 Y61.412 E11.63803
G1 X81.84 Y61.467 E11.67936
G1 X82.683 Y61.589 E11.71761
G1 X83.554 Y61.751 E11.75739
G1 X86.153 Y62.197 E11.87579
G1 X88.659 Y62.554 E11.98945
G1 X91.143 Y62.836 E12.1017
G1 X93.689 Y63.053 E12.21644
G1 X96.195 Y63.195 E12.32914
G1 X98.746 Y63.268 E12.44373
G1 X101.258 Y63.268 E12.55652
G1 X103.795 Y63.197 E12.67048
G1 X106.316 Y63.054 E12.78386
G1 X108.847 Y62.84 E12.89791
G1 X111.332 Y62.558 E13.0102
G1 X113.851 Y62.199 E13.12445
G1 X116.349 Y61.771 E13.23825
G1 X117.055 Y61.634 E13.27054
G1 X117.509 Y61.555 E13.29123
G1 X118.423 Y61.442 E13.33259
G1 X118.95 Y61.414 E13.35628
G1 X119.724 Y61.401 E13.39104
G1 X120.402 Y61.411 E13.42149
G1 X121.321 Y61.465 E13.46282
G1 X122.232 Y61.598 E13.50416
G1 X123.128 Y61.809 E13.54549
G1 X124.003 Y62.098 E13.58687
G1 X124.849 Y62.461 E13.6282
G1 X125.66 Y62.897 E13.66955
G1 X126.43 Y63.401 E13.71087
G1 X127.154 Y63.97 E13.75222
G1 X127.684 Y64.458 E13.78456
G1 X128.416 Y65.179 E13.8307
G1 X128.884 Y65.661 E13.86086
G1 X129.444 Y66.294 E13.89881
G1 X129.995 Y67.031 E13.94013
G1 X130.481 Y67.813 E13.98147
G1 X130.897 Y68.635 E14.02284
G1 X131.24 Y69.489 E14.06416
G1 X131.507 Y70.37 E14.1055
G1 X131.697 Y71.271 E14.14684
G1 X131.808 Y72.185 E14.18818
G1 X131.845 Y72.991 E14.22441
G1 X131.85 Y73.324 E14.23936
G1 X131.849 Y106.435 E15.72609
G1 X131.837 Y107.319 E15.76578
G1 X131.816 Y107.909 E15.79229
G1 X131.764 Y108.662 E15.82618
G1 X131.681 Y109.397 E15.8594
G1 X131.584 Y110.052 E15.88913
G1 X131.483 Y110.608 E15.9145
G1 X131.364 Y111.164 E15.94003
G1 X131.184 Y111.875 E15.97296
G1 X131.037 Y112.385 E15.99679
G1 X130.876 Y112.888 E16.02051
G1 X130.62 Y113.605 E16.05469
G1 X130.407 Y114.138 E16.08047
G1 X130.118 Y114.794 E16.11265
G1 X129.805 Y115.438 E16.1448
G1 X129.293 Y116.417 E16.19441
G1 X122.287 Y129.402 E16.8569
G1 X121.901 Y130.096 E16.89256
G1 X121.612 Y130.591 E16.9183
G1 X121.324 Y131.049 E16.94259
G1 X121.168 Y131.284 E16.95526
G1 X120.876 Y131.703 E16.97819
G1 X120.673 Y131.979 E16.99357
G1 X120.309 Y132.445 E17.02012
G1 X119.798 Y133.047 E17.05558
G1 X119.594 Y133.272 E17.06921
G1 X119.168 Y133.715 E17.09681
G1 X118.947 Y133.932 E17.11072
G1 X118.56 Y134.294 E17.13451
G1 X118.354 Y134.477 E17.14688
G1 X117.972 Y134.8 E17.16935
G1 X117.692 Y135.026 E17.1855
G1 X117.257 Y135.359 E17.2101
G1 X117.035 Y135.52 E17.22241
G1 X116.559 Y135.846 E17.24832
G1 X116.294 Y136.017 E17.26248
G1 X115.847 Y136.29 E17.286
G1 X115.582 Y136.443 E17.29974
G1 X115.118 Y136.695 E17.32345
G1 X114.843 Y136.836 E17.33732
G1 X114.348 Y137.074 E17.36198
G1 X114.074 Y137.197 E17.37547
G1 X113.552 Y137.415 E17.40087
G1 X113.262 Y137.527 E17.41483
G1 X112.785 Y137.698 E17.43758
G1 X112.481 Y137.799 E17.45196
G1 X111.891 Y137.977 E17.47964
G1 X111.174 Y138.159 E17.51285
G1 X110.879 Y138.225 E17.52642
G1 X110.302 Y138.338 E17.55282
G1 X109.977 Y138.392 E17.56762
G1 X109.479 Y138.462 E17.5902
G1 X108.882 Y138.526 E17.61716
G1 X108.241 Y138.57 E17.64601
G1 X107.75 Y138.588 E17.66807
G1 X106.797 Y138.6 E17.71086
G1 X93.087 Y138.598 E18.32646
G1 X92.262 Y138.587 E18.3635
G1 X91.75 Y138.57 E18.38651
G1 X91.246 Y138.537 E18.40918
G1 X90.687 Y138.482 E18.43441
G1 X90.044 Y138.395 E18.46354
G1 X89.301 Y138.264 E18.49742
G1 X88.67 Y138.124 E18.52644
G1 X87.905 Y137.918 E18.56201
G1 X87.606 Y137.827 E18.57604
G1 X87.064 Y137.646 E18.6017
G1 X86.762 Y137.536 E18.61613
G1 X86.277 Y137.345 E18.63954
G1 X85.992 Y137.225 E18.65342
G1 X85.463 Y136.985 E18.67951
G1 X84.749 Y136.625 E18.71541
G1 X84.48 Y136.478 E18.72917
G1 X84.008 Y136.204 E18.75368
G1 X83.761 Y136.052 E18.7667
G1 X83.322 Y135.767 E18.7902
G1 X83.058 Y135.586 E18.80458
G1 X82.569 Y135.229 E18.83176
G1 X82.331 Y135.045 E18.84527
G1 X81.935 Y134.724 E18.86816
G1 X81.327 Y134.19 E18.90449
G1 X81.104 Y133.981 E18.91822
G1 X80.683 Y133.564 E18.94482
G1 X80.476 Y133.347 E18.95829
G1 X80.11 Y132.942 E18.9828
G1 X79.907 Y132.706 E18.99678
G1 X79.586 Y132.314 E19.01953
G1 X79.405 Y132.082 E19.03274
G1 X79.049 Y131.599 E19.05968
G1 X78.855 Y131.319 E19.07498
G1 X78.556 Y130.863 E19.09946
G1 X78.144 Y130.175 E19.13547
G1 X77.648 Y129.282 E19.18133
G1 X70.639 Y116.288 E19.84425
G1 X70.221 Y115.487 E19.88481
G1 X69.898 Y114.829 E19.91773
G1 X69.679 Y114.34 E19.94179
G1 X69.459 Y113.806 E19.96772
G1 X69.204 Y113.122 E20.00049
G1 X68.968 Y112.399 E20.03464
G1 X68.811 Y111.857 E20.05998
G1 X68.683 Y111.358 E20.08311
G1 X68.597 Y110.99 E20.10008
G1 X68.483 Y110.435 E20.12552
G1 X68.345 Y109.595 E20.16374
G1 X68.256 Y108.867 E20.19668
G1 X68.211 Y108.352 E20.21989
G1 X68.176 Y107.778 E20.24571
G1 X68.164 Y107.372 E20.26395
G1 X68.15 Y106.291 E20.31249
G1 X68.151 Y73.556 E21.78233
G1 X68.161 Y72.853 E21.8139
G1 X68.214 Y71.934 E21.85523
G1 X68.347 Y71.023 E21.89657
G1 X68.558 Y70.127 E21.9379
G1 X68.846 Y69.253 E21.97922
G1 X69.209 Y68.406 E22.0206
G1 X69.644 Y67.595 E22.06192
G1 X70.148 Y66.824 E22.10328
G1 X70.716 Y66.1 E22.1446
G1 X71.203 Y65.571 E22.17688
G0 F3600 X71.488 Y65.851
G1 F1744 X72.21 Y65.117 E22.22311
G1 X72.706 Y64.637 E22.2541
G1 X73.386 Y64.042 E22.29468
G1 X74.116 Y63.51 E22.33523
G1 X74.889 Y63.045 E22.37574
G1 X75.702 Y62.65 E22.41632
G1 X76.545 Y62.328 E22.45684
G1 X77.414 Y62.082 E22.4974
G1 X78.302 Y61.914 E22.53798
G1 X79.429 Y61.815 E22.58877
G1 X80.232 Y61.801 E22.62483
G1 X80.914 Y61.812 E22.65546
G1 X81.816 Y61.867 E22.69604
G1 X82.61 Y61.982 E22.73206
G1 X83.491 Y62.145 E22.77229
G1 X86.099 Y62.594 E22.89112
G1 X88.589 Y62.948 E23.00404
G1 X91.136 Y63.237 E23.11914
G1 X93.633 Y63.45 E23.23167
G1 X96.195 Y63.595 E23.34689
G1 X98.735 Y63.668 E23.46098
G1 X101.269 Y63.668 E23.57476
G1 X103.795 Y63.597 E23.68823
G1 X106.337 Y63.453 E23.80255
G1 X108.89 Y63.237 E23.91759
G1 X111.397 Y62.952 E24.03088
G1 X113.903 Y62.595 E24.14454
G1 X116.448 Y62.16 E24.26047
G1 X117.131 Y62.027 E24.29172
G1 X117.575 Y61.949 E24.31196
G1 X118.472 Y61.84 E24.35253
G1 X119.269 Y61.804 E24.38835
G1 X119.718 Y61.801 E24.40851
G1 X120.396 Y61.811 E24.43896
G1 X121.298 Y61.864 E24.47953
G1 X122.191 Y61.997 E24.52007
G1 X123.069 Y62.209 E24.56063
G1 X123.925 Y62.497 E24.60118
G1 X124.752 Y62.859 E24.64171
G1 X125.544 Y63.294 E24.68229
G1 X126.294 Y63.797 E24.72284
G1 X126.997 Y64.364 E24.76339
G1 X127.404 Y64.743 E24.78836
G1 X128.136 Y65.464 E24.83449
G1 X128.595 Y65.938 E24.86412
G1 X129.134 Y66.547 E24.90064
G1 X129.675 Y67.271 E24.94122
G1 X130.149 Y68.039 E24.98174
G1 X130.553 Y68.847 E25.0223
G1 X130.885 Y69.687 E25.06286
G1 X131.141 Y70.553 E25.10341
G1 X131.319 Y71.438 E25.14394
G1 X131.435 Y72.685 E25.20017
G1 X131.45 Y73.324 E25.22887
G1 X131.449 Y106.429 E26.71533
G1 X131.437 Y107.313 E26.75502
G1 X131.417 Y107.892 E26.78104
G1 X131.366 Y108.623 E26.81394
G1 X131.284 Y109.347 E26.84666
G1 X131.189 Y109.991 E26.87589
G1 X131.092 Y110.526 E26.9003
G1 X130.974 Y111.073 E26.92543
G1 X130.798 Y111.772 E26.95779
G1 X130.654 Y112.27 E26.98107
G1 X130.496 Y112.763 E27.00431
G1 X130.247 Y113.46 E27.03755
G1 X130.039 Y113.981 E27.06274
G1 X129.753 Y114.629 E27.09454
G1 X129.45 Y115.253 E27.12569
G1 X128.941 Y116.227 E27.17503
G1 X121.937 Y129.208 E27.83732
G1 X121.551 Y129.902 E27.87298
G1 X121.268 Y130.387 E27.89819
G1 X120.991 Y130.828 E27.92158
G1 X120.554 Y131.466 E27.9563
G1 X120.351 Y131.742 E27.97168
G1 X120.001 Y132.191 E27.99725
G1 X119.502 Y132.778 E28.03184
G1 X119.298 Y133.003 E28.04548
G1 X118.887 Y133.43 E28.07209
G1 X118.666 Y133.647 E28.086
G1 X118.294 Y133.995 E28.10887
G1 X117.72 Y134.489 E28.14287
G1 X117.44 Y134.715 E28.15903
G1 X117.022 Y135.035 E28.18267
G1 X116.8 Y135.196 E28.19498
G1 X116.342 Y135.51 E28.21991
G1 X116.077 Y135.681 E28.23407
G1 X115.647 Y135.943 E28.25668
G1 X115.382 Y136.096 E28.27042
G1 X114.936 Y136.339 E28.29323
G1 X114.661 Y136.48 E28.3071
G1 X114.184 Y136.709 E28.33086
G1 X113.91 Y136.832 E28.34435
G1 X113.408 Y137.042 E28.36878
G1 X112.659 Y137.319 E28.40464
G1 X112.355 Y137.42 E28.41902
G1 X111.787 Y137.59 E28.44564
G1 X111.087 Y137.769 E28.47809
G1 X110.792 Y137.835 E28.49166
G1 X110.237 Y137.943 E28.51705
G1 X109.432 Y138.065 E28.55361
G1 X108.849 Y138.128 E28.57994
G1 X108.217 Y138.171 E28.60838
G1 X107.745 Y138.188 E28.62959
G1 X106.797 Y138.2 E28.67216
G1 X93.092 Y138.198 E29.28753
G1 X92.267 Y138.187 E29.32457
G1 X91.766 Y138.17 E29.34708
G1 X91.067 Y138.12 E29.37855
G1 X90.334 Y138.033 E29.41169
G1 X89.681 Y137.929 E29.44138
G1 X89.375 Y137.871 E29.45537
G1 X88.768 Y137.736 E29.48329
G1 X88.021 Y137.535 E29.51802
G1 X87.722 Y137.444 E29.53205
G1 X87.201 Y137.27 E29.55672
G1 X86.899 Y137.16 E29.57115
G1 X86.432 Y136.977 E29.59367
G1 X86.147 Y136.857 E29.60756
G1 X85.638 Y136.626 E29.63265
G1 X84.941 Y136.274 E29.66771
G1 X84.672 Y136.127 E29.68148
G1 X84.217 Y135.863 E29.7051
G1 X83.97 Y135.711 E29.71812
G1 X83.548 Y135.437 E29.74071
G1 X83.284 Y135.256 E29.75509
G1 X82.813 Y134.913 E29.78125
G1 X82.195 Y134.42 E29.81674
G1 X81.601 Y133.898 E29.85225
G1 X81.378 Y133.689 E29.86597
G1 X80.972 Y133.287 E29.89163
G1 X80.765 Y133.07 E29.90509
G1 X80.413 Y132.682 E29.92862
G1 X79.901 Y132.068 E29.96451
G1 X79.72 Y131.836 E29.97773
G1 X79.378 Y131.371 E30.00364
G1 X79.184 Y131.091 E30.01894
G1 X78.896 Y130.652 E30.04251
G1 X78.493 Y129.98 E30.0777
G1 X78 Y129.092 E30.1233
G1 X70.993 Y116.103 E30.78597
G1 X70.575 Y115.302 E30.82654
G1 X70.259 Y114.656 E30.85883
G1 X70.048 Y114.185 E30.88201
G1 X69.831 Y113.66 E30.90751
G1 X69.58 Y112.986 E30.93981
G1 X69.352 Y112.286 E30.97286
G1 X69.198 Y111.753 E30.99778
G1 X69.073 Y111.267 E31.02031
G1 X68.987 Y110.899 E31.03728
