;FLAVOR:Marlin
;TIME:3569
;Filament used: 4.68652m
;Layer height: 0.15
;MINX:64.35
;MINY:50.1
;MINZ:0.3
;MAXX:135.65
;MAXY:149.9
;MAXZ:11.85
;Generated with Cura_SteamEngine 4.13.0
M140 S90
M105
M190 S90
M104 S235
M105
M109 S235
M82 ;absolute extrusion mode
G21 ;metric values
G90 ;absolute positioning
M82 ;set extruder to absolute mode
M107 ;start with the fan off
G28 X0 Y0 ;move X/Y to min endstops
G28 Z0 ;move Z to min endstops
G1 Z15.0 F9000 ;move the platform down 15mm
G92 E0 ;zero the extruded length
G1 F200 E6 ;extrude 6 mm of feed stock
G92 E0 ;zero the extruded length again
G1 F9000
;Put printing message on LCD screen
M117 Printing...
G92 E0
G92 E0
G1 F3000 E-5
;LAYER_COUNT:78
;LAYER:0
M107
G0 F3600 X66.922 Y54.308 Z0.3
;TYPE:SKIRT
G1 F3000 E0
G1 F1800 X67.555 Y53.593 E0.04764
G1 X68.246 Y52.935 E0.09525
G1 X68.99 Y52.336 E0.1429
G1 X69.782 Y51.802 E0.19055
G1 X70.615 Y51.336 E0.23817
G1 X71.484 Y50.941 E0.2858
G1 X72.383 Y50.62 E0.33342
G1 X73.306 Y50.376 E0.38105
G1 X74.247 Y50.21 E0.42872
G1 X75.439 Y50.113 E0.48839
G1 X76.08 Y50.1 E0.52038
G1 X123.543 Y50.1 E2.88831
G1 X124.404 Y50.111 E2.93127
G1 X125.358 Y50.165 E2.97895
G1 X126.303 Y50.298 E3.02656
G1 X127.234 Y50.51 E3.07419
G1 X128.144 Y50.799 E3.12183
G1 X129.027 Y51.163 E3.16948
G1 X129.876 Y51.6 E3.21712
G1 X130.685 Y52.106 E3.26472
G1 X131.449 Y52.678 E3.31234
G1 X132.163 Y53.312 E3.35997
G1 X132.821 Y54.004 E3.40761
G1 X133.419 Y54.748 E3.45524
G1 X133.953 Y55.54 E3.50289
G1 X134.418 Y56.374 E3.55053
G1 X134.813 Y57.243 E3.59815
G1 X135.132 Y58.143 E3.64579
G1 X135.376 Y59.066 E3.69342
G1 X135.541 Y60.007 E3.74109
G1 X135.636 Y61.19 E3.8003
G1 X135.65 Y61.83 E3.83223
G1 X135.649 Y137.905 E7.62763
G1 X135.64 Y138.632 E7.6639
G1 X135.588 Y139.585 E7.71152
G1 X135.457 Y140.531 E7.75917
G1 X135.247 Y141.463 E7.80683
G1 X134.96 Y142.373 E7.85443
G1 X134.597 Y143.256 E7.90206
G1 X134.162 Y144.106 E7.9497
G1 X133.657 Y144.917 E7.99737
G1 X133.087 Y145.682 E8.04496
G1 X132.454 Y146.397 E8.0926
G1 X131.764 Y147.057 E8.14024
G1 X131.02 Y147.656 E8.18789
G1 X130.23 Y148.191 E8.23549
G1 X129.397 Y148.658 E8.28314
G1 X128.528 Y149.054 E8.33078
G1 X127.629 Y149.376 E8.37842
G1 X126.706 Y149.621 E8.42607
G1 X125.766 Y149.788 E8.4737
G1 X124.561 Y149.887 E8.53402
G1 X123.92 Y149.9 E8.566
G1 X76.31 Y149.899 E10.94128
G1 X75.612 Y149.89 E10.9761
G1 X74.659 Y149.838 E11.02372
G1 X73.713 Y149.706 E11.07137
G1 X72.782 Y149.495 E11.119
G1 X71.871 Y149.208 E11.16665
G1 X70.988 Y148.845 E11.21428
G1 X70.139 Y148.409 E11.2619
G1 X69.328 Y147.904 E11.30956
G1 X68.563 Y147.333 E11.35719
G1 X67.849 Y146.7 E11.40479
G1 X67.189 Y146.009 E11.45246
G1 X66.59 Y145.266 E11.50008
G1 X66.056 Y144.475 E11.54769
G1 X65.589 Y143.642 E11.59534
G1 X65.194 Y142.773 E11.64296
G1 X64.872 Y141.874 E11.6906
G1 X64.628 Y140.951 E11.73823
G1 X64.461 Y140.011 E11.78586
G1 X64.363 Y138.799 E11.84653
G1 X64.35 Y138.158 E11.87851
G1 X64.351 Y62.02 E15.67705
G1 X64.36 Y61.355 E15.71023
G1 X64.413 Y60.401 E15.7579
G1 X64.545 Y59.456 E15.8055
G1 X64.757 Y58.525 E15.85314
G1 X65.045 Y57.615 E15.90076
G1 X65.408 Y56.732 E15.94839
G1 X65.844 Y55.882 E15.99605
G1 X66.35 Y55.072 E16.0437
G1 X66.922 Y54.308 E16.09131
G0 F3600 X67.316 Y54.458
G1 F1800 X67.948 Y53.764 E16.13814
G1 X68.636 Y53.127 E16.18492
G1 X69.376 Y52.551 E16.23171
G1 X70.162 Y52.039 E16.27851
G1 X70.989 Y51.597 E16.32529
G1 X71.851 Y51.227 E16.37209
G1 X72.741 Y50.931 E16.41888
G1 X73.653 Y50.713 E16.46566
G1 X74.58 Y50.572 E16.51244
G1 X75.451 Y50.513 E16.556
G1 X76.08 Y50.5 E16.58738
G1 X123.543 Y50.5 E18.95532
G1 X124.399 Y50.511 E18.99803
G1 X125.335 Y50.565 E19.04481
G1 X126.263 Y50.697 E19.09157
G1 X127.177 Y50.909 E19.13838
G1 X128.069 Y51.198 E19.18516
G1 X128.934 Y51.561 E19.23196
G1 X129.764 Y51.997 E19.27874
G1 X130.555 Y52.502 E19.32556
G1 X131.299 Y53.073 E19.37235
G1 X131.992 Y53.705 E19.41914
G1 X132.629 Y54.393 E19.46592
G1 X133.204 Y55.134 E19.51271
G1 X133.715 Y55.92 E19.55948
G1 X134.157 Y56.748 E19.60631
G1 X134.526 Y57.61 E19.65309
G1 X134.821 Y58.5 E19.69987
G1 X135.039 Y59.412 E19.74665
G1 X135.179 Y60.34 E19.79347
G1 X135.237 Y61.201 E19.83652
G1 X135.25 Y61.83 E19.86791
G1 X135.249 Y137.9 E23.66306
G1 X135.24 Y138.627 E23.69933
G1 X135.189 Y139.564 E23.74615
G1 X135.057 Y140.492 E23.79291
G1 X134.848 Y141.406 E23.83969
G1 X134.561 Y142.299 E23.88649
G1 X134.199 Y143.165 E23.93331
G1 X133.765 Y143.996 E23.98009
G1 X133.261 Y144.787 E24.02688
G1 X132.692 Y145.532 E24.07365
G1 X132.061 Y146.227 E24.12048
G1 X131.374 Y146.865 E24.16725
G1 X130.635 Y147.442 E24.21403
G1 X129.849 Y147.954 E24.26083
G1 X129.023 Y148.397 E24.30759
G1 X128.161 Y148.769 E24.35443
G1 X127.272 Y149.065 E24.40118
G1 X126.36 Y149.285 E24.44798
G1 X125.433 Y149.426 E24.49476
G1 X124.549 Y149.487 E24.53897
G1 X123.92 Y149.5 E24.57036
G1 X76.315 Y149.499 E26.94538
G1 X75.617 Y149.49 E26.98021
G1 X74.681 Y149.438 E27.02698
G1 X73.752 Y149.306 E27.07379
G1 X72.838 Y149.096 E27.12058
G1 X71.945 Y148.809 E27.16737
G1 X71.08 Y148.446 E27.21418
G1 X70.249 Y148.012 E27.26095
G1 X69.458 Y147.508 E27.30774
G1 X68.713 Y146.938 E27.35454
G1 X68.019 Y146.307 E27.40134
G1 X67.382 Y145.62 E27.44808
G1 X66.805 Y144.88 E27.49489
G1 X66.293 Y144.094 E27.54169
G1 X65.85 Y143.267 E27.5885
G1 X65.479 Y142.406 E27.63527
G1 X65.183 Y141.516 E27.68206
G1 X64.964 Y140.604 E27.72886
G1 X64.823 Y139.677 E27.77564
G1 X64.763 Y138.788 E27.82009
G1 X64.75 Y138.158 E27.85153
G1 X64.751 Y62.025 E31.64982
G1 X64.76 Y61.36 E31.683
G1 X64.813 Y60.424 E31.72977
G1 X64.945 Y59.495 E31.77659
G1 X65.156 Y58.581 E31.82338
G1 X65.444 Y57.689 E31.87015
G1 X65.807 Y56.824 E31.91695
G1 X66.242 Y55.993 E31.96374
G1 X66.746 Y55.203 E32.0105
G1 X67.316 Y54.458 E32.0573
G0 F3600 X67.711 Y54.611
G1 F1800 X68.339 Y53.939 E32.10318
G1 X69.024 Y53.323 E32.14914
G1 X69.76 Y52.77 E32.19507
G1 X70.541 Y52.282 E32.24102
G1 X71.361 Y51.864 E32.28694
G1 X72.215 Y51.519 E32.33289
G1 X73.095 Y51.249 E32.37881
G1 X73.995 Y51.057 E32.42472
G1 X74.909 Y50.943 E32.47068
G1 X75.462 Y50.913 E32.49831
G1 X76.08 Y50.9 E32.52914
G1 X123.543 Y50.9 E34.89708
G1 X124.393 Y50.911 E34.93949
G1 X125.312 Y50.964 E34.98542
G1 X126.223 Y51.097 E35.03135
G1 X127.119 Y51.308 E35.07727
G1 X127.993 Y51.596 E35.12318
G1 X128.84 Y51.959 E35.16916
G1 X129.651 Y52.394 E35.21507
G1 X130.421 Y52.898 E35.26099
G1 X131.145 Y53.467 E35.30693
G1 X131.817 Y54.097 E35.35288
G1 X132.432 Y54.782 E35.39881
G1 X132.985 Y55.518 E35.44474
G1 X133.472 Y56.299 E35.49066
G1 X133.889 Y57.12 E35.5366
G1 X134.234 Y57.974 E35.58255
G1 X134.503 Y58.854 E35.62846
G1 X134.695 Y59.755 E35.67442
G1 X134.808 Y60.668 E35.72032
G1 X134.837 Y61.212 E35.74749
G1 X134.85 Y61.83 E35.77833
G1 X134.849 Y137.895 E39.57323
G1 X134.84 Y138.622 E39.6095
G1 X134.789 Y139.541 E39.65542
G1 X134.658 Y140.453 E39.70139
G1 X134.448 Y141.349 E39.7473
G1 X134.162 Y142.224 E39.79323
G1 X133.801 Y143.071 E39.83917
G1 X133.367 Y143.883 E39.8851
G1 X132.865 Y144.655 E39.93104
G1 X132.297 Y145.38 E39.97699
G1 X131.669 Y146.053 E40.02291
G1 X130.985 Y146.669 E40.06884
G1 X130.25 Y147.223 E40.11476
G1 X129.47 Y147.712 E40.16069
G1 X128.65 Y148.131 E40.20663
G1 X127.797 Y148.477 E40.25255
G1 X126.917 Y148.748 E40.29849
G1 X126.017 Y148.941 E40.34441
G1 X125.103 Y149.056 E40.39037
G1 X124.538 Y149.087 E40.4186
G1 X123.92 Y149.1 E40.44944
G1 X76.32 Y149.099 E42.82421
G1 X75.622 Y149.09 E42.85904
G1 X74.703 Y149.038 E42.90496
G1 X73.792 Y148.907 E42.95088
G1 X72.896 Y148.697 E42.99679
G1 X72.021 Y148.41 E43.04274
G1 X71.174 Y148.048 E43.08869
G1 X70.362 Y147.614 E43.13462
G1 X69.591 Y147.112 E43.18052
G1 X68.866 Y146.544 E43.22647
G1 X68.193 Y145.915 E43.27243
G1 X67.578 Y145.231 E43.31832
G1 X67.024 Y144.496 E43.36424
G1 X66.536 Y143.715 E43.41019
G1 X66.117 Y142.895 E43.45613
G1 X65.771 Y142.042 E43.50205
G1 X65.501 Y141.162 E43.54798
G1 X65.308 Y140.261 E43.59395
G1 X65.194 Y139.348 E43.63985
G1 X65.163 Y138.777 E43.66838
G1 X65.15 Y138.158 E43.69927
G1 X65.151 Y62.031 E47.49726
G1 X65.16 Y61.366 E47.53044
G1 X65.212 Y60.446 E47.57641
G1 X65.344 Y59.535 E47.62234
G1 X65.555 Y58.639 E47.66826
G1 X65.842 Y57.764 E47.7142
G1 X66.205 Y56.918 E47.76013
G1 X66.639 Y56.106 E47.80607
G1 X67.142 Y55.335 E47.85199
G1 X67.711 Y54.611 E47.89793
G0 F3600 X68.105 Y54.767
G1 F1800 X68.731 Y54.117 E47.94296
G1 X69.412 Y53.524 E47.98801
G1 X70.144 Y52.994 E48.03309
G1 X70.919 Y52.531 E48.07813
G1 X71.732 Y52.138 E48.12318
G1 X72.577 Y51.818 E48.16826
G1 X73.446 Y51.575 E48.21328
G1 X74.334 Y51.409 E48.25835
G1 X75.473 Y51.313 E48.31538
G1 X76.08 Y51.3 E48.34567
G1 X123.543 Y51.3 E50.71361
G1 X124.387 Y51.311 E50.75572
G1 X125.289 Y51.364 E50.8008
G1 X126.182 Y51.496 E50.84583
G1 X127.06 Y51.707 E50.89088
G1 X127.916 Y51.995 E50.93594
G1 X128.743 Y52.357 E50.98098
G1 X129.535 Y52.792 E51.02606
G1 X130.286 Y53.294 E51.07113
G1 X130.989 Y53.861 E51.11619
G1 X131.639 Y54.488 E51.16124
G1 X132.231 Y55.17 E51.2063
G1 X132.761 Y55.901 E51.25135
G1 X133.223 Y56.677 E51.2964
G1 X133.616 Y57.49 E51.34145
G1 X133.934 Y58.335 E51.3865
G1 X134.177 Y59.205 E51.43156
G1 X134.342 Y60.093 E51.47662
G1 X134.437 Y61.223 E51.5332
G1 X134.45 Y61.83 E51.56349
G1 X134.449 Y137.89 E55.35814
G1 X134.44 Y138.617 E55.39441
G1 X134.389 Y139.519 E55.43948
G1 X134.258 Y140.413 E55.48456
G1 X134.049 Y141.291 E55.52959
G1 X133.763 Y142.148 E55.57466
G1 X133.402 Y142.976 E55.61973
G1 X132.97 Y143.768 E55.66474
G1 X132.469 Y144.52 E55.70982
G1 X131.903 Y145.224 E55.75488
G1 X131.278 Y145.875 E55.79991
G1 X130.597 Y146.469 E55.84499
G1 X129.866 Y147 E55.89007
G1 X129.092 Y147.464 E55.93509
G1 X128.279 Y147.858 E55.98016
G1 X127.435 Y148.178 E56.02519
G1 X126.565 Y148.423 E56.07029
G1 X125.678 Y148.589 E56.11531
G1 X124.527 Y148.687 E56.17294
G1 X123.92 Y148.7 E56.20323
G1 X76.325 Y148.699 E58.57775
G1 X75.627 Y148.69 E58.61258
G1 X74.726 Y148.639 E58.6576
G1 X73.832 Y148.507 E58.70269
G1 X72.954 Y148.298 E58.74772
G1 X72.097 Y148.011 E58.79281
G1 X71.27 Y147.65 E58.83782
G1 X70.477 Y147.217 E58.8829
G1 X69.726 Y146.716 E58.92794
G1 X69.022 Y146.15 E58.97301
G1 X68.371 Y145.524 E59.01807
G1 X67.778 Y144.843 E59.06312
G1 X67.248 Y144.112 E59.10816
G1 X66.784 Y143.337 E59.15323
G1 X66.39 Y142.524 E59.1983
G1 X66.07 Y141.68 E59.24333
G1 X65.826 Y140.81 E59.28841
G1 X65.66 Y139.922 E59.33348
G1 X65.563 Y138.767 E59.39131
G1 X65.55 Y138.158 E59.4217
G1 X65.551 Y62.036 E63.21944
G1 X65.56 Y61.371 E63.25262
G1 X65.612 Y60.469 E63.2977
G1 X65.744 Y59.576 E63.34273
G1 X65.954 Y58.698 E63.38777
G1 X66.241 Y57.841 E63.43286
G1 X66.603 Y57.014 E63.4779
G1 X67.036 Y56.222 E63.52293
G1 X67.538 Y55.471 E63.568
G1 X68.105 Y54.767 E63.6131
G1 F3000 E58.6131
;MESH:temp.stl
G0 F3600 X75.085 Y62.114
G0 X76.364 Y62.114
G0 X123.58 Y137.83
G1 F3000 E63.6131
G0 F3600 X123.65 Y137.9
;TYPE:WALL-INNER
G1 F1800 X76.35 Y137.9 E65.9729
G1 X76.35 Y62.1 E69.75458
G1 X123.65 Y62.1 E72.11439
G1 X123.65 Y137.9 E75.89607
G0 F3600 X124.05 Y138.3
;TYPE:WALL-OUTER
G1 F1800 X75.95 Y138.3 E78.29578
G1 X75.95 Y61.7 E82.11737
G1 X124.05 Y61.7 E84.51709
G1 X124.05 Y138.3 E88.33868
G0 F3600 X123.85 Y138.3
G0 X123.26 Y137.51
;TYPE:SKIN
G1 F1800 X76.74 Y137.51 E90.65957
G1 X76.74 Y62.49 E94.40234
G1 X123.26 Y62.49 E96.72323
G1 X123.26 Y137.51 E100.46599
G0 F3600 X77.366 Y137.329
G1 F1800 X76.919 Y136.882 E100.49753
G0 F3600 X76.919 Y136.316
G1 F1800 X77.932 Y137.329 E100.569
G0 F3600 X78.498 Y137.329
G1 F1800 X76.919 Y135.751 E100.68038
G0 F3600 X76.919 Y135.185
G1 F1800 X79.063 Y137.329 E100.83165
G0 F3600 X79.629 Y137.329
G1 F1800 X76.919 Y134.619 E101.02285
G0 F3600 X76.919 Y134.054
G1 F1800 X80.195 Y137.329 E101.25396
G0 F3600 X80.76 Y137.329
G1 F1800 X76.919 Y133.488 E101.52496
G0 F3600 X76.919 Y132.922
G1 F1800 X81.326 Y137.329 E101.8359
G0 F3600 X81.892 Y137.329
G1 F1800 X76.919 Y132.356 E102.18677
G0 F3600 X76.919 Y131.791
G1 F1800 X82.457 Y137.329 E102.5775
G0 F3600 X83.023 Y137.329
G1 F1800 X76.919 Y131.225 E103.00817
G0 F3600 X76.919 Y130.659
G1 F1800 X83.589 Y137.329 E103.47878
G0 F3600 X84.154 Y137.329
G1 F1800 X76.919 Y130.094 E103.98925
G0 F3600 X76.919 Y129.528
G1 F1800 X84.72 Y137.329 E104.53965
G0 F3600 X85.286 Y137.329
G1 F1800 X76.919 Y128.962 E105.12999
G0 F3600 X76.919 Y128.397
G1 F1800 X85.851 Y137.329 E105.76019
G0 F3600 X86.417 Y137.329
G1 F1800 X76.919 Y127.831 E106.43032
G0 F3600 X76.919 Y127.265
G1 F1800 X86.983 Y137.329 E107.14039
G0 F3600 X87.549 Y137.329
G1 F1800 X76.919 Y126.7 E107.89036
G0 F3600 X76.919 Y126.134
G1 F1800 X88.114 Y137.329 E108.68023
G0 F3600 X88.68 Y137.329
G1 F1800 X76.919 Y125.568 E109.51003
G0 F3600 X76.919 Y125.003
G1 F1800 X89.246 Y137.329 E110.37973
G0 F3600 X89.811 Y137.329
G1 F1800 X76.919 Y124.437 E111.28933
G0 F3600 X76.919 Y123.871
G1 F1800 X90.377 Y137.329 E112.23887
G0 F3600 X90.943 Y137.329
G1 F1800 X76.919 Y123.305 E113.22834
G0 F3600 X76.919 Y122.74
G1 F1800 X91.508 Y137.329 E114.25767
G0 F3600 X92.074 Y137.329
G1 F1800 X76.919 Y122.174 E115.32694
G0 F3600 X76.919 Y121.608
G1 F1800 X92.64 Y137.329 E116.43614
G0 F3600 X93.205 Y137.329
G1 F1800 X76.919 Y121.043 E117.5852
G0 F3600 X76.919 Y120.477
G1 F1800 X93.771 Y137.329 E118.7742
G0 F3600 X94.337 Y137.329
G1 F1800 X76.919 Y119.911 E120.00314
G0 F3600 X76.919 Y119.346
G1 F1800 X94.902 Y137.329 E121.27193
G0 F3600 X95.468 Y137.329
G1 F1800 X76.919 Y118.78 E122.58067
G0 F3600 X76.919 Y118.214
G1 F1800 X96.034 Y137.329 E123.92933
G0 F3600 X96.599 Y137.329
G1 F1800 X76.919 Y117.649 E125.31786
G0 F3600 X76.919 Y117.083
G1 F1800 X97.165 Y137.329 E126.74633
G0 F3600 X97.731 Y137.329
G1 F1800 X76.919 Y116.517 E128.21473
G0 F3600 X76.919 Y115.952
G1 F1800 X98.297 Y137.329 E129.72302
G0 F3600 X98.862 Y137.329
G1 F1800 X76.919 Y115.386 E131.27122
G0 F3600 X76.919 Y114.82
G1 F1800 X99.428 Y137.329 E132.85935
G0 F3600 X99.994 Y137.329
G1 F1800 X76.919 Y114.255 E134.48738
G0 F3600 X76.919 Y113.689
G1 F1800 X100.559 Y137.329 E136.15531
G0 F3600 X101.125 Y137.329
G1 F1800 X76.919 Y113.123 E137.86318
G0 F3600 X76.919 Y112.557
G1 F1800 X101.691 Y137.329 E139.61098
G0 F3600 X102.256 Y137.329
G1 F1800 X76.919 Y111.992 E141.39864
G0 F3600 X76.919 Y111.426
G1 F1800 X102.822 Y137.329 E143.22623
G0 F3600 X103.388 Y137.329
G1 F1800 X76.919 Y110.86 E145.09377
G0 F3600 X76.919 Y110.295
G1 F1800 X103.953 Y137.329 E147.00116
G0 F3600 X104.519 Y137.329
G1 F1800 X76.919 Y109.729 E148.94849
G0 F3600 X76.919 Y109.163
G1 F1800 X105.085 Y137.329 E150.93575
G0 F3600 X105.65 Y137.329
G1 F1800 X76.919 Y108.598 E152.96288
G0 F3600 X76.919 Y108.032
G1 F1800 X106.216 Y137.329 E155.02994
G0 F3600 X106.782 Y137.329
G1 F1800 X76.919 Y107.466 E157.13694
G0 F3600 X76.919 Y106.901
G1 F1800 X107.348 Y137.329 E159.28383
G0 F3600 X107.913 Y137.329
G1 F1800 X76.919 Y106.335 E161.47063
G0 F3600 X76.919 Y105.769
G1 F1800 X108.479 Y137.329 E163.69736
G0 F3600 X109.045 Y137.329
G1 F1800 X76.919 Y105.204 E165.96398
G0 F3600 X76.919 Y104.638
G1 F1800 X109.61 Y137.329 E168.27051
G0 F3600 X110.176 Y137.329
G1 F1800 X76.919 Y104.072 E170.61697
G0 F3600 X76.919 Y103.506
G1 F1800 X110.742 Y137.329 E173.00337
G0 F3600 X111.307 Y137.329
G1 F1800 X76.919 Y102.941 E175.42962
G0 F3600 X76.919 Y102.375
G1 F1800 X111.873 Y137.329 E177.89582
G0 F3600 X112.439 Y137.329
G1 F1800 X76.919 Y101.809 E180.40195
G0 F3600 X76.919 Y101.244
G1 F1800 X113.004 Y137.329 E182.94794
G0 F3600 X113.57 Y137.329
G1 F1800 X76.919 Y100.678 E185.53386
G0 F3600 X76.919 Y100.112
G1 F1800 X114.136 Y137.329 E188.15972
G0 F3600 X114.701 Y137.329
G1 F1800 X76.919 Y99.547 E190.82545
G0 F3600 X76.919 Y98.981
G1 F1800 X115.267 Y137.329 E193.53111
G0 F3600 X115.833 Y137.329
G1 F1800 X76.919 Y98.415 E196.2767
G0 F3600 X76.919 Y97.85
G1 F1800 X116.398 Y137.329 E199.06216
G0 F3600 X116.964 Y137.329
G1 F1800 X76.919 Y97.284 E201.88755
G0 F3600 X76.919 Y96.718
G1 F1800 X117.53 Y137.329 E204.75287
G0 F3600 X118.096 Y137.329
G1 F1800 X76.919 Y96.153 E207.6581
G0 F3600 X76.919 Y95.587
G1 F1800 X118.661 Y137.329 E210.60322
G0 F3600 X119.227 Y137.329
G1 F1800 X76.919 Y95.021 E213.58828
G0 F3600 X76.919 Y94.456
G1 F1800 X119.793 Y137.329 E216.61324
